; FLAVOR:Marlin
; TIME:1083
; Filament used: 0.494445m
; Layer height: 0.2
; MINX:19.579
; MINY:71.095
; MINZ:0.2
; MAXX:53.621
; MAXY:107.105
; MAXZ:2
; TARGET_MACHINE.NAME:Creality Ender-3 V3 SE
; Generated with Cura_SteamEngine 5.6.0
M140 S60
M105
M190 S60
M104 S200
M105
M109 S200
M82  ; absolute extrusion mode
M220 S100 ; Reset Feedrate
M221 S100 ; Reset Flowrate
G0 Z36.1935 ; raise to safe working height
G28 X Y  ; home x and y axes
M206 X99.25 Y-25.0 Z0  ; apply home offsets in x and y
M500  ; save home offsets
G28 Z  ; home z axis
G0 Z36.1935 ; raise to safe working height
M206 X0 Y0 Z0  ; reset home offsets in x and y
M500  ; save home offsets
M420 S1 ; Enable mesh leveling
G92 E0.0 ; Reset Extruder
G1 Z2.0 F3000 ; Move Z Axis up
G1 X34.8873 Y149.4118 Z-11.3056 F5000.0 ; Move to start position--INTERPOLATED
G1 X34.7747 Y148.8235 Z-11.3983 F5000.0 ; Move to start position--INTERPOLATED
G1 X34.662 Y148.2353 Z-11.4862 F5000.0 ; Move to start position--INTERPOLATED
G1 X34.5493 Y147.6471 Z-11.572 F5000.0 ; Move to start position--INTERPOLATED
G1 X34.4367 Y147.0588 Z-11.6577 F5000.0 ; Move to start position--INTERPOLATED
G1 X34.324 Y146.4706 Z-11.7414 F5000.0 ; Move to start position--INTERPOLATED
G1 X34.2113 Y145.8824 Z-11.8244 F5000.0 ; Move to start position--INTERPOLATED
G1 X34.0986 Y145.2941 Z-11.8869 F5000.0 ; Move to start position--INTERPOLATED
G1 X33.986 Y144.7059 Z-11.9335 F5000.0 ; Move to start position--INTERPOLATED
G1 X33.8733 Y144.1176 Z-11.9783 F5000.0 ; Move to start position--INTERPOLATED
G1 X33.7606 Y143.5294 Z-12.0207 F5000.0 ; Move to start position--INTERPOLATED
G1 X33.648 Y142.9412 Z-12.0601 F5000.0 ; Move to start position--INTERPOLATED
G1 X33.5353 Y142.3529 Z-12.0958 F5000.0 ; Move to start position--INTERPOLATED
G1 X33.4226 Y141.7647 Z-12.1264 F5000.0 ; Move to start position--INTERPOLATED
G1 X33.31 Y141.1765 Z-12.1509 F5000.0 ; Move to start position--INTERPOLATED
G1 X33.1973 Y140.5882 Z-12.1677 F5000.0 ; Move to start position--INTERPOLATED
G1 X33.0846 Y140.0 Z-12.1759 F5000.0 ; Move to start position--INTERPOLATED
G1 X32.9719 Y139.4118 Z-12.1749 F5000.0 ; Move to start position--INTERPOLATED
G1 X32.8593 Y138.8235 Z-12.1646 F5000.0 ; Move to start position--INTERPOLATED
G1 X32.7466 Y138.2353 Z-12.146 F5000.0 ; Move to start position--INTERPOLATED
G1 X32.6339 Y137.6471 Z-12.1201 F5000.0 ; Move to start position--INTERPOLATED
G1 X32.5213 Y137.0588 Z-12.0882 F5000.0 ; Move to start position--INTERPOLATED
G1 X32.4086 Y136.4706 Z-12.0519 F5000.0 ; Move to start position--INTERPOLATED
G1 X32.2959 Y135.8824 Z-12.0116 F5000.0 ; Move to start position--INTERPOLATED
G1 X32.1833 Y135.2941 Z-11.9686 F5000.0 ; Move to start position--INTERPOLATED
G1 X32.0706 Y134.7059 Z-11.9235 F5000.0 ; Move to start position--INTERPOLATED
G1 X31.9579 Y134.1176 Z-11.8765 F5000.0 ; Move to start position--INTERPOLATED
G1 X31.8452 Y133.5294 Z-11.8058 F5000.0 ; Move to start position--INTERPOLATED
G1 X31.7326 Y132.9412 Z-11.7235 F5000.0 ; Move to start position--INTERPOLATED
G1 X31.6199 Y132.3529 Z-11.6386 F5000.0 ; Move to start position--INTERPOLATED
G1 X31.5072 Y131.7647 Z-11.5538 F5000.0 ; Move to start position--INTERPOLATED
G1 X31.3946 Y131.1765 Z-11.4664 F5000.0 ; Move to start position--INTERPOLATED
G1 X31.2819 Y130.5882 Z-11.379 F5000.0 ; Move to start position--INTERPOLATED
G1 X31.1692 Y130.0 Z-11.2792 F5000.0 ; Move to start position--INTERPOLATED
G1 X31.0566 Y129.4118 Z-11.153 F5000.0 ; Move to start position--INTERPOLATED
G1 X30.9439 Y128.8235 Z-11.0267 F5000.0 ; Move to start position--INTERPOLATED
G1 X30.8312 Y128.2353 Z-10.9004 F5000.0 ; Move to start position--INTERPOLATED
G1 X30.7186 Y127.6471 Z-10.7741 F5000.0 ; Move to start position--INTERPOLATED
G1 X30.6059 Y127.0588 Z-10.6459 F5000.0 ; Move to start position--INTERPOLATED
G1 X30.4932 Y126.4706 Z-10.5015 F5000.0 ; Move to start position--INTERPOLATED
G1 X30.3805 Y125.8824 Z-10.3342 F5000.0 ; Move to start position--INTERPOLATED
G1 X30.2679 Y125.2941 Z-10.167 F5000.0 ; Move to start position--INTERPOLATED
G1 X30.1552 Y124.7059 Z-9.9997 F5000.0 ; Move to start position--INTERPOLATED
G1 X30.0425 Y124.1176 Z-9.8324 F5000.0 ; Move to start position--INTERPOLATED
G1 X29.9299 Y123.5294 Z-9.6651 F5000.0 ; Move to start position--INTERPOLATED
G1 X29.8172 Y122.9412 Z-9.469 F5000.0 ; Move to start position--INTERPOLATED
G1 X29.7045 Y122.3529 Z-9.2588 F5000.0 ; Move to start position--INTERPOLATED
G1 X29.5919 Y121.7647 Z-9.0485 F5000.0 ; Move to start position--INTERPOLATED
G1 X29.4792 Y121.1765 Z-8.8382 F5000.0 ; Move to start position--INTERPOLATED
G1 X29.3665 Y120.5882 Z-8.628 F5000.0 ; Move to start position--INTERPOLATED
G1 X29.2538 Y120.0 Z-8.4135 F5000.0 ; Move to start position--INTERPOLATED
G1 X29.1412 Y119.4118 Z-8.1609 F5000.0 ; Move to start position--INTERPOLATED
G1 X29.0285 Y118.8235 Z8.28 F5000.0 ; Move to start position--INTERPOLATED
G1 X28.9158 Y118.2353 Z8.28 F5000.0 ; Move to start position--INTERPOLATED
G1 X28.8032 Y117.6471 Z8.28 F5000.0 ; Move to start position--INTERPOLATED
G1 X28.6905 Y117.0588 Z8.28 F5000.0 ; Move to start position--INTERPOLATED
G1 X28.5778 Y116.4706 Z8.28 F5000.0 ; Move to start position--INTERPOLATED
G1 X28.4652 Y115.8824 Z8.28 F5000.0 ; Move to start position--INTERPOLATED
G1 X28.3525 Y115.2941 Z8.28 F5000.0 ; Move to start position--INTERPOLATED
G1 X28.2398 Y114.7059 Z8.28 F5000.0 ; Move to start position--INTERPOLATED
G1 X28.1271 Y114.1176 Z8.28 F5000.0 ; Move to start position--INTERPOLATED
G1 X28.0145 Y113.5294 Z8.28 F5000.0 ; Move to start position--INTERPOLATED
G1 X27.9018 Y112.9412 Z8.28 F5000.0 ; Move to start position--INTERPOLATED
G1 X27.7891 Y112.3529 Z8.28 F5000.0 ; Move to start position--INTERPOLATED
G1 X27.6765 Y111.7647 Z8.28 F5000.0 ; Move to start position--INTERPOLATED
G1 X27.5638 Y111.1765 Z8.28 F5000.0 ; Move to start position--INTERPOLATED
G1 X27.4511 Y110.5882 Z8.28 F5000.0 ; Move to start position--INTERPOLATED
G1 X27.3385 Y110.0 Z8.28 F5000.0 ; Move to start position--INTERPOLATED
G1 X27.2258 Y109.4118 Z8.28 F5000.0 ; Move to start position--INTERPOLATED
G1 X27.1131 Y108.8235 Z8.0387 F5000.0 ; Move to start position--INTERPOLATED
G1 X27.0005 Y108.2353 Z8.2199 F5000.0 ; Move to start position--INTERPOLATED
G1 X26.8878 Y107.6471 Z8.3957 F5000.0 ; Move to start position--INTERPOLATED
G1 X26.7751 Y107.0588 Z8.5716 F5000.0 ; Move to start position--INTERPOLATED
G1 X26.6624 Y106.4706 Z8.7474 F5000.0 ; Move to start position--INTERPOLATED
G1 X26.5498 Y105.8824 Z8.9155 F5000.0 ; Move to start position--INTERPOLATED
G1 X26.4371 Y105.2941 Z9.0817 F5000.0 ; Move to start position--INTERPOLATED
G1 X26.3244 Y104.7059 Z9.2478 F5000.0 ; Move to start position--INTERPOLATED
G1 X26.2118 Y104.1176 Z9.377 F5000.0 ; Move to start position--INTERPOLATED
G1 X26.0991 Y103.5294 Z9.5025 F5000.0 ; Move to start position--INTERPOLATED
G1 X25.9864 Y102.9412 Z9.6281 F5000.0 ; Move to start position--INTERPOLATED
G1 X25.8738 Y102.3529 Z9.7448 F5000.0 ; Move to start position--INTERPOLATED
G1 X25.7611 Y101.7647 Z9.8614 F5000.0 ; Move to start position--INTERPOLATED
G1 X25.6484 Y101.1765 Z9.9726 F5000.0 ; Move to start position--INTERPOLATED
G1 X25.5357 Y100.5882 Z10.0799 F5000.0 ; Move to start position--INTERPOLATED
G1 X25.4231 Y100.0 Z10.1832 F5000.0 ; Move to start position--INTERPOLATED
G1 X25.3104 Y99.4118 Z10.2805 F5000.0 ; Move to start position--INTERPOLATED
G1 X25.1977 Y98.8235 Z10.3706 F5000.0 ; Move to start position--INTERPOLATED
G1 X25.0851 Y98.2353 Z10.4375 F5000.0 ; Move to start position--INTERPOLATED
G1 X24.9724 Y97.6471 Z10.4998 F5000.0 ; Move to start position--INTERPOLATED
G1 X24.8597 Y97.0588 Z10.5585 F5000.0 ; Move to start position--INTERPOLATED
G1 X24.7471 Y96.4706 Z10.6103 F5000.0 ; Move to start position--INTERPOLATED
G1 X24.6344 Y95.8824 Z10.6589 F5000.0 ; Move to start position--INTERPOLATED
G1 X24.5217 Y95.2941 Z10.7005 F5000.0 ; Move to start position--INTERPOLATED
G1 X24.409 Y94.7059 Z10.7366 F5000.0 ; Move to start position--INTERPOLATED
G1 X24.2964 Y94.1176 Z10.7682 F5000.0 ; Move to start position--INTERPOLATED
G1 X24.1837 Y93.5294 Z10.792 F5000.0 ; Move to start position--INTERPOLATED
G1 X24.071 Y92.9412 Z10.8099 F5000.0 ; Move to start position--INTERPOLATED
G1 X23.9584 Y92.3529 Z10.8226 F5000.0 ; Move to start position--INTERPOLATED
G1 X23.8457 Y91.7647 Z10.8282 F5000.0 ; Move to start position--INTERPOLATED
G1 X23.733 Y91.1765 Z10.8265 F5000.0 ; Move to start position--INTERPOLATED
G1 X23.6204 Y90.5882 Z10.8196 F5000.0 ; Move to start position--INTERPOLATED
G1 X23.5077 Y90.0 Z10.8068 F5000.0 ; Move to start position--INTERPOLATED
G1 X23.395 Y89.4118 Z10.7856 F5000.0 ; Move to start position--INTERPOLATED
G1 X23.2824 Y88.8235 Z10.7596 F5000.0 ; Move to start position--INTERPOLATED
G1 X23.1697 Y88.2353 Z10.7287 F5000.0 ; Move to start position--INTERPOLATED
G1 X23.057 Y87.6471 Z10.6893 F5000.0 ; Move to start position--INTERPOLATED
G1 X22.9443 Y87.0588 Z10.6459 F5000.0 ; Move to start position--INTERPOLATED
G1 X22.8317 Y86.4706 Z10.5975 F5000.0 ; Move to start position--INTERPOLATED
G1 X22.719 Y85.8824 Z10.5422 F5000.0 ; Move to start position--INTERPOLATED
G1 X22.6063 Y85.2941 Z10.4845 F5000.0 ; Move to start position--INTERPOLATED
G1 X22.4937 Y84.7059 Z10.4193 F5000.0 ; Move to start position--INTERPOLATED
G1 X22.381 Y84.1176 Z10.3495 F5000.0 ; Move to start position--INTERPOLATED
G1 X22.2683 Y83.5294 Z10.2543 F5000.0 ; Move to start position--INTERPOLATED
G1 X22.1557 Y82.9412 Z10.156 F5000.0 ; Move to start position--INTERPOLATED
G1 X22.043 Y82.3529 Z10.0509 F5000.0 ; Move to start position--INTERPOLATED
G1 X21.9303 Y81.7647 Z9.9439 F5000.0 ; Move to start position--INTERPOLATED
G1 X21.8176 Y81.1765 Z9.8293 F5000.0 ; Move to start position--INTERPOLATED
G1 X21.705 Y80.5882 Z9.7147 F5000.0 ; Move to start position--INTERPOLATED
G1 X21.5923 Y80.0 Z9.5926 F5000.0 ; Move to start position--INTERPOLATED
G1 X21.4796 Y79.4118 Z9.469 F5000.0 ; Move to start position--INTERPOLATED
G1 X21.367 Y78.8235 Z9.3437 F5000.0 ; Move to start position--INTERPOLATED
G1 X21.2543 Y78.2353 Z9.2014 F5000.0 ; Move to start position--INTERPOLATED
G1 X21.1416 Y77.6471 Z9.0374 F5000.0 ; Move to start position--INTERPOLATED
G1 X21.029 Y77.0588 Z8.8717 F5000.0 ; Move to start position--INTERPOLATED
G1 X20.9163 Y76.4706 Z8.6979 F5000.0 ; Move to start position--INTERPOLATED
G1 X20.8036 Y75.8824 Z8.5241 F5000.0 ; Move to start position--INTERPOLATED
G1 X20.691 Y75.2941 Z8.3503 F5000.0 ; Move to start position--INTERPOLATED
G1 X20.5783 Y74.7059 Z8.1701 F5000.0 ; Move to start position--INTERPOLATED
G1 X20.4656 Y74.1176 Z7.9872 F5000.0 ; Move to start position--INTERPOLATED
G1 X20.3529 Y73.5294 Z7.7825 F5000.0 ; Move to start position--INTERPOLATED
G1 X20.2403 Y72.9412 Z7.5623 F5000.0 ; Move to start position--INTERPOLATED
G1 X20.1276 Y72.3529 Z7.3364 F5000.0 ; Move to start position--INTERPOLATED
G1 X20.0149 Y71.7647 Z7.1062 F5000.0 ; Move to start position--INTERPOLATED
G1 X19.9023 Y71.1765 Z6.876 F5000.0 ; Move to start position--INTERPOLATED
G1 X19.7896 Y70.5882 Z6.6458 F5000.0 ; Move to start position--INTERPOLATED
G1 X19.6769 Y70.0 Z6.4156 F5000.0 ; Move to start position--INTERPOLATED
G1 X19.5643 Y69.4118 Z6.1518 F5000.0 ; Move to start position--INTERPOLATED
G1 X19.4516 Y68.8235 Z5.8696 F5000.0 ; Move to start position--INTERPOLATED
G1 X19.3389 Y68.2353 Z5.5873 F5000.0 ; Move to start position--INTERPOLATED
G1 X19.2262 Y67.6471 Z5.3051 F5000.0 ; Move to start position--INTERPOLATED
G1 X19.1136 Y67.0588 Z5.0229 F5000.0 ; Move to start position--INTERPOLATED
G1 X19.0009 Y66.4706 Z4.7407 F5000.0 ; Move to start position--INTERPOLATED
G1 X18.8882 Y65.8824 Z4.4442 F5000.0 ; Move to start position--INTERPOLATED
G1 X18.7756 Y65.2941 Z4.1146 F5000.0 ; Move to start position--INTERPOLATED
G1 X18.6629 Y64.7059 Z3.7849 F5000.0 ; Move to start position--INTERPOLATED
G1 X18.5502 Y64.1176 Z3.4506 F5000.0 ; Move to start position--INTERPOLATED
G1 X18.4376 Y63.5294 Z8.28 F5000.0 ; Move to start position--INTERPOLATED
G1 X18.3249 Y62.9412 Z8.28 F5000.0 ; Move to start position--INTERPOLATED
G1 X18.2122 Y62.3529 Z8.28 F5000.0 ; Move to start position--INTERPOLATED
G1 X18.0995 Y61.7647 Z8.28 F5000.0 ; Move to start position--INTERPOLATED
G1 X17.9869 Y61.1765 Z8.28 F5000.0 ; Move to start position--INTERPOLATED
G1 X17.8742 Y60.5882 Z8.28 F5000.0 ; Move to start position--INTERPOLATED
G1 X17.7615 Y60.0 Z8.28 F5000.0 ; Move to start position--INTERPOLATED
G1 X17.6489 Y59.4118 Z8.28 F5000.0 ; Move to start position--INTERPOLATED
G1 X17.5362 Y58.8235 Z-3.8698 F5000.0 ; Move to start position--INTERPOLATED
G1 X17.4235 Y58.2353 Z-3.8698 F5000.0 ; Move to start position--INTERPOLATED
G1 X17.3109 Y57.6471 Z-3.8698 F5000.0 ; Move to start position--INTERPOLATED
G1 X17.1982 Y57.0588 Z-3.8698 F5000.0 ; Move to start position--INTERPOLATED
G1 X17.0855 Y56.4706 Z-3.8698 F5000.0 ; Move to start position--INTERPOLATED
G1 X16.9729 Y55.8824 Z-3.8698 F5000.0 ; Move to start position--INTERPOLATED
G1 X16.8602 Y55.2941 Z-3.8698 F5000.0 ; Move to start position--INTERPOLATED
G1 X16.7475 Y54.7059 Z-3.8698 F5000.0 ; Move to start position--INTERPOLATED
G1 X16.6348 Y54.1176 Z-3.8698 F5000.0 ; Move to start position--INTERPOLATED
G1 X16.5222 Y53.5294 Z-3.8698 F5000.0 ; Move to start position--INTERPOLATED
G1 X16.4095 Y52.9412 Z-3.8698 F5000.0 ; Move to start position--INTERPOLATED
G1 X16.2968 Y52.3529 Z-3.8698 F5000.0 ; Move to start position--INTERPOLATED
G1 X16.1842 Y51.7647 Z-3.8698 F5000.0 ; Move to start position--INTERPOLATED
G1 X16.0715 Y51.1765 Z-3.8698 F5000.0 ; Move to start position--INTERPOLATED
G1 X15.9588 Y50.5882 Z-3.8698 F5000.0 ; Move to start position--INTERPOLATED
G1 X15.8462 Y50.0 Z-3.8698 F5000.0 ; Move to start position--INTERPOLATED
G1 X15.7335 Y49.4118 Z-3.8698 F5000.0 ; Move to start position--INTERPOLATED
G1 X15.6208 Y48.8235 Z-3.8698 F5000.0 ; Move to start position--INTERPOLATED
G1 X15.5081 Y48.2353 Z-3.8698 F5000.0 ; Move to start position--INTERPOLATED
G1 X15.3955 Y47.6471 Z-3.8698 F5000.0 ; Move to start position--INTERPOLATED
G1 X15.2828 Y47.0588 Z-3.8698 F5000.0 ; Move to start position--INTERPOLATED
G1 X15.1701 Y46.4706 Z-3.8698 F5000.0 ; Move to start position--INTERPOLATED
G1 X15.0575 Y45.8824 Z-3.8698 F5000.0 ; Move to start position--INTERPOLATED
G1 X14.9448 Y45.2941 Z-3.8698 F5000.0 ; Move to start position--INTERPOLATED
G1 X14.8321 Y44.7059 Z-3.8698 F5000.0 ; Move to start position--INTERPOLATED
G1 X14.7195 Y44.1176 Z-3.8698 F5000.0 ; Move to start position--INTERPOLATED
G1 X14.6068 Y43.5294 Z-3.8698 F5000.0 ; Move to start position--INTERPOLATED
G1 X14.4941 Y42.9412 Z-3.8698 F5000.0 ; Move to start position--INTERPOLATED
G1 X14.3814 Y42.3529 Z-3.8698 F5000.0 ; Move to start position--INTERPOLATED
G1 X14.2688 Y41.7647 Z-3.8698 F5000.0 ; Move to start position--INTERPOLATED
G1 X14.1561 Y41.1765 Z-3.8698 F5000.0 ; Move to start position--INTERPOLATED
G1 X14.0434 Y40.5882 Z-3.8698 F5000.0 ; Move to start position--INTERPOLATED
G1 X13.9308 Y40.0 Z-3.8698 F5000.0 ; Move to start position--INTERPOLATED
G1 X13.8181 Y39.4118 Z-3.8698 F5000.0 ; Move to start position--INTERPOLATED
G1 X13.7054 Y38.8235 Z-3.8698 F5000.0 ; Move to start position--INTERPOLATED
G1 X13.5928 Y38.2353 Z-3.8698 F5000.0 ; Move to start position--INTERPOLATED
G1 X13.4801 Y37.6471 Z-3.8698 F5000.0 ; Move to start position--INTERPOLATED
G1 X13.3674 Y37.0588 Z-3.8698 F5000.0 ; Move to start position--INTERPOLATED
G1 X13.2548 Y36.4706 Z-3.8698 F5000.0 ; Move to start position--INTERPOLATED
G1 X13.1421 Y35.8824 Z-3.8698 F5000.0 ; Move to start position--INTERPOLATED
G1 X13.0294 Y35.2941 Z-3.8698 F5000.0 ; Move to start position--INTERPOLATED
G1 X12.9167 Y34.7059 Z-3.8698 F5000.0 ; Move to start position--INTERPOLATED
G1 X12.8041 Y34.1176 Z-3.8698 F5000.0 ; Move to start position--INTERPOLATED
G1 X12.6914 Y33.5294 Z-3.8698 F5000.0 ; Move to start position--INTERPOLATED
G1 X12.5787 Y32.9412 Z-3.8698 F5000.0 ; Move to start position--INTERPOLATED
G1 X12.4661 Y32.3529 Z-3.8698 F5000.0 ; Move to start position--INTERPOLATED
G1 X12.3534 Y31.7647 Z-3.8698 F5000.0 ; Move to start position--INTERPOLATED
G1 X12.2407 Y31.1765 Z-3.8698 F5000.0 ; Move to start position--INTERPOLATED
G1 X12.1281 Y30.5882 Z-3.8698 F5000.0 ; Move to start position--INTERPOLATED
G1 X12.0154 Y30.0 Z-3.8698 F5000.0 ; Move to start position--INTERPOLATED
G1 X11.9027 Y29.4118 Z-3.8698 F5000.0 ; Move to start position--INTERPOLATED
G1 X11.79 Y28.8235 Z-3.8698 F5000.0 ; Move to start position--INTERPOLATED
G1 X11.6774 Y28.2353 Z-3.8698 F5000.0 ; Move to start position--INTERPOLATED
G1 X11.5647 Y27.6471 Z-3.8698 F5000.0 ; Move to start position--INTERPOLATED
G1 X11.452 Y27.0588 Z-3.8698 F5000.0 ; Move to start position--INTERPOLATED
G1 X11.3394 Y26.4706 Z-3.8698 F5000.0 ; Move to start position--INTERPOLATED
G1 X11.2267 Y25.8824 Z-3.8698 F5000.0 ; Move to start position--INTERPOLATED
G1 X11.114 Y25.2941 Z-3.8698 F5000.0 ; Move to start position--INTERPOLATED
G1 X11.0014 Y24.7059 Z-3.8698 F5000.0 ; Move to start position--INTERPOLATED
G1 X10.8887 Y24.1176 Z-3.8698 F5000.0 ; Move to start position--INTERPOLATED
G1 X10.776 Y23.5294 Z-3.8698 F5000.0 ; Move to start position--INTERPOLATED
G1 X10.6633 Y22.9412 Z-3.8698 F5000.0 ; Move to start position--INTERPOLATED
G1 X10.5507 Y22.3529 Z-3.8698 F5000.0 ; Move to start position--INTERPOLATED
G1 X10.438 Y21.7647 Z-3.8698 F5000.0 ; Move to start position--INTERPOLATED
G1 X10.3253 Y21.1765 Z-3.8698 F5000.0 ; Move to start position--INTERPOLATED
G1 X10.2127 Y20.5882 Z-3.8698 F5000.0 ; Move to start position--INTERPOLATED
G1 X10.1 Y20.0 Z-3.8698 F5000.0 ; Move to start position
M109 S
G92 E0.0 ; Reset Extruder
G1 E-1.0 F1800 ; Retract a bit
G1 Z2.0 F3000 ; Move Z Axis up
G1 E0.0 F1800
G92 E0.0
G92 E0.0
; LAYER_COUNT:10
; LAYER:0
M107
; MESH:All_parts - Willow-1.STL
G0 F2400 X10.3305 Y20.5528 Z-3.9498 ; --INTERPOLATED
G0 F2400 X10.561 Y21.1055 Z-3.9498 ; --INTERPOLATED
G0 F2400 X10.7915 Y21.6583 Z-3.9498 ; --INTERPOLATED
G0 F2400 X11.022 Y22.211 Z-3.9498 ; --INTERPOLATED
G0 F2400 X11.2525 Y22.7638 Z-3.9498 ; --INTERPOLATED
G0 F2400 X11.4829 Y23.3166 Z-3.9498 ; --INTERPOLATED
G0 F2400 X11.7134 Y23.8693 Z-3.9498 ; --INTERPOLATED
G0 F2400 X11.9439 Y24.4221 Z-3.9498 ; --INTERPOLATED
G0 F2400 X12.1744 Y24.9749 Z-3.9498 ; --INTERPOLATED
G0 F2400 X12.4049 Y25.5276 Z-3.9498 ; --INTERPOLATED
G0 F2400 X12.6354 Y26.0804 Z-3.9498 ; --INTERPOLATED
G0 F2400 X12.8659 Y26.6331 Z-3.9498 ; --INTERPOLATED
G0 F2400 X13.0964 Y27.1859 Z-3.9498 ; --INTERPOLATED
G0 F2400 X13.3269 Y27.7387 Z-3.9498 ; --INTERPOLATED
G0 F2400 X13.5574 Y28.2914 Z-3.9498 ; --INTERPOLATED
G0 F2400 X13.7878 Y28.8442 Z-3.9498 ; --INTERPOLATED
G0 F2400 X14.0183 Y29.3969 Z-3.9498 ; --INTERPOLATED
G0 F2400 X14.2488 Y29.9497 Z-3.9498 ; --INTERPOLATED
G0 F2400 X14.4793 Y30.5025 Z-3.9498 ; --INTERPOLATED
G0 F2400 X14.7098 Y31.0552 Z-3.9498 ; --INTERPOLATED
G0 F2400 X14.9403 Y31.608 Z-3.9498 ; --INTERPOLATED
G0 F2400 X15.1708 Y32.1608 Z-3.9498 ; --INTERPOLATED
G0 F2400 X15.4013 Y32.7135 Z-3.9498 ; --INTERPOLATED
G0 F2400 X15.6318 Y33.2663 Z-3.9498 ; --INTERPOLATED
G0 F2400 X15.8623 Y33.819 Z-3.9498 ; --INTERPOLATED
G0 F2400 X16.0927 Y34.3718 Z-3.9498 ; --INTERPOLATED
G0 F2400 X16.3232 Y34.9246 Z-3.9498 ; --INTERPOLATED
G0 F2400 X16.5537 Y35.4773 Z-3.9498 ; --INTERPOLATED
G0 F2400 X16.7842 Y36.0301 Z-3.9498 ; --INTERPOLATED
G0 F2400 X17.0147 Y36.5828 Z-3.9498 ; --INTERPOLATED
G0 F2400 X17.2452 Y37.1356 Z-3.9498 ; --INTERPOLATED
G0 F2400 X17.4757 Y37.6884 Z-3.9498 ; --INTERPOLATED
G0 F2400 X17.7062 Y38.2411 Z-3.9498 ; --INTERPOLATED
G0 F2400 X17.9367 Y38.7939 Z-3.9498 ; --INTERPOLATED
G0 F2400 X18.1672 Y39.3467 Z-3.9498 ; --INTERPOLATED
G0 F2400 X18.3976 Y39.8994 Z-3.9498 ; --INTERPOLATED
G0 F2400 X18.6281 Y40.4522 Z-3.9498 ; --INTERPOLATED
G0 F2400 X18.8586 Y41.0049 Z-3.9498 ; --INTERPOLATED
G0 F2400 X19.0891 Y41.5577 Z-3.9498 ; --INTERPOLATED
G0 F2400 X19.3196 Y42.1105 Z-3.9498 ; --INTERPOLATED
G0 F2400 X19.5501 Y42.6632 Z-3.9498 ; --INTERPOLATED
G0 F2400 X19.7806 Y43.216 Z-3.9498 ; --INTERPOLATED
G0 F2400 X20.0111 Y43.7687 Z-3.9498 ; --INTERPOLATED
G0 F2400 X20.2416 Y44.3215 Z-3.9498 ; --INTERPOLATED
G0 F2400 X20.4721 Y44.8743 Z-3.9498 ; --INTERPOLATED
G0 F2400 X20.7025 Y45.427 Z-3.9498 ; --INTERPOLATED
G0 F2400 X20.933 Y45.9798 Z-3.9498 ; --INTERPOLATED
G0 F2400 X21.1635 Y46.5326 Z-3.9498 ; --INTERPOLATED
G0 F2400 X21.394 Y47.0853 Z-3.9498 ; --INTERPOLATED
G0 F2400 X21.6245 Y47.6381 Z-3.9498 ; --INTERPOLATED
G0 F2400 X21.855 Y48.1908 Z-3.9498 ; --INTERPOLATED
G0 F2400 X22.0855 Y48.7436 Z-3.9498 ; --INTERPOLATED
G0 F2400 X22.316 Y49.2964 Z-3.9498 ; --INTERPOLATED
G0 F2400 X22.5465 Y49.8491 Z-3.9498 ; --INTERPOLATED
G0 F2400 X22.777 Y50.4019 Z-3.9498 ; --INTERPOLATED
G0 F2400 X23.0074 Y50.9546 Z-3.9498 ; --INTERPOLATED
G0 F2400 X23.2379 Y51.5074 Z-3.9498 ; --INTERPOLATED
G0 F2400 X23.4684 Y52.0602 Z-3.9498 ; --INTERPOLATED
G0 F2400 X23.6989 Y52.6129 Z-3.9498 ; --INTERPOLATED
G0 F2400 X23.9294 Y53.1657 Z-3.9498 ; --INTERPOLATED
G0 F2400 X24.1599 Y53.7185 Z-3.9498 ; --INTERPOLATED
G0 F2400 X24.3904 Y54.2712 Z-3.9498 ; --INTERPOLATED
G0 F2400 X24.6209 Y54.824 Z-3.9498 ; --INTERPOLATED
G0 F2400 X24.8514 Y55.3767 Z-3.9498 ; --INTERPOLATED
G0 F2400 X25.0819 Y55.9295 Z-3.9498 ; --INTERPOLATED
G0 F2400 X25.3123 Y56.4823 Z-3.9498 ; --INTERPOLATED
G0 F2400 X25.5428 Y57.035 Z-3.9498 ; --INTERPOLATED
G0 F2400 X25.7733 Y57.5878 Z-3.9498 ; --INTERPOLATED
G0 F2400 X26.0038 Y58.1405 Z-3.9498 ; --INTERPOLATED
G0 F2400 X26.2343 Y58.6933 Z-3.9498 ; --INTERPOLATED
G0 F2400 X26.4648 Y59.2461 Z8.2 ; --INTERPOLATED
G0 F2400 X26.6953 Y59.7988 Z8.2 ; --INTERPOLATED
G0 F2400 X26.9258 Y60.3516 Z8.2 ; --INTERPOLATED
G0 F2400 X27.1563 Y60.9044 Z8.2 ; --INTERPOLATED
G0 F2400 X27.3868 Y61.4571 Z8.2 ; --INTERPOLATED
G0 F2400 X27.6172 Y62.0099 Z8.2 ; --INTERPOLATED
G0 F2400 X27.8477 Y62.5626 Z8.2 ; --INTERPOLATED
G0 F2400 X28.0782 Y63.1154 Z8.2 ; --INTERPOLATED
G0 F2400 X28.3087 Y63.6682 Z8.2 ; --INTERPOLATED
G0 F2400 X28.5392 Y64.2209 Z6.0203 ; --INTERPOLATED
G0 F2400 X28.7697 Y64.7737 Z6.3161 ; --INTERPOLATED
G0 F2400 X29.0002 Y65.3265 Z6.587 ; --INTERPOLATED
G0 F2400 X29.2307 Y65.8792 Z6.8579 ; --INTERPOLATED
G0 F2400 X29.4612 Y66.432 Z7.1288 ; --INTERPOLATED
G0 F2400 X29.6917 Y66.9847 Z7.3997 ; --INTERPOLATED
G0 F2400 X29.9221 Y67.5375 Z7.6706 ; --INTERPOLATED
G0 F2400 X30.1526 Y68.0903 Z7.9228 ; --INTERPOLATED
G0 F2400 X30.3831 Y68.643 Z8.1478 ; --INTERPOLATED
G0 F2400 X30.6136 Y69.1958 Z8.3728 ; --INTERPOLATED
G0 F2400 X30.8441 Y69.7485 Z8.5978 ; --INTERPOLATED
G0 F2400 X31.0746 Y70.3013 Z8.8228 ; --INTERPOLATED
G0 F2400 X31.3051 Y70.8541 Z9.0478 ; --INTERPOLATED
G0 F2400 X31.5356 Y71.4068 Z9.2536 ; --INTERPOLATED
G0 F2400 X31.7661 Y71.9596 Z9.4349 ; --INTERPOLATED
G0 F2400 X31.9966 Y72.5124 Z9.6162 ; --INTERPOLATED
G0 F2400 X32.227 Y73.0651 Z9.7975 ; --INTERPOLATED
G0 F2400 X32.4575 Y73.6179 Z9.9787 ; --INTERPOLATED
G0 F2400 X32.688 Y74.1706 Z10.1585 ; --INTERPOLATED
G0 F2400 X32.9185 Y74.7234 Z10.3248 ; --INTERPOLATED
G0 F2400 X33.149 Y75.2762 Z10.4629 ; --INTERPOLATED
G0 F2400 X33.3795 Y75.8289 Z10.6011 ; --INTERPOLATED
G0 F2400 X33.61 Y76.3817 Z10.7392 ; --INTERPOLATED
G0 F2400 X33.8405 Y76.9344 Z10.8774 ; --INTERPOLATED
G0 F2400 X34.071 Y77.4872 Z11.0155 ; --INTERPOLATED
G0 F2400 X34.3015 Y78.04 Z11.1513 ; --INTERPOLATED
G0 F2400 X34.5319 Y78.5927 Z11.2488 ; --INTERPOLATED
G0 F2400 X34.7624 Y79.1455 Z11.3454 ; --INTERPOLATED
G0 F2400 X34.9929 Y79.6983 Z11.4419 ; --INTERPOLATED
G0 F2400 X35.2234 Y80.251 Z11.5384 ; --INTERPOLATED
G0 F2400 X35.4539 Y80.8038 Z11.635 ; --INTERPOLATED
G0 F2400 X35.6844 Y81.3565 Z11.7304 ; --INTERPOLATED
G0 F2400 X35.9149 Y81.9093 Z11.8014 ; --INTERPOLATED
G0 F2400 X36.1454 Y82.4621 Z11.858 ; --INTERPOLATED
G0 F2400 X36.3759 Y83.0148 Z11.9135 ; --INTERPOLATED
G0 F2400 X36.6064 Y83.5676 Z11.9687 ; --INTERPOLATED
G0 F2400 X36.8368 Y84.1203 Z12.0226 ; --INTERPOLATED
G0 F2400 X37.0673 Y84.6731 Z12.0753 ; --INTERPOLATED
G0 F2400 X37.2978 Y85.2259 Z12.1262 ; --INTERPOLATED
G0 F2400 X37.5283 Y85.7786 Z12.1513 ; --INTERPOLATED
G0 F2400 X37.7588 Y86.3314 Z12.166 ; --INTERPOLATED
G0 F2400 X37.9893 Y86.8842 Z12.1786 ; --INTERPOLATED
G0 F2400 X38.2198 Y87.4369 Z12.1883 ; --INTERPOLATED
G0 F2400 X38.4503 Y87.9897 Z12.1937 ; --INTERPOLATED
G0 F2400 X38.6808 Y88.5424 Z12.1938 ; --INTERPOLATED
G0 F2400 X38.9113 Y89.0952 Z12.1886 ; --INTERPOLATED
G0 F2400 X39.1417 Y89.648 Z12.1791 ; --INTERPOLATED
G0 F2400 X39.3722 Y90.2007 Z12.1666 ; --INTERPOLATED
G0 F2400 X39.6027 Y90.7535 Z12.1519 ; --INTERPOLATED
G0 F2400 X39.8332 Y91.3062 Z12.1284 ; --INTERPOLATED
G0 F2400 X40.0637 Y91.859 Z12.0775 ; --INTERPOLATED
G0 F2400 X40.2942 Y92.4118 Z12.0249 ; --INTERPOLATED
G0 F2400 X40.5247 Y92.9645 Z11.971 ; --INTERPOLATED
G0 F2400 X40.7552 Y93.5173 Z11.9159 ; --INTERPOLATED
G0 F2400 X40.9857 Y94.0701 Z11.8604 ; --INTERPOLATED
G0 F2400 X41.2162 Y94.6228 Z11.8039 ; --INTERPOLATED
G0 F2400 X41.4466 Y95.1756 Z11.7344 ; --INTERPOLATED
G0 F2400 X41.6771 Y95.7283 Z11.6393 ; --INTERPOLATED
G0 F2400 X41.9076 Y96.2811 Z11.5427 ; --INTERPOLATED
G0 F2400 X42.1381 Y96.8339 Z11.4461 ; --INTERPOLATED
G0 F2400 X42.3686 Y97.3866 Z11.3494 ; --INTERPOLATED
G0 F2400 X42.5991 Y97.9394 Z11.2528 ; --INTERPOLATED
G0 F2400 X42.8296 Y98.4921 Z11.1557 ; --INTERPOLATED
G0 F2400 X43.0601 Y99.0449 Z11.0217 ; --INTERPOLATED
G0 F2400 X43.2906 Y99.5977 Z10.8835 ; --INTERPOLATED
G0 F2400 X43.5211 Y100.1504 Z10.7452 ; --INTERPOLATED
G0 F2400 X43.7515 Y100.7032 Z10.6069 ; --INTERPOLATED
G0 F2400 X43.982 Y101.256 Z10.4687 ; --INTERPOLATED
G0 F2400 X44.2125 Y101.8087 Z10.3304 ; --INTERPOLATED
G0 F2400 X44.443 Y102.3615 Z10.1657 ; --INTERPOLATED
G0 F2400 X44.6735 Y102.9142 Z9.9858 ; --INTERPOLATED
G0 F2400 X44.904 Y103.467 Z9.806
; TYPE:WALL-INNER
G1 F900 X45.1875 Y103.2825 E0.0112 Z9.8081 ; --INTERPOLATED
G1 F900 X45.471 Y103.098 E0.0225 Z9.8102
G1 X45.7355 Y102.882 E0.0339 Z9.8235 ; --INTERPOLATED
G1 X46.0 Y102.666 E0.0452 Z9.8313
G1 X46.25 Y102.4115 E0.0571 Z9.8499 ; --INTERPOLATED
G1 X46.5 Y102.157 E0.069 Z9.8686
G1 X46.7025 Y101.901 E0.0798 Z9.8916 ; --INTERPOLATED
G1 X46.905 Y101.645 E0.0907 Z9.9127
G1 X47.095 Y101.3425 E0.1025 Z9.9472 ; --INTERPOLATED
G1 X47.285 Y101.04 E0.1144 Z9.9785
G1 X47.5345 Y100.545 E0.1329 Z10.0365 ; --INTERPOLATED
G1 X47.784 Y100.05 E0.1513 Z10.0912
G1 X48.004 Y99.751 E0.1636 Z10.1046
G1 X48.323 Y99.434 E0.1786 Z10.0997
G1 X48.632 Y99.213 E0.1912 Z10.0705
G1 X49.0 Y99.025 E0.205 Z10.0202
G1 X49.3975 Y98.8965 E0.2189 Z9.9511 ; --INTERPOLATED
G1 X49.795 Y98.768 E0.2328 Z9.8756
G1 X50.179 Y98.58 E0.247 Z9.8139
G1 X50.531 Y98.339 E0.2612 Z9.7684
G1 X50.835 Y98.052 E0.2751 Z9.736
G1 X51.101 Y97.718 E0.2893 Z9.7209
G1 X51.315 Y97.349 E0.3035 Z9.7207
G1 X51.471 Y96.952 E0.3177 Z9.7358
G1 X51.565 Y96.545 E0.3316 Z9.7689
G1 X51.598 Y96.113 E0.346 Z9.8152
G1 X51.571 Y95.684 E0.3603 Z9.8766
G1 X51.4835 Y95.281 E0.374 Z9.9514 ; --INTERPOLATED
G1 X51.396 Y94.878 E0.3877 Z10.0198
G1 X51.376 Y94.504 E0.4002 Z10.0656
G1 X51.411 Y94.085 E0.4141 Z10.0998
G1 X51.528 Y93.644 E0.4293 Z10.1046
G1 X51.685 Y93.29 E0.4422 Z10.0902
G1 X51.988 Y92.829 E0.4605 Z10.0351 ; --INTERPOLATED
G1 X52.291 Y92.368 E0.4789 Z9.9772
G1 X52.4515 Y92.0635 E0.4903 Z9.947 ; --INTERPOLATED
G1 X52.612 Y91.759 E0.5018 Z9.9139
G1 X52.737 Y91.445 E0.513 Z9.8919 ; --INTERPOLATED
G1 X52.862 Y91.131 E0.5243 Z9.8678
G1 X52.953 Y90.7995 E0.5357 Z9.8501 ; --INTERPOLATED
G1 X53.044 Y90.468 E0.5471 Z9.8324
G1 X53.0995 Y90.127 E0.5586 Z9.8247 ; --INTERPOLATED
G1 X53.155 Y89.786 E0.5701 Z9.8112
G1 X53.174 Y89.443 E0.5815 Z9.8089 ; --INTERPOLATED
G1 X53.193 Y89.1 E0.593 Z9.8065
G1 X53.174 Y88.757 E0.6044 Z9.8089 ; --INTERPOLATED
G1 X53.155 Y88.414 E0.6158 Z9.8112
G1 X53.0995 Y88.073 E0.6273 Z9.8247 ; --INTERPOLATED
G1 X53.044 Y87.732 E0.6388 Z9.8325
G1 X52.953 Y87.4005 E0.6502 Z9.8501 ; --INTERPOLATED
G1 X52.862 Y87.069 E0.6617 Z9.8678
G1 X52.737 Y86.755 E0.6729 Z9.8919 ; --INTERPOLATED
G1 X52.612 Y86.441 E0.6842 Z9.9139
G1 X52.4455 Y86.125 E0.696 Z9.9482 ; --INTERPOLATED
G1 X52.279 Y85.809 E0.7079 Z9.9792
G1 X51.987 Y85.3695 E0.7255 Z10.0354 ; --INTERPOLATED
G1 X51.695 Y84.93 E0.743 Z10.0891
G1 X51.522 Y84.544 E0.7571 Z10.1054
G1 X51.409 Y84.113 E0.7719 Z10.1002
G1 X51.374 Y83.757 E0.7838 Z10.0728
G1 X51.395 Y83.324 E0.7982 Z10.0204
G1 X51.4825 Y82.9185 E0.812 Z9.9517 ; --INTERPOLATED
G1 X51.57 Y82.513 E0.8258 Z9.8765
G1 X51.6 Y82.072 E0.8405 Z9.8128
G1 X51.566 Y81.668 E0.854 Z9.7706
G1 X51.47 Y81.249 E0.8683 Z9.7363
G1 X51.313 Y80.851 E0.8825 Z9.7213
G1 X51.098 Y80.481 E0.8968 Z9.7217
G1 X50.836 Y80.152 E0.9107 Z9.7365
G1 X50.525 Y79.858 E0.925 Z9.7696
G1 X50.177 Y79.62 E0.939 Z9.8145
G1 X49.792 Y79.43 E0.9533 Z9.8761
G1 X49.395 Y79.3025 E0.9672 Z9.9517 ; --INTERPOLATED
G1 X48.998 Y79.175 E0.981 Z10.0208
G1 X48.614 Y78.975 E0.9954 Z10.0725
G1 X48.321 Y78.764 E1.0074 Z10.0999
G1 X48.002 Y78.447 E1.0224 Z10.1048
G1 X47.782 Y78.148 E1.0347 Z10.0914
G1 X47.5325 Y77.6525 E1.0532 Z10.0365 ; --INTERPOLATED
G1 X47.283 Y77.157 E1.0716 Z9.9784
G1 X47.093 Y76.8545 E1.0835 Z9.947 ; --INTERPOLATED
G1 X46.903 Y76.552 E1.0954 Z9.9126
G1 X46.7005 Y76.2965 E1.1062 Z9.8915 ; --INTERPOLATED
G1 X46.498 Y76.041 E1.1171 Z9.8686
G1 X46.2475 Y75.7865 E1.129 Z9.8501 ; --INTERPOLATED
G1 X45.997 Y75.532 E1.1408 Z9.8315
G1 X45.7315 Y75.3155 E1.1522 Z9.8237 ; --INTERPOLATED
G1 X45.466 Y75.099 E1.1636 Z9.8104
G1 X45.1835 Y74.9145 E1.1748 Z9.8081 ; --INTERPOLATED
G1 X44.901 Y74.73 E1.1861 Z9.8059
G1 X44.5875 Y74.571 E1.1978 Z9.8082 ; --INTERPOLATED
G1 X44.274 Y74.412 E1.2094 Z9.8105
G1 X43.962 Y74.294 E1.2205 Z9.8236 ; --INTERPOLATED
G1 X43.65 Y74.176 E1.2316 Z9.8312
G1 X43.309 Y74.0875 E1.2434 Z9.8495 ; --INTERPOLATED
G1 X42.968 Y73.999 E1.2551 Z9.8678
G1 X42.635 Y73.9505 E1.2663 Z9.8917 ; --INTERPOLATED
G1 X42.302 Y73.902 E1.2775 Z9.9136
G1 X41.956 Y73.8895 E1.289 Z9.9471 ; --INTERPOLATED
G1 X41.61 Y73.877 E1.3005 Z9.9777
G1 X41.061 Y73.9095 E1.3188 Z10.0357 ; --INTERPOLATED
G1 X40.512 Y73.942 E1.3371 Z10.0907
G1 X40.081 Y73.893 E1.3515 Z10.106
G1 X39.736 Y73.798 E1.3634 Z10.1017
G1 X39.317 Y73.61 E1.3787 Z10.0678
G1 X39.0 Y73.4 E1.3913 Z10.0205
G1 X38.6885 Y73.12 E1.4053 Z9.9516 ; --INTERPOLATED
G1 X38.377 Y72.84 E1.4192 Z9.876
G1 X38.022 Y72.602 E1.4334 Z9.8146
G1 X37.639 Y72.42 E1.4475 Z9.7698
G1 X37.226 Y72.295 E1.4619 Z9.7359
G1 X36.814 Y72.233 E1.4757 Z9.7211
G1 X36.386 Y72.232 E1.49 Z9.7208
G1 X35.974 Y72.294 E1.5038 Z9.7356
G1 X35.561 Y72.42 E1.5182 Z9.7698
G1 X35.174 Y72.604 E1.5324 Z9.815
G1 X34.825 Y72.836 E1.5464 Z9.8749
G1 X34.516 Y73.1175 E1.5603 Z9.9509 ; --INTERPOLATED
G1 X34.207 Y73.399 E1.5742 Z10.0205
G1 X33.841 Y73.633 E1.5886 Z10.0726
G1 X33.492 Y73.79 E1.6013 Z10.1012
G1 X33.075 Y73.902 E1.6157 Z10.1056
G1 X32.658 Y73.942 E1.6296 Z10.0887
G1 X32.123 Y73.9095 E1.6475 Z10.0342 ; --INTERPOLATED
G1 X31.588 Y73.877 E1.6653 Z9.9775
G1 X31.2425 Y73.8905 E1.6768 Z9.9472 ; --INTERPOLATED
G1 X30.897 Y73.904 E1.6883 Z9.9141
G1 X30.5635 Y73.9525 E1.6995 Z9.8921 ; --INTERPOLATED
G1 X30.23 Y74.001 E1.7107 Z9.8681
G1 X29.889 Y74.0895 E1.7224 Z9.8498 ; --INTERPOLATED
G1 X29.548 Y74.178 E1.7342 Z9.8315
G1 X29.236 Y74.296 E1.7452 Z9.8238 ; --INTERPOLATED
G1 X28.924 Y74.414 E1.7563 Z9.8108
G1 X28.6105 Y74.573 E1.768 Z9.8085 ; --INTERPOLATED
G1 X28.297 Y74.732 E1.7797 Z9.806
G1 X28.013 Y74.917 E1.791 Z9.8082 ; --INTERPOLATED
G1 X27.729 Y75.102 E1.8023 Z9.8104
G1 X27.4645 Y75.3185 E1.8136 Z9.8238 ; --INTERPOLATED
G1 X27.2 Y75.535 E1.825 Z9.8317
G1 X26.95 Y75.789 E1.8369 Z9.8502 ; --INTERPOLATED
G1 X26.7 Y76.043 E1.8487 Z9.8687
G1 X26.4975 Y76.2985 E1.8596 Z9.8916 ; --INTERPOLATED
G1 X26.295 Y76.554 E1.8704 Z9.9126
G1 X26.105 Y76.8565 E1.8823 Z9.9471 ; --INTERPOLATED
G1 X25.915 Y77.159 E1.8942 Z9.9784
G1 X25.6645 Y77.6575 E1.9127 Z10.037 ; --INTERPOLATED
G1 X25.414 Y78.156 E1.9313 Z10.0922
G1 X25.179 Y78.47 E1.9443 Z10.1053
G1 X24.877 Y78.766 E1.9584 Z10.0998
G1 X24.567 Y78.987 E1.971 Z10.0703
G1 X24.198 Y79.176 E1.9848 Z10.02
G1 X23.8025 Y79.303 E1.9986 Z9.9511 ; --INTERPOLATED
G1 X23.407 Y79.43 E2.0125 Z9.8758
G1 X23.023 Y79.62 E2.0267 Z9.8145
G1 X22.675 Y79.858 E2.0407 Z9.7696
G1 X22.364 Y80.152 E2.055 Z9.7364
G1 X22.102 Y80.482 E2.069 Z9.7218
G1 X21.887 Y80.851 E2.0832 Z9.7213
G1 X21.73 Y81.249 E2.0974 Z9.7362
G1 X21.634 Y81.668 E2.1117 Z9.7706
G1 X21.6 Y82.072 E2.1252 Z9.8128
G1 X21.628 Y82.514 E2.1399 Z9.8761
G1 X21.716 Y82.918 E2.1537 Z9.9512 ; --INTERPOLATED
G1 X21.804 Y83.322 E2.1674 Z10.0199
G1 X21.824 Y83.693 E2.1798 Z10.0653
G1 X21.789 Y84.115 E2.1939 Z10.0998
G1 X21.672 Y84.555 E2.209 Z10.1046
G1 X21.504 Y84.931 E2.2227 Z10.0889
G1 X21.209 Y85.377 E2.2405 Z10.0346 ; --INTERPOLATED
G1 X20.914 Y85.823 E2.2583 Z9.978
G1 X20.751 Y86.132 E2.2699 Z9.9475 ; --INTERPOLATED
G1 X20.588 Y86.441 E2.2815 Z9.9138
G1 X20.463 Y86.755 E2.2928 Z9.8919 ; --INTERPOLATED
G1 X20.338 Y87.069 E2.304 Z9.8677
G1 X20.247 Y87.4005 E2.3154 Z9.8501 ; --INTERPOLATED
G1 X20.156 Y87.732 E2.3269 Z9.8324
G1 X20.1005 Y88.073 E2.3384 Z9.8247 ; --INTERPOLATED
G1 X20.045 Y88.414 E2.3499 Z9.8112
G1 X20.0255 Y88.757 E2.3613 Z9.8087 ; --INTERPOLATED
G1 X20.006 Y89.1 E2.3727 Z9.8061
G1 X20.0255 Y89.443 E2.3841 Z9.8087 ; --INTERPOLATED
G1 X20.045 Y89.786 E2.3956 Z9.8112
G1 X20.1005 Y90.127 E2.4071 Z9.8247 ; --INTERPOLATED
G1 X20.156 Y90.468 E2.4186 Z9.8324
G1 X20.247 Y90.7995 E2.43 Z9.85 ; --INTERPOLATED
G1 X20.338 Y91.131 E2.4414 Z9.8677
G1 X20.463 Y91.445 E2.4527 Z9.8918 ; --INTERPOLATED
G1 X20.588 Y91.759 E2.4639 Z9.9138
G1 X20.753 Y92.0735 E2.4757 Z9.9478 ; --INTERPOLATED
G1 X20.918 Y92.388 E2.4875 Z9.9784
G1 X21.2115 Y92.8295 E2.5052 Z10.0349 ; --INTERPOLATED
G1 X21.505 Y93.271 E2.5228 Z10.0889
G1 X21.678 Y93.658 E2.5369 Z10.1051
G1 X21.789 Y94.083 E2.5515 Z10.0999
G1 X21.824 Y94.473 E2.5645 Z10.0689
G1 X21.803 Y94.875 E2.5779 Z10.0198
G1 X21.7155 Y95.2805 E2.5917 Z9.9511 ; --INTERPOLATED
G1 X21.628 Y95.686 E2.6055 Z9.876
G1 X21.6 Y96.126 E2.6202 Z9.8129
G1 X21.633 Y96.53 E2.6336 Z9.7705
G1 X21.731 Y96.955 E2.6481 Z9.7358
G1 X21.886 Y97.351 E2.6623 Z9.7206
G1 X22.101 Y97.72 E2.6765 Z9.7211
G1 X22.367 Y98.054 E2.6907 Z9.7361
G1 X22.671 Y98.341 E2.7046 Z9.7686
G1 X23.023 Y98.582 E2.7188 Z9.814
G1 X23.407 Y98.77 E2.733 Z9.8757
G1 X23.8045 Y98.8985 E2.7469 Z9.9512 ; --INTERPOLATED
G1 X24.202 Y99.027 E2.7608 Z10.0202
G1 X24.566 Y99.212 E2.7744 Z10.0701
G1 X24.879 Y99.436 E2.7872 Z10.0997
G1 X25.194 Y99.747 E2.8019 Z10.1049
G1 X25.427 Y100.063 E2.815 Z10.0909
G1 X25.672 Y100.5525 E2.8332 Z10.0361 ; --INTERPOLATED
G1 X25.917 Y101.042 E2.8514 Z9.9784
G1 X26.107 Y101.3445 E2.8633 Z9.9471 ; --INTERPOLATED
G1 X26.297 Y101.647 E2.8752 Z9.9126
G1 X26.4995 Y101.903 E2.886 Z9.8914 ; --INTERPOLATED
G1 X26.702 Y102.159 E2.8969 Z9.8684
G1 X26.952 Y102.413 E2.9087 Z9.8499 ; --INTERPOLATED
G1 X27.202 Y102.667 E2.9206 Z9.8314
G1 X27.4665 Y102.8835 E2.9319 Z9.8234 ; --INTERPOLATED
G1 X27.731 Y103.1 E2.9433 Z9.81
G1 X28.015 Y103.285 E2.9546 Z9.8078 ; --INTERPOLATED
G1 X28.299 Y103.47 E2.9658 Z9.8056
G1 X28.6125 Y103.629 E2.9775 Z9.808 ; --INTERPOLATED
G1 X28.926 Y103.788 E2.9892 Z9.8103
G1 X29.238 Y103.906 E3.0003 Z9.8234 ; --INTERPOLATED
G1 X29.55 Y104.024 E3.0114 Z9.831
G1 X29.891 Y104.1125 E3.0231 Z9.8492 ; --INTERPOLATED
G1 X30.232 Y104.201 E3.0349 Z9.8675
G1 X30.565 Y104.2495 E3.046 Z9.8915 ; --INTERPOLATED
G1 X30.898 Y104.298 E3.0572 Z9.9134
G1 X31.244 Y104.3105 E3.0688 Z9.9469 ; --INTERPOLATED
G1 X31.59 Y104.323 E3.0803 Z9.9775
G1 X32.1505 Y104.291 E3.0989 Z10.0363 ; --INTERPOLATED
G1 X32.711 Y104.259 E3.1176 Z10.0918
G1 X33.11 Y104.306 E3.131 Z10.1054
G1 X33.465 Y104.402 E3.1432 Z10.1015
G1 X33.842 Y104.568 E3.1569 Z10.0721
G1 X34.204 Y104.802 E3.1712 Z10.0198
G1 X34.514 Y105.0825 E3.1852 Z9.9507 ; --INTERPOLATED
G1 X34.824 Y105.363 E3.1991 Z9.875
G1 X35.179 Y105.6 E3.2133 Z9.8138
G1 X35.561 Y105.782 E3.2273 Z9.769
G1 X35.974 Y105.908 E3.2417 Z9.7347
G1 X36.384 Y105.97 E3.2555 Z9.72
G1 X36.815 Y105.968 E3.2698 Z9.7206
G1 X37.227 Y105.906 E3.2837 Z9.7353
G1 X37.641 Y105.78 E3.2981 Z9.7695
G1 X38.022 Y105.599 E3.3121 Z9.814
G1 X38.376 Y105.36 E3.3263 Z9.8758
G1 X38.667 Y105.0955 E3.3394 Z9.9473 ; --INTERPOLATED
G1 X38.958 Y104.831 E3.3525 Z10.013
G1 X39.319 Y104.588 E3.3669 Z10.0681
G1 X39.705 Y104.412 E3.381 Z10.1007
G1 X40.113 Y104.3 E3.3951 Z10.1056
G1 X40.489 Y104.257 E3.4077 Z10.0924
G1 X41.0505 Y104.29 E3.4264 Z10.0365 ; --INTERPOLATED
G1 X41.612 Y104.323 E3.4451 Z9.9773
G1 X41.9575 Y104.3095 E3.4566 Z9.9471 ; --INTERPOLATED
G1 X42.303 Y104.296 E3.4681 Z9.9139
G1 X42.6365 Y104.2475 E3.4793 Z9.8919 ; --INTERPOLATED
G1 X42.97 Y104.199 E3.4905 Z9.8679
G1 X43.311 Y104.1105 E3.5023 Z9.8496 ; --INTERPOLATED
G1 X43.652 Y104.022 E3.514 Z9.8313
G1 X43.9645 Y103.904 E3.5251 Z9.8236 ; --INTERPOLATED
G1 X44.277 Y103.786 E3.5362 Z9.8104
G1 X44.5905 Y103.6265 E3.5479 Z9.8083 ; --INTERPOLATED
G1 X44.904 Y103.467 E3.5596 Z9.806
G0 F2400 X45.104 Y103.814 Z9.6841
; TYPE:WALL-OUTER
G1 F900 X45.4055 Y103.6175 E3.5716 Z9.6865 ; --INTERPOLATED
G1 F900 X45.707 Y103.421 E3.5835 Z9.6888
G1 X45.9885 Y103.1915 E3.5956 Z9.7029 ; --INTERPOLATED
G1 X46.27 Y102.962 E3.6077 Z9.7102
G1 X46.535 Y102.692 E3.6203 Z9.73 ; --INTERPOLATED
G1 X46.8 Y102.422 E3.6329 Z9.7498
G1 X47.016 Y102.149 E3.6444 Z9.7727 ; --INTERPOLATED
G1 X47.232 Y101.876 E3.656 Z9.7952
G1 X47.433 Y101.556 E3.6686 Z9.8317 ; --INTERPOLATED
G1 X47.634 Y101.236 E3.6812 Z9.8623
G1 X47.867 Y100.7675 E3.6986 Z9.9179 ; --INTERPOLATED
G1 X48.1 Y100.299 E3.716 Z9.9693
G1 X48.326 Y99.99 E3.7287 Z9.9834
G1 X48.56 Y99.757 E3.7397 Z9.9798
G1 X48.844 Y99.552 E3.7513 Z9.9551
G1 X49.155 Y99.394 E3.7629 Z9.9125
G1 X49.55 Y99.267 E3.7767 Z9.8441 ; --INTERPOLATED
G1 X49.945 Y99.14 E3.7905 Z9.7725
G1 X50.381 Y98.926 E3.8067 Z9.7026
G1 X50.783 Y98.651 E3.8229 Z9.6519
G1 X51.13 Y98.324 E3.8387 Z9.616
G1 X51.432 Y97.944 E3.8549 Z9.5991
G1 X51.677 Y97.523 E3.8711 Z9.5986
G1 X51.854 Y97.071 E3.8872 Z9.6159
G1 X51.962 Y96.606 E3.9031 Z9.6524
G1 X51.999 Y96.115 E3.9195 Z9.7038
G1 X51.968 Y95.628 E3.9357 Z9.7735
G1 X51.8805 Y95.228 E3.9493 Z9.8443 ; --INTERPOLATED
G1 X51.793 Y94.828 E3.963 Z9.9121
G1 X51.776 Y94.454 E3.9754 Z9.9571
G1 X51.812 Y94.117 E3.9867 Z9.9802
G1 X51.9 Y93.791 E3.9979 Z9.9833
G1 X52.043 Y93.469 E4.0096 Z9.9701
G1 X52.339 Y93.0205 E4.0275 Z9.9179 ; --INTERPOLATED
G1 X52.635 Y92.572 E4.0454 Z9.8611
G1 X52.8055 Y92.2495 E4.0575 Z9.8315 ; --INTERPOLATED
G1 X52.976 Y91.927 E4.0696 Z9.7962
G1 X53.109 Y91.593 E4.0816 Z9.7729 ; --INTERPOLATED
G1 X53.242 Y91.259 E4.0935 Z9.7489
G1 X53.339 Y90.9065 E4.1057 Z9.73 ; --INTERPOLATED
G1 X53.436 Y90.554 E4.1179 Z9.7112
G1 X53.4945 Y90.1915 E4.1301 Z9.7039 ; --INTERPOLATED
G1 X53.553 Y89.829 E4.1423 Z9.6898
G1 X53.5735 Y89.4645 E4.1544 Z9.6871 ; --INTERPOLATED
G1 X53.594 Y89.1 E4.1666 Z9.6845
G1 X53.5735 Y88.7355 E4.1787 Z9.6872 ; --INTERPOLATED
G1 X53.553 Y88.371 E4.1909 Z9.6898
G1 X53.4945 Y88.0085 E4.2031 Z9.7039 ; --INTERPOLATED
G1 X53.436 Y87.646 E4.2153 Z9.7112
G1 X53.339 Y87.2935 E4.2274 Z9.73 ; --INTERPOLATED
G1 X53.242 Y86.941 E4.2396 Z9.7489
G1 X53.109 Y86.607 E4.2516 Z9.7729 ; --INTERPOLATED
G1 X52.976 Y86.273 E4.2635 Z9.7963
G1 X52.7995 Y85.939 E4.2761 Z9.8327 ; --INTERPOLATED
G1 X52.623 Y85.605 E4.2887 Z9.8632
G1 X52.3315 Y85.166 E4.3062 Z9.9192 ; --INTERPOLATED
G1 X52.04 Y84.727 E4.3237 Z9.9707
G1 X51.893 Y84.391 E4.3359 Z9.9839
G1 X51.805 Y84.058 E4.3474 Z9.9801
G1 X51.773 Y83.704 E4.3592 Z9.9535
G1 X51.792 Y83.375 E4.3702 Z9.9128
G1 X51.88 Y82.972 E4.3839 Z9.8445 ; --INTERPOLATED
G1 X51.968 Y82.569 E4.3976 Z9.7733
G1 X52.001 Y82.068 E4.4143 Z9.7012
G1 X51.962 Y81.606 E4.4297 Z9.654
G1 X51.853 Y81.13 E4.446 Z9.6164
G1 X51.674 Y80.676 E4.4622 Z9.5993
G1 X51.43 Y80.255 E4.4784 Z9.5995
G1 X51.132 Y79.88 E4.4943 Z9.6163
G1 X50.777 Y79.546 E4.5105 Z9.653
G1 X50.379 Y79.274 E4.5265 Z9.7033
G1 X49.942 Y79.058 E4.5428 Z9.7731
G1 X49.5475 Y78.931 E4.5565 Z9.8444 ; --INTERPOLATED
G1 X49.153 Y78.804 E4.5703 Z9.9127
G1 X48.837 Y78.643 E4.5821 Z9.956
G1 X48.549 Y78.432 E4.594 Z9.9802
G1 X48.307 Y78.188 E4.6054 Z9.9831
G1 X48.098 Y77.899 E4.6173 Z9.9695
G1 X47.865 Y77.43 E4.6347 Z9.9179 ; --INTERPOLATED
G1 X47.632 Y76.961 E4.6521 Z9.8622
G1 X47.431 Y76.641 E4.6647 Z9.8316 ; --INTERPOLATED
G1 X47.23 Y76.321 E4.6773 Z9.7951
G1 X47.014 Y76.0485 E4.6888 Z9.7727 ; --INTERPOLATED
G1 X46.798 Y75.776 E4.7004 Z9.7499
G1 X46.5325 Y75.506 E4.713 Z9.7302 ; --INTERPOLATED
G1 X46.267 Y75.236 E4.7256 Z9.7104
G1 X45.9845 Y75.0055 E4.7377 Z9.7029 ; --INTERPOLATED
G1 X45.702 Y74.775 E4.7498 Z9.6888
G1 X45.4015 Y74.579 E4.7618 Z9.6864 ; --INTERPOLATED
G1 X45.101 Y74.383 E4.7737 Z9.684
G1 X44.7685 Y74.2145 E4.7861 Z9.6866 ; --INTERPOLATED
G1 X44.436 Y74.046 E4.7985 Z9.6891
G1 X44.104 Y73.92 E4.8103 Z9.7029 ; --INTERPOLATED
G1 X43.772 Y73.794 E4.8221 Z9.71
G1 X43.4095 Y73.7 E4.8346 Z9.7295 ; --INTERPOLATED
G1 X43.047 Y73.606 E4.847 Z9.7489
G1 X42.6925 Y73.5545 E4.8589 Z9.7728 ; --INTERPOLATED
G1 X42.338 Y73.503 E4.8709 Z9.7961
G1 X41.9715 Y73.49 E4.8831 Z9.8317 ; --INTERPOLATED
G1 X41.605 Y73.477 E4.8952 Z9.8617
G1 X41.062 Y73.5095 E4.9133 Z9.9191 ; --INTERPOLATED
G1 X40.519 Y73.542 E4.9314 Z9.9717
G1 X40.163 Y73.501 E4.9434 Z9.9842
G1 X39.83 Y73.406 E4.9549 Z9.979
G1 X39.52 Y73.265 E4.9662 Z9.9542
G1 X39.242 Y73.082 E4.9773 Z9.913
G1 X38.933 Y72.803 E4.9911 Z9.8446 ; --INTERPOLATED
G1 X38.624 Y72.524 E5.005 Z9.773
G1 X38.22 Y72.253 E5.0211 Z9.703
G1 X37.784 Y72.046 E5.0372 Z9.6533
G1 X37.314 Y71.903 E5.0535 Z9.6158
G1 X36.844 Y71.833 E5.0693 Z9.5992
G1 X36.356 Y71.832 E5.0856 Z9.5989
G1 X35.886 Y71.903 E5.1014 Z9.6158
G1 X35.416 Y72.046 E5.1177 Z9.6533
G1 X34.976 Y72.255 E5.1339 Z9.7034
G1 X34.578 Y72.52 E5.1498 Z9.7718
G1 X34.269 Y72.801 E5.1637 Z9.844 ; --INTERPOLATED
G1 X33.96 Y73.082 E5.1776 Z9.9131
G1 X33.656 Y73.278 E5.1896 Z9.9569
G1 X33.335 Y73.421 E5.2013 Z9.981
G1 X33.008 Y73.508 E5.2126 Z9.9842
G1 X32.662 Y73.542 E5.2242 Z9.9704
G1 X32.1275 Y73.5095 E5.242 Z9.9181 ; --INTERPOLATED
G1 X31.593 Y73.477 E5.2598 Z9.8615
G1 X31.227 Y73.491 E5.272 Z9.8318 ; --INTERPOLATED
G1 X30.861 Y73.505 E5.2841 Z9.7966
G1 X30.506 Y73.5565 E5.2961 Z9.7732 ; --INTERPOLATED
G1 X30.151 Y73.608 E5.308 Z9.7492
G1 X29.7885 Y73.702 E5.3204 Z9.7297 ; --INTERPOLATED
G1 X29.426 Y73.796 E5.3329 Z9.7103
G1 X29.094 Y73.922 E5.3447 Z9.7031 ; --INTERPOLATED
G1 X28.762 Y74.048 E5.3565 Z9.6893
G1 X28.4295 Y74.2165 E5.3689 Z9.6868 ; --INTERPOLATED
G1 X28.097 Y74.385 E5.3813 Z9.6842
G1 X27.795 Y74.582 E5.3933 Z9.6866 ; --INTERPOLATED
G1 X27.493 Y74.779 E5.4053 Z9.689
G1 X27.2115 Y75.009 E5.4174 Z9.7032 ; --INTERPOLATED
G1 X26.93 Y75.239 E5.4295 Z9.7106
G1 X26.665 Y75.5085 E5.4421 Z9.7303 ; --INTERPOLATED
G1 X26.4 Y75.778 E5.4546 Z9.75
G1 X26.184 Y76.0505 E5.4662 Z9.7727 ; --INTERPOLATED
G1 X25.968 Y76.323 E5.4778 Z9.7951
G1 X25.767 Y76.643 E5.4903 Z9.8316 ; --INTERPOLATED
G1 X25.566 Y76.963 E5.5029 Z9.8622
G1 X25.3285 Y77.4405 E5.5206 Z9.9189 ; --INTERPOLATED
G1 X25.091 Y77.918 E5.5384 Z9.9709
G1 X24.878 Y78.206 E5.5503 Z9.9835
G1 X24.64 Y78.443 E5.5615 Z9.98
G1 X24.34 Y78.657 E5.5737 Z9.9532
G1 X24.043 Y78.807 E5.5848 Z9.9123
G1 X23.65 Y78.9325 E5.5985 Z9.8441 ; --INTERPOLATED
G1 X23.257 Y79.058 E5.6122 Z9.7728
G1 X22.821 Y79.274 E5.6284 Z9.7032
G1 X22.423 Y79.546 E5.6444 Z9.653
G1 X22.068 Y79.88 E5.6607 Z9.6162
G1 X21.77 Y80.256 E5.6766 Z9.5996
G1 X21.526 Y80.676 E5.6928 Z9.5993
G1 X21.347 Y81.13 E5.709 Z9.6164
G1 X21.238 Y81.606 E5.7252 Z9.6539
G1 X21.199 Y82.068 E5.7407 Z9.7011
G1 X21.231 Y82.57 E5.7574 Z9.7731
G1 X21.319 Y82.971 E5.771 Z9.8441 ; --INTERPOLATED
G1 X21.407 Y83.372 E5.7847 Z9.9121
G1 X21.424 Y83.743 E5.797 Z9.9568
G1 X21.388 Y84.083 E5.8084 Z9.9802
G1 X21.295 Y84.421 E5.8201 Z9.9829
G1 X21.159 Y84.728 E5.8312 Z9.9705
G1 X20.8645 Y85.1735 E5.849 Z9.9185 ; --INTERPOLATED
G1 X20.57 Y85.619 E5.8668 Z9.862
G1 X20.397 Y85.946 E5.8791 Z9.832 ; --INTERPOLATED
G1 X20.224 Y86.273 E5.8914 Z9.7962
G1 X20.091 Y86.607 E5.9033 Z9.7728 ; --INTERPOLATED
G1 X19.958 Y86.941 E5.9153 Z9.7488
G1 X19.861 Y87.2935 E5.9275 Z9.73 ; --INTERPOLATED
G1 X19.764 Y87.646 E5.9396 Z9.7111
G1 X19.7055 Y88.0085 E5.9518 Z9.7039 ; --INTERPOLATED
G1 X19.647 Y88.371 E5.964 Z9.6897
G1 X19.6265 Y88.7355 E5.9762 Z9.6871 ; --INTERPOLATED
G1 X19.606 Y89.1 E5.9883 Z9.6845
G1 X19.6265 Y89.4645 E6.0005 Z9.6871 ; --INTERPOLATED
G1 X19.647 Y89.829 E6.0126 Z9.6897
G1 X19.7055 Y90.1915 E6.0248 Z9.7039 ; --INTERPOLATED
G1 X19.764 Y90.554 E6.037 Z9.7111
G1 X19.861 Y90.9065 E6.0492 Z9.7299 ; --INTERPOLATED
G1 X19.958 Y91.259 E6.0614 Z9.7488
G1 X20.091 Y91.593 E6.0733 Z9.7728 ; --INTERPOLATED
G1 X20.224 Y91.927 E6.0853 Z9.7962
G1 X20.399 Y92.2595 E6.0978 Z9.8322 ; --INTERPOLATED
G1 X20.574 Y92.592 E6.1103 Z9.8624
G1 X20.867 Y93.033 E6.1279 Z9.9187 ; --INTERPOLATED
G1 X21.16 Y93.474 E6.1455 Z9.9705
G1 X21.307 Y93.81 E6.1577 Z9.9836
G1 X21.393 Y94.139 E6.169 Z9.9796
G1 X21.424 Y94.472 E6.1801 Z9.9551
G1 X21.406 Y94.825 E6.1919 Z9.9121
G1 X21.318 Y95.2275 E6.2056 Z9.8439 ; --INTERPOLATED
G1 X21.23 Y95.63 E6.2193 Z9.7727
G1 X21.199 Y96.13 E6.236 Z9.7013
G1 X21.237 Y96.592 E6.2514 Z9.6538
G1 X21.348 Y97.073 E6.2678 Z9.6161
G1 X21.525 Y97.525 E6.2839 Z9.5987
G1 X21.77 Y97.946 E6.3001 Z9.5992
G1 X22.072 Y98.326 E6.3163 Z9.6162
G1 X22.419 Y98.653 E6.3321 Z9.652
G1 X22.821 Y98.928 E6.3483 Z9.7027
G1 X23.257 Y99.142 E6.3645 Z9.7726
G1 X23.652 Y99.269 E6.3783 Z9.8441 ; --INTERPOLATED
G1 X24.047 Y99.396 E6.3921 Z9.9125
G1 X24.356 Y99.553 E6.4036 Z9.9549
G1 X24.652 Y99.769 E6.4158 Z9.98
G1 X24.894 Y100.012 E6.4272 Z9.9832
G1 X25.093 Y100.284 E6.4384 Z9.9708
G1 X25.3305 Y100.761 E6.4561 Z9.9188 ; --INTERPOLATED
G1 X25.568 Y101.238 E6.4739 Z9.8623
G1 X25.769 Y101.558 E6.4864 Z9.8316 ; --INTERPOLATED
G1 X25.97 Y101.878 E6.499 Z9.7951
G1 X26.186 Y102.151 E6.5106 Z9.7726 ; --INTERPOLATED
G1 X26.402 Y102.424 E6.5222 Z9.7497
G1 X26.667 Y102.6935 E6.5347 Z9.73 ; --INTERPOLATED
G1 X26.932 Y102.963 E6.5473 Z9.7103
G1 X27.2135 Y103.193 E6.5594 Z9.7028 ; --INTERPOLATED
G1 X27.495 Y103.423 E6.5715 Z9.6886
G1 X27.797 Y103.62 E6.5835 Z9.6862 ; --INTERPOLATED
G1 X28.099 Y103.817 E6.5955 Z9.6838
G1 X28.4315 Y103.9855 E6.6079 Z9.6864 ; --INTERPOLATED
G1 X28.764 Y104.154 E6.6203 Z9.6888
G1 X29.096 Y104.28 E6.6321 Z9.7027 ; --INTERPOLATED
G1 X29.428 Y104.406 E6.6439 Z9.7097
G1 X29.7905 Y104.5 E6.6563 Z9.7292 ; --INTERPOLATED
G1 X30.153 Y104.594 E6.6688 Z9.7487
G1 X30.5075 Y104.6455 E6.6807 Z9.7726 ; --INTERPOLATED
G1 X30.862 Y104.697 E6.6926 Z9.7959
G1 X31.2285 Y104.71 E6.7048 Z9.8315 ; --INTERPOLATED
G1 X31.595 Y104.723 E6.717 Z9.8614
G1 X32.138 Y104.6905 E6.7351 Z9.9189 ; --INTERPOLATED
G1 X32.681 Y104.658 E6.7532 Z9.9715
G1 X33.043 Y104.701 E6.7653 Z9.9838
G1 X33.366 Y104.792 E6.7765 Z9.9791
G1 X33.68 Y104.935 E6.788 Z9.9539
G1 X33.962 Y105.12 E6.7992 Z9.9123
G1 X34.269 Y105.3995 E6.813 Z9.8436 ; --INTERPOLATED
G1 X34.576 Y105.679 E6.8268 Z9.7719
G1 X34.981 Y105.949 E6.843 Z9.7022
G1 X35.416 Y106.156 E6.859 Z9.6524
G1 X35.886 Y106.299 E6.8754 Z9.6149
G1 X36.355 Y106.37 E6.8911 Z9.598
G1 X36.845 Y106.368 E6.9074 Z9.5986
G1 X37.316 Y106.297 E6.9233 Z9.6155
G1 X37.786 Y106.154 E6.9396 Z9.653
G1 X38.22 Y105.947 E6.9556 Z9.7027
G1 X38.624 Y105.676 E6.9718 Z9.7728
G1 X38.938 Y105.392 E6.9859 Z9.8456 ; --INTERPOLATED
G1 X39.252 Y105.108 E7.0 Z9.9153
G1 X39.528 Y104.929 E7.0109 Z9.9554
G1 X39.86 Y104.782 E7.023 Z9.9803
G1 X40.192 Y104.692 E7.0344 Z9.984
G1 X40.527 Y104.656 E7.0456 Z9.9715
G1 X41.067 Y104.6895 E7.0636 Z9.9187 ; --INTERPOLATED
G1 X41.607 Y104.723 E7.0816 Z9.8613
G1 X41.973 Y104.709 E7.0938 Z9.8316 ; --INTERPOLATED
G1 X42.339 Y104.695 E7.106 Z9.7964
G1 X42.694 Y104.6435 E7.1179 Z9.773 ; --INTERPOLATED
G1 X43.049 Y104.592 E7.1298 Z9.749
G1 X43.4115 Y104.498 E7.1423 Z9.7295 ; --INTERPOLATED
G1 X43.774 Y104.404 E7.1547 Z9.7101
G1 X44.1065 Y104.278 E7.1666 Z9.7029 ; --INTERPOLATED
G1 X44.439 Y104.152 E7.1784 Z9.689
G1 X44.7715 Y103.983 E7.1908 Z9.6866 ; --INTERPOLATED
G1 X45.104 Y103.814 E7.2032 Z9.6841
G0 F2400 X44.9165 Y103.4835 Z9.7997 ; --INTERPOLATED
G0 F2400 X44.729 Y103.153 Z9.9152
; TYPE:SKIN
G1 F900 X44.4265 Y103.3065 E7.2145 Z9.9177 ; --INTERPOLATED
G1 F900 X44.124 Y103.46 E7.2258 Z9.9199
G1 X43.839 Y103.5675 E7.2359 Z9.9319 ; --INTERPOLATED
G1 X43.554 Y103.675 E7.246 Z9.9398
G1 X43.2225 Y103.761 E7.2574 Z9.9576 ; --INTERPOLATED
G1 X42.891 Y103.847 E7.2688 Z9.9754
G1 X42.5835 Y103.8915 E7.2791 Z9.999 ; --INTERPOLATED
G1 X42.276 Y103.936 E7.2895 Z10.0193
G1 X41.949 Y103.9485 E7.3004 Z10.0508 ; --INTERPOLATED
G1 X41.622 Y103.961 E7.3112 Z10.0818
G1 X41.0625 Y103.928 E7.3299 Z10.1409 ; --INTERPOLATED
G1 X40.503 Y103.895 E7.3485 Z10.1987
G1 X39.989 Y103.957 E7.3658 Z10.2159
G1 X39.558 Y104.081 E7.3807 Z10.2085
G1 X39.144 Y104.272 E7.3958 Z10.1716
G1 X38.769 Y104.517 E7.4107 Z10.1167
G1 X38.4615 Y104.796 E7.4245 Z10.0441 ; --INTERPOLATED
G1 X38.154 Y105.075 E7.4384 Z9.9688
G1 X37.842 Y105.283 E7.4508 Z9.9151
G1 X37.514 Y105.441 E7.4629 Z9.8739
G1 X37.144 Y105.554 E7.4758 Z9.8432
G1 X36.788 Y105.608 E7.4878 Z9.8303
G1 X36.41 Y105.61 E7.5003 Z9.8297
G1 X36.058 Y105.556 E7.5122 Z9.8426
G1 X35.688 Y105.444 E7.525 Z9.873
G1 X35.356 Y105.285 E7.5373 Z9.9144
G1 X35.048 Y105.08 E7.5496 Z9.9674
G1 X34.7345 Y104.797 E7.5636 Z10.0437 ; --INTERPOLATED
G1 X34.421 Y104.514 E7.5777 Z10.117
G1 X34.032 Y104.262 E7.5931 Z10.1734
G1 X33.589 Y104.064 E7.6092 Z10.2103
G1 X33.152 Y103.947 E7.6243 Z10.2147
G1 X32.706 Y103.897 E7.6392 Z10.1987
G1 X32.143 Y103.9295 E7.658 Z10.1409 ; --INTERPOLATED
G1 X31.58 Y103.962 E7.6767 Z10.0817
G1 X31.2525 Y103.95 E7.6876 Z10.0505 ; --INTERPOLATED
G1 X30.925 Y103.938 E7.6985 Z10.0188
G1 X30.6205 Y103.8935 E7.7088 Z9.9988 ; --INTERPOLATED
G1 X30.316 Y103.849 E7.719 Z9.9757
G1 X29.982 Y103.7625 E7.7305 Z9.9577 ; --INTERPOLATED
G1 X29.648 Y103.676 E7.742 Z9.9397
G1 X29.358 Y103.5655 E7.7523 Z9.932 ; --INTERPOLATED
G1 X29.068 Y103.455 E7.7626 Z9.92
G1 X28.7745 Y103.307 E7.7735 Z9.9177 ; --INTERPOLATED
G1 X28.481 Y103.159 E7.7845 Z9.9152
G1 X28.2145 Y102.985 E7.795 Z9.9174 ; --INTERPOLATED
G1 X27.948 Y102.811 E7.8056 Z9.9195
G1 X27.6995 Y102.608 E7.8163 Z9.9321 ; --INTERPOLATED
G1 X27.451 Y102.405 E7.827 Z9.9403
G1 X27.206 Y102.156 E7.8386 Z9.9585 ; --INTERPOLATED
G1 X26.961 Y101.907 E7.8502 Z9.9766
G1 X26.602 Y101.453 E7.8695 Z10.0171
G1 X26.417 Y101.158 E7.881 Z10.0508 ; --INTERPOLATED
G1 X26.232 Y100.863 E7.8926 Z10.0837
G1 X25.9905 Y100.38 E7.9106 Z10.1407 ; --INTERPOLATED
G1 X25.749 Y99.897 E7.9286 Z10.197
G1 X25.478 Y99.524 E7.9439 Z10.2144
G1 X25.152 Y99.195 E7.9593 Z10.2104
G1 X24.77 Y98.914 E7.9751 Z10.1756
G1 X24.327 Y98.689 E7.9916 Z10.1149
G1 X23.9315 Y98.56 E8.0054 Z10.0426 ; --INTERPOLATED
G1 X23.536 Y98.431 E8.0193 Z9.9677
G1 X23.207 Y98.272 E8.0314 Z9.9145
G1 X22.899 Y98.061 E8.0438 Z9.8725
G1 X22.635 Y97.812 E8.0559 Z9.8443
G1 X22.403 Y97.519 E8.0683 Z9.8314
G1 X22.212 Y97.192 E8.0809 Z9.8309
G1 X22.079 Y96.849 E8.0932 Z9.8444
G1 X21.987 Y96.46 E8.1065 Z9.8755
G1 X21.96 Y96.133 E8.1174 Z9.9118
G1 X21.985 Y95.73 E8.1308 Z9.9694
G1 X22.072 Y95.3255 E8.1446 Z10.0443 ; --INTERPOLATED
G1 X22.159 Y94.921 E8.1583 Z10.1163
G1 X22.183 Y94.451 E8.174 Z10.1735
G1 X22.147 Y94.046 E8.1875 Z10.2066
G1 X22.028 Y93.562 E8.2041 Z10.2155
G1 X21.832 Y93.119 E8.2202 Z10.1976
G1 X21.53 Y92.6595 E8.2385 Z10.141 ; --INTERPOLATED
G1 X21.228 Y92.2 E8.2568 Z10.0833
G1 X21.071 Y91.9015 E8.268 Z10.0518 ; --INTERPOLATED
G1 X20.914 Y91.603 E8.2792 Z10.0194
G1 X20.7975 Y91.3125 E8.2896 Z9.9988 ; --INTERPOLATED
G1 X20.681 Y91.022 E8.3 Z9.9748
G1 X20.595 Y90.708 E8.3108 Z9.9582 ; --INTERPOLATED
G1 X20.509 Y90.394 E8.3217 Z9.9415
G1 X20.4575 Y90.072 E8.3325 Z9.9338 ; --INTERPOLATED
G1 X20.406 Y89.75 E8.3434 Z9.9213
G1 X20.387 Y89.425 E8.3542 Z9.9188 ; --INTERPOLATED
G1 X20.368 Y89.1 E8.365 Z9.9162
G1 X20.387 Y88.775 E8.3759 Z9.9188 ; --INTERPOLATED
G1 X20.406 Y88.45 E8.3867 Z9.9213
G1 X20.4575 Y88.128 E8.3975 Z9.9338 ; --INTERPOLATED
G1 X20.509 Y87.806 E8.4084 Z9.9415
G1 X20.595 Y87.4925 E8.4192 Z9.9582 ; --INTERPOLATED
G1 X20.681 Y87.179 E8.43 Z9.9749
G1 X20.7975 Y86.8885 E8.4404 Z9.9989 ; --INTERPOLATED
G1 X20.914 Y86.598 E8.4508 Z10.0195
G1 X21.069 Y86.3055 E8.4618 Z10.0515 ; --INTERPOLATED
G1 X21.224 Y86.013 E8.4728 Z10.083
G1 X21.522 Y85.562 E8.4908 Z10.1402 ; --INTERPOLATED
G1 X21.82 Y85.111 E8.5088 Z10.1968
G1 X22.016 Y84.664 E8.525 Z10.2144
G1 X22.141 Y84.182 E8.5416 Z10.208
G1 X22.183 Y83.763 E8.5556 Z10.1751
G1 X22.164 Y83.273 E8.5719 Z10.1171
G1 X22.075 Y82.87 E8.5856 Z10.0447 ; --INTERPOLATED
G1 X21.986 Y82.467 E8.5994 Z9.9694
G1 X21.961 Y82.067 E8.6127 Z9.9122
G1 X21.99 Y81.734 E8.6238 Z9.8756
G1 X22.077 Y81.354 E8.6368 Z9.8444
G1 X22.211 Y81.013 E8.649 Z9.8314
G1 X22.404 Y80.679 E8.6618 Z9.8315
G1 X22.628 Y80.397 E8.6738 Z9.844
G1 X22.902 Y80.139 E8.6863 Z9.8734
G1 X23.2 Y79.935 E8.6983 Z9.9141
G1 X23.545 Y79.763 E8.7111 Z9.969
G1 X23.9395 Y79.636 E8.7249 Z10.044 ; --INTERPOLATED
G1 X24.334 Y79.509 E8.7387 Z10.1163
G1 X24.771 Y79.285 E8.755 Z10.1758
G1 X25.143 Y79.012 E8.7704 Z10.21
G1 X25.465 Y78.691 E8.7855 Z10.2148
G1 X25.745 Y78.309 E8.8012 Z10.1975
G1 X25.9875 Y77.823 E8.8193 Z10.1409 ; --INTERPOLATED
G1 X26.23 Y77.337 E8.8374 Z10.0834
G1 X26.415 Y77.0425 E8.8489 Z10.0507 ; --INTERPOLATED
G1 X26.6 Y76.748 E8.8605 Z10.0171
G1 X26.959 Y76.295 E8.8797 Z9.9769
G1 X27.2045 Y76.0455 E8.8914 Z9.9587 ; --INTERPOLATED
G1 X27.45 Y75.796 E8.903 Z9.9406
G1 X27.698 Y75.5935 E8.9137 Z9.9324 ; --INTERPOLATED
G1 X27.946 Y75.391 E8.9243 Z9.9199
G1 X28.2105 Y75.2185 E8.9348 Z9.9178 ; --INTERPOLATED
G1 X28.475 Y75.046 E8.9453 Z9.9158
G1 X28.776 Y74.8925 E8.9566 Z9.9179 ; --INTERPOLATED
G1 X29.077 Y74.739 E8.9678 Z9.9199
G1 X29.3595 Y74.633 E8.9778 Z9.932 ; --INTERPOLATED
G1 X29.642 Y74.527 E8.9879 Z9.94
G1 X29.978 Y74.44 E8.9994 Z9.9581 ; --INTERPOLATED
G1 X30.314 Y74.353 E9.011 Z9.9762
G1 X30.619 Y74.3085 E9.0212 Z9.9995 ; --INTERPOLATED
G1 X30.924 Y74.264 E9.0315 Z10.0195
G1 X31.251 Y74.2515 E9.0423 Z10.051 ; --INTERPOLATED
G1 X31.578 Y74.239 E9.0532 Z10.082
G1 X32.1315 Y74.271 E9.0717 Z10.1403 ; --INTERPOLATED
G1 X32.685 Y74.303 E9.0901 Z10.1975
G1 X33.179 Y74.251 E9.1066 Z10.2162
G1 X33.583 Y74.14 E9.1206 Z10.2113
G1 X34.056 Y73.928 E9.1378 Z10.1719
G1 X34.424 Y73.686 E9.1524 Z10.1174
G1 X34.734 Y73.405 E9.1664 Z10.0445 ; --INTERPOLATED
G1 X35.044 Y73.124 E9.1803 Z9.9686
G1 X35.355 Y72.917 E9.1927 Z9.9152
G1 X35.689 Y72.759 E9.205 Z9.8742
G1 X36.057 Y72.646 E9.2178 Z9.8435
G1 X36.413 Y72.593 E9.2298 Z9.8309
G1 X36.789 Y72.594 E9.2423 Z9.8312
G1 X37.141 Y72.646 E9.2541 Z9.8435
G1 X37.516 Y72.76 E9.2672 Z9.8744
G1 X37.839 Y72.912 E9.279 Z9.9139
G1 X38.154 Y73.125 E9.2917 Z9.969
G1 X38.4745 Y73.411 E9.306 Z10.0461 ; --INTERPOLATED
G1 X38.795 Y73.697 E9.3202 Z10.1198
G1 X39.151 Y73.933 E9.3344 Z10.173
G1 X39.59 Y74.13 E9.3505 Z10.2102
G1 X39.989 Y74.241 E9.3642 Z10.2155
G1 X40.519 Y74.308 E9.382 Z10.1987
G1 X41.069 Y74.273 E9.4003 Z10.1408 ; --INTERPOLATED
G1 X41.619 Y74.238 E9.4187 Z10.082
G1 X41.947 Y74.25 E9.4296 Z10.0508 ; --INTERPOLATED
G1 X42.275 Y74.262 E9.4405 Z10.019
G1 X42.5795 Y74.3065 E9.4507 Z9.9991 ; --INTERPOLATED
G1 X42.884 Y74.351 E9.461 Z9.9759
G1 X43.218 Y74.4375 E9.4724 Z9.9579 ; --INTERPOLATED
G1 X43.552 Y74.524 E9.4839 Z9.94
G1 X43.841 Y74.634 E9.4942 Z9.9322 ; --INTERPOLATED
G1 X44.13 Y74.744 E9.5045 Z9.9203
G1 X44.424 Y74.892 E9.5154 Z9.9178 ; --INTERPOLATED
G1 X44.718 Y75.04 E9.5264 Z9.9154
G1 X44.984 Y75.2135 E9.5369 Z9.9175 ; --INTERPOLATED
G1 X45.25 Y75.387 E9.5475 Z9.9196
G1 X45.4985 Y75.59 E9.5582 Z9.9321 ; --INTERPOLATED
G1 X45.747 Y75.793 E9.5688 Z9.9404
G1 X45.993 Y76.043 E9.5805 Z9.9586 ; --INTERPOLATED
G1 X46.239 Y76.293 E9.5922 Z9.9768
G1 X46.598 Y76.746 E9.6114 Z10.0171
G1 X46.783 Y77.041 E9.623 Z10.0507 ; --INTERPOLATED
G1 X46.968 Y77.336 E9.6346 Z10.0837
G1 X47.2095 Y77.82 E9.6526 Z10.1409 ; --INTERPOLATED
G1 X47.451 Y78.304 E9.6706 Z10.1974
G1 X47.752 Y78.709 E9.6873 Z10.2148
G1 X48.036 Y78.996 E9.7008 Z10.2114
G1 X48.44 Y79.292 E9.7174 Z10.1746
G1 X48.861 Y79.507 E9.7331 Z10.1171
G1 X49.259 Y79.6355 E9.7471 Z10.0444 ; --INTERPOLATED
G1 X49.657 Y79.764 E9.761 Z9.9687
G1 X49.993 Y79.932 E9.7735 Z9.9154
G1 X50.301 Y80.142 E9.7859 Z9.8731
G1 X50.567 Y80.394 E9.798 Z9.8449
G1 X50.799 Y80.684 E9.8104 Z9.8315
G1 X50.988 Y81.01 E9.8229 Z9.8313
G1 X51.123 Y81.354 E9.8352 Z9.8445
G1 X51.21 Y81.734 E9.8482 Z9.8756
G1 X51.239 Y82.066 E9.8593 Z9.9122
G1 X51.213 Y82.471 E9.8728 Z9.9702
G1 X51.126 Y82.8735 E9.8865 Z10.0449 ; --INTERPOLATED
G1 X51.039 Y83.276 E9.9002 Z10.1167
G1 X51.015 Y83.786 E9.9171 Z10.1782
G1 X51.059 Y84.219 E9.9316 Z10.2115
G1 X51.178 Y84.649 E9.9465 Z10.2149
G1 X51.372 Y85.095 E9.9626 Z10.1978
G1 X51.666 Y85.537 E9.9803 Z10.1421 ; --INTERPOLATED
G1 X51.96 Y85.979 E9.998 Z10.0855
G1 X52.1235 Y86.2885 E10.0096 Z10.053 ; --INTERPOLATED
G1 X52.287 Y86.598 E10.0212 Z10.0193
G1 X52.402 Y86.885 E10.0315 Z9.999 ; --INTERPOLATED
G1 X52.517 Y87.172 E10.0418 Z9.9753
G1 X52.604 Y87.489 E10.0527 Z9.9585 ; --INTERPOLATED
G1 X52.691 Y87.806 E10.0637 Z9.9416
G1 X52.7425 Y88.128 E10.0745 Z9.9339 ; --INTERPOLATED
G1 X52.794 Y88.45 E10.0854 Z9.9214
G1 X52.813 Y88.775 E10.0962 Z9.9189 ; --INTERPOLATED
G1 X52.832 Y89.1 E10.107 Z9.9163
G1 X52.813 Y89.425 E10.1178 Z9.9188 ; --INTERPOLATED
G1 X52.794 Y89.75 E10.1287 Z9.9214
G1 X52.7425 Y90.072 E10.1395 Z9.9338 ; --INTERPOLATED
G1 X52.691 Y90.394 E10.1504 Z9.9415
G1 X52.605 Y90.7075 E10.1612 Z9.9582 ; --INTERPOLATED
G1 X52.519 Y91.021 E10.172 Z9.9749
G1 X52.404 Y91.309 E10.1823 Z9.9986 ; --INTERPOLATED
G1 X52.289 Y91.597 E10.1926 Z10.0189
G1 X52.135 Y91.888 E10.2036 Z10.0507 ; --INTERPOLATED
G1 X51.981 Y92.179 E10.2145 Z10.0821
G1 X51.6755 Y92.6415 E10.233 Z10.1407 ; --INTERPOLATED
G1 X51.37 Y93.104 E10.2514 Z10.1984
G1 X51.184 Y93.536 E10.267 Z10.2144
G1 X51.059 Y94.017 E10.2836 Z10.2081
G1 X51.017 Y94.433 E10.2975 Z10.1755
G1 X51.037 Y94.929 E10.314 Z10.1166
G1 X51.125 Y95.3295 E10.3276 Z10.0447 ; --INTERPOLATED
G1 X51.213 Y95.73 E10.3412 Z9.97
G1 X51.235 Y96.108 E10.3538 Z9.9164
G1 X51.207 Y96.49 E10.3666 Z9.8729
G1 X51.123 Y96.847 E10.3788 Z9.8442
G1 X50.99 Y97.19 E10.391 Z9.8307
G1 X50.799 Y97.517 E10.4036 Z9.8313
G1 X50.567 Y97.81 E10.416 Z9.8441
G1 X50.303 Y98.059 E10.4281 Z9.8723
G1 X49.995 Y98.27 E10.4405 Z9.9144
G1 X49.666 Y98.43 E10.4527 Z9.9674
G1 X49.2635 Y98.561 E10.4668 Z10.0437 ; --INTERPOLATED
G1 X48.861 Y98.692 E10.4809 Z10.1172
G1 X48.45 Y98.902 E10.4962 Z10.1733
G1 X48.109 Y99.144 E10.5101 Z10.2068
G1 X47.75 Y99.493 E10.5268 Z10.2147
G1 X47.467 Y99.875 E10.5426 Z10.1981
G1 X47.2225 Y100.362 E10.5607 Z10.142 ; --INTERPOLATED
G1 X46.978 Y100.849 E10.5788 Z10.0847
G1 X46.789 Y101.1495 E10.5906 Z10.0516 ; --INTERPOLATED
G1 X46.6 Y101.45 E10.6024 Z10.0174
G1 X46.235 Y101.911 E10.622 Z9.9764
G1 X45.997 Y102.1545 E10.6333 Z9.9583 ; --INTERPOLATED
G1 X45.759 Y102.398 E10.6446 Z9.9403
G1 X45.507 Y102.6035 E10.6555 Z9.9322 ; --INTERPOLATED
G1 X45.255 Y102.809 E10.6663 Z9.9196
G1 X44.992 Y102.981 E10.6767 Z9.9174 ; --INTERPOLATED
G1 X44.729 Y103.153 E10.6872 Z9.9152
G0 F2400 X44.869 Y103.37 Z9.8366
G0 X44.4473 Y103.5363 Z9.853 ; --INTERPOLATED
G0 X44.0257 Y103.7027 Z9.8689 ; --INTERPOLATED
G0 X43.604 Y103.869 Z9.8797
G0 X43.1653 Y103.958 Z9.9101 ; --INTERPOLATED
G0 X42.7267 Y104.047 Z9.9394 ; --INTERPOLATED
G0 X42.288 Y104.136 Z9.961
G0 X41.722 Y104.2255 Z9.996 ; --INTERPOLATED
G0 X41.156 Y104.315 Z10.0199 ; --INTERPOLATED
G0 X40.59 Y104.4045 Z10.0417 ; --INTERPOLATED
G0 X40.024 Y104.494 Z10.0543 ; --INTERPOLATED
G0 X39.458 Y104.5835 Z10.0626 ; --INTERPOLATED
G0 X38.892 Y104.673 Z10.0637
G0 X38.584 Y104.9535 Z9.9928 ; --INTERPOLATED
G0 X38.276 Y105.234 Z9.917
G0 X37.9295 Y105.432 Z9.8674 ; --INTERPOLATED
G0 X37.583 Y105.63 Z9.8157
G0 X37.1925 Y105.7185 Z9.7927 ; --INTERPOLATED
G0 X36.802 Y105.807 Z9.7697
G0 X36.4065 Y105.779 Z9.7783 ; --INTERPOLATED
G0 X36.011 Y105.751 Z9.7829
G0 X35.635 Y105.6055 Z9.8234 ; --INTERPOLATED
G0 X35.259 Y105.46 Z9.8586
G0 X34.7462 Y105.1874 Z9.9258 ; --INTERPOLATED
G0 X34.2334 Y104.9148 Z9.9874 ; --INTERPOLATED
G0 X33.7206 Y104.6422 Z10.0439 ; --INTERPOLATED
G0 X33.2078 Y104.3696 Z10.0934 ; --INTERPOLATED
G0 X32.695 Y104.097 Z10.1387
G0 X32.141 Y104.1295 Z10.0825 ; --INTERPOLATED
G0 X31.587 Y104.162 Z10.0241
G0 X31.1463 Y104.1227 Z9.9899 ; --INTERPOLATED
G0 X30.7057 Y104.0833 Z9.9539 ; --INTERPOLATED
G0 X30.265 Y104.044 Z9.9152
G0 X29.8403 Y103.9093 Z9.8992 ; --INTERPOLATED
G0 X29.4157 Y103.7747 Z9.8832 ; --INTERPOLATED
G0 X28.991 Y103.64 Z9.8594
G0 X28.603 Y103.4167 Z9.8636 ; --INTERPOLATED
G0 X28.215 Y103.1933 Z9.8636 ; --INTERPOLATED
G0 X27.827 Y102.97 Z9.859
G0 X27.4923 Y102.664 Z9.8836 ; --INTERPOLATED
G0 X27.1577 Y102.358 Z9.8999 ; --INTERPOLATED
G0 X26.823 Y102.052 Z9.9163
G0 X26.4574 Y101.5987 Z9.9549 ; --INTERPOLATED
G0 X26.0919 Y101.1454 Z9.991 ; --INTERPOLATED
G0 X25.7263 Y100.6921 Z10.0164 ; --INTERPOLATED
G0 X25.3607 Y100.2389 Z10.0396 ; --INTERPOLATED
G0 X24.9951 Y99.7856 Z10.0527 ; --INTERPOLATED
G0 X24.6296 Y99.3323 Z10.0619 ; --INTERPOLATED
G0 X24.264 Y98.879 Z10.0634
G0 X23.8773 Y98.7337 Z9.9984 ; --INTERPOLATED
G0 X23.4907 Y98.5883 Z9.9286 ; --INTERPOLATED
G0 X23.104 Y98.443 Z9.8587
G0 X22.854 Y98.242 Z9.8318 ; --INTERPOLATED
G0 X22.604 Y98.041 Z9.7995
G0 X22.27 Y97.6215 Z9.7806 ; --INTERPOLATED
G0 X21.936 Y97.202 Z9.7554
G0 X22.366 Y97.036 Z9.8946
G1 F900 X22.7567 Y97.427 E10.7056 Z9.9376 ; --INTERPOLATED
G1 F900 X23.1473 Y97.818 E10.724 Z9.9757 ; --INTERPOLATED
G1 F900 X23.538 Y98.209 E10.7423 Z10.0075
G0 F2400 X23.968 Y98.356 Z10.0878 ; --INTERPOLATED
G0 F2400 X24.398 Y98.503 Z10.1675
G1 F900 X24.027 Y98.1318 E10.7598 Z10.1421 ; --INTERPOLATED
G1 F900 X23.656 Y97.7607 E10.7772 Z10.1162 ; --INTERPOLATED
G1 F900 X23.285 Y97.3895 E10.7947 Z10.0801 ; --INTERPOLATED
G1 F900 X22.914 Y97.0183 E10.8122 Z10.0439 ; --INTERPOLATED
G1 F900 X22.543 Y96.6472 E10.8296 Z9.9979 ; --INTERPOLATED
G1 F900 X22.172 Y96.276 E10.8471 Z9.9516
G0 F2400 X22.189 Y95.728 Z10.0262
G1 F900 X22.6015 Y96.1405 E10.8665 Z10.0863 ; --INTERPOLATED
G1 F900 X23.0141 Y96.5531 E10.8859 Z10.1378 ; --INTERPOLATED
G1 F900 X23.4266 Y96.9656 E10.9053 Z10.1848 ; --INTERPOLATED
G1 F900 X23.8391 Y97.3781 E10.9247 Z10.2252 ; --INTERPOLATED
G1 F900 X24.2516 Y97.7906 E10.9441 Z10.2582 ; --INTERPOLATED
G1 F900 X24.6642 Y98.2032 E10.9635 Z10.2855 ; --INTERPOLATED
G1 F900 X25.0767 Y98.6157 E10.9829 Z10.2995 ; --INTERPOLATED
G1 F900 X25.4892 Y99.0282 E11.0023 Z10.3108 ; --INTERPOLATED
G1 F900 X25.9017 Y99.4407 E11.0217 Z10.3152 ; --INTERPOLATED
G1 F900 X26.3143 Y99.8533 E11.0411 Z10.3146 ; --INTERPOLATED
G1 F900 X26.7268 Y100.2658 E11.0605 Z10.3102 ; --INTERPOLATED
G1 F900 X27.1393 Y100.6783 E11.0799 Z10.2977 ; --INTERPOLATED
G1 F900 X27.5518 Y101.0908 E11.0993 Z10.2825 ; --INTERPOLATED
G1 F900 X27.9644 Y101.5034 E11.1187 Z10.2543 ; --INTERPOLATED
G1 F900 X28.3769 Y101.9159 E11.1381 Z10.2198 ; --INTERPOLATED
G1 F900 X28.7894 Y102.3284 E11.1575 Z10.1794 ; --INTERPOLATED
G1 F900 X29.2019 Y102.7409 E11.1769 Z10.1309 ; --INTERPOLATED
G1 F900 X29.6145 Y103.1535 E11.1963 Z10.0794 ; --INTERPOLATED
G1 F900 X30.027 Y103.566 E11.2157 Z10.0178
G0 F2400 X30.3795 Y103.636 Z10.0427 ; --INTERPOLATED
G0 F2400 X30.732 Y103.706 Z10.0642
G1 F900 X30.3098 Y103.2838 E11.2356 Z10.1315 ; --INTERPOLATED
G1 F900 X29.8877 Y102.8616 E11.2555 Z10.1956 ; --INTERPOLATED
G1 F900 X29.4656 Y102.4394 E11.2753 Z10.2496 ; --INTERPOLATED
G1 F900 X29.0434 Y102.0172 E11.2952 Z10.2959 ; --INTERPOLATED
G1 F900 X28.6212 Y101.595 E11.315 Z10.3276 ; --INTERPOLATED
G1 F900 X28.1991 Y101.1728 E11.3349 Z10.3551 ; --INTERPOLATED
G1 F900 X27.777 Y100.7506 E11.3547 Z10.3778 ; --INTERPOLATED
G1 F900 X27.3548 Y100.3284 E11.3746 Z10.393 ; --INTERPOLATED
G1 F900 X26.9326 Y99.9062 E11.3945 Z10.4045 ; --INTERPOLATED
G1 F900 X26.5105 Y99.484 E11.4143 Z10.409 ; --INTERPOLATED
G1 F900 X26.0884 Y99.0618 E11.4342 Z10.4077 ; --INTERPOLATED
G1 F900 X25.6662 Y98.6396 E11.454 Z10.4025 ; --INTERPOLATED
G1 F900 X25.244 Y98.2174 E11.4739 Z10.3889 ; --INTERPOLATED
G1 F900 X24.8219 Y97.7952 E11.4938 Z10.371 ; --INTERPOLATED
G1 F900 X24.3998 Y97.373 E11.5136 Z10.3483 ; --INTERPOLATED
G1 F900 X23.9776 Y96.9508 E11.5335 Z10.3181 ; --INTERPOLATED
G1 F900 X23.5554 Y96.5286 E11.5533 Z10.2851 ; --INTERPOLATED
G1 F900 X23.1333 Y96.1064 E11.5732 Z10.2339 ; --INTERPOLATED
G1 F900 X22.7112 Y95.6842 E11.593 Z10.1764 ; --INTERPOLATED
G1 F900 X22.289 Y95.262 E11.6129 Z10.1124
G0 F2400 X22.367 Y94.774 Z10.1913
G1 F900 X22.775 Y95.182 E11.6321 Z10.2572 ; --INTERPOLATED
G1 F900 X23.183 Y95.5901 E11.6513 Z10.31 ; --INTERPOLATED
G1 F900 X23.591 Y95.9981 E11.6705 Z10.3509 ; --INTERPOLATED
G1 F900 X23.999 Y96.4062 E11.6897 Z10.3896 ; --INTERPOLATED
G1 F900 X24.407 Y96.8142 E11.7089 Z10.4203 ; --INTERPOLATED
G1 F900 X24.815 Y97.2223 E11.7281 Z10.4478 ; --INTERPOLATED
G1 F900 X25.223 Y97.6303 E11.7472 Z10.4698 ; --INTERPOLATED
G1 F900 X25.631 Y98.0384 E11.7664 Z10.4854 ; --INTERPOLATED
G1 F900 X26.039 Y98.4464 E11.7856 Z10.4976 ; --INTERPOLATED
G1 F900 X26.447 Y98.8545 E11.8048 Z10.502 ; --INTERPOLATED
G1 F900 X26.855 Y99.2625 E11.824 Z10.5019 ; --INTERPOLATED
G1 F900 X27.263 Y99.6705 E11.8432 Z10.4975 ; --INTERPOLATED
G1 F900 X27.671 Y100.0786 E11.8624 Z10.485 ; --INTERPOLATED
G1 F900 X28.079 Y100.4866 E11.8816 Z10.4692 ; --INTERPOLATED
G1 F900 X28.487 Y100.8947 E11.9008 Z10.4472 ; --INTERPOLATED
G1 F900 X28.895 Y101.3027 E11.92 Z10.4195 ; --INTERPOLATED
G1 F900 X29.303 Y101.7108 E11.9392 Z10.3888 ; --INTERPOLATED
G1 F900 X29.711 Y102.1188 E11.9584 Z10.3498 ; --INTERPOLATED
G1 F900 X30.119 Y102.5269 E11.9775 Z10.3087 ; --INTERPOLATED
G1 F900 X30.527 Y102.9349 E11.9967 Z10.2555 ; --INTERPOLATED
G1 F900 X30.935 Y103.343 E12.0159 Z10.1893 ; --INTERPOLATED
G1 F900 X31.343 Y103.751 E12.0351 Z10.1169
G0 F2400 X31.9 Y103.742 Z10.174
G1 F900 X31.4851 Y103.3271 E12.0546 Z10.2528 ; --INTERPOLATED
G1 F900 X31.0702 Y102.9122 E12.0742 Z10.3158 ; --INTERPOLATED
G1 F900 X30.6553 Y102.4973 E12.0937 Z10.3668 ; --INTERPOLATED
G1 F900 X30.2403 Y102.0823 E12.1132 Z10.4152 ; --INTERPOLATED
G1 F900 X29.8254 Y101.6674 E12.1327 Z10.4556 ; --INTERPOLATED
G1 F900 X29.4105 Y101.2525 E12.1522 Z10.4931 ; --INTERPOLATED
G1 F900 X28.9956 Y100.8376 E12.1717 Z10.5243 ; --INTERPOLATED
G1 F900 X28.5807 Y100.4227 E12.1913 Z10.5497 ; --INTERPOLATED
G1 F900 X28.1658 Y100.0078 E12.2108 Z10.5713 ; --INTERPOLATED
G1 F900 X27.7509 Y99.5929 E12.2303 Z10.5847 ; --INTERPOLATED
G1 F900 X27.336 Y99.178 E12.2498 Z10.5933 ; --INTERPOLATED
G1 F900 X26.921 Y98.763 E12.2693 Z10.5976 ; --INTERPOLATED
G1 F900 X26.5061 Y98.3481 E12.2888 Z10.5931 ; --INTERPOLATED
G1 F900 X26.0912 Y97.9332 E12.3084 Z10.5842 ; --INTERPOLATED
G1 F900 X25.6763 Y97.5183 E12.3279 Z10.5707 ; --INTERPOLATED
G1 F900 X25.2614 Y97.1034 E12.3474 Z10.5488 ; --INTERPOLATED
G1 F900 X24.8465 Y96.6885 E12.3669 Z10.5231 ; --INTERPOLATED
G1 F900 X24.4316 Y96.2736 E12.3864 Z10.4919 ; --INTERPOLATED
G1 F900 X24.0167 Y95.8587 E12.4059 Z10.4541 ; --INTERPOLATED
G1 F900 X23.6017 Y95.4437 E12.4255 Z10.4133 ; --INTERPOLATED
G1 F900 X23.1868 Y95.0288 E12.445 Z10.365 ; --INTERPOLATED
G1 F900 X22.7719 Y94.6139 E12.4645 Z10.3136 ; --INTERPOLATED
G1 F900 X22.357 Y94.199 E12.484 Z10.2501
G0 F2400 X22.285 Y93.844 Z10.2654 ; --INTERPOLATED
G0 F2400 X22.213 Y93.489 Z10.2758
G1 F900 X22.6219 Y93.8979 E12.5032 Z10.3398 ; --INTERPOLATED
G1 F900 X23.0308 Y94.3068 E12.5225 Z10.3956 ; --INTERPOLATED
G1 F900 X23.4396 Y94.7158 E12.5417 Z10.4491 ; --INTERPOLATED
G1 F900 X23.8485 Y95.1247 E12.5609 Z10.4967 ; --INTERPOLATED
G1 F900 X24.2574 Y95.5336 E12.5802 Z10.5396 ; --INTERPOLATED
G1 F900 X24.6663 Y95.9425 E12.5994 Z10.5788 ; --INTERPOLATED
G1 F900 X25.0752 Y96.3514 E12.6186 Z10.6102 ; --INTERPOLATED
G1 F900 X25.484 Y96.7604 E12.6379 Z10.6379 ; --INTERPOLATED
G1 F900 X25.8929 Y97.1693 E12.6571 Z10.6599 ; --INTERPOLATED
G1 F900 X26.3018 Y97.5782 E12.6763 Z10.6749 ; --INTERPOLATED
G1 F900 X26.7107 Y97.9871 E12.6956 Z10.6857 ; --INTERPOLATED
G1 F900 X27.1196 Y98.396 E12.7148 Z10.6901 ; --INTERPOLATED
G1 F900 X27.5284 Y98.805 E12.734 Z10.6877 ; --INTERPOLATED
G1 F900 X27.9373 Y99.2139 E12.7533 Z10.6809 ; --INTERPOLATED
G1 F900 X28.3462 Y99.6228 E12.7725 Z10.6676 ; --INTERPOLATED
G1 F900 X28.7551 Y100.0317 E12.7917 Z10.6478 ; --INTERPOLATED
G1 F900 X29.164 Y100.4406 E12.811 Z10.6239 ; --INTERPOLATED
G1 F900 X29.5728 Y100.8496 E12.8302 Z10.5932 ; --INTERPOLATED
G1 F900 X29.9817 Y101.2585 E12.8494 Z10.5572 ; --INTERPOLATED
G1 F900 X30.3906 Y101.6674 E12.8687 Z10.5179 ; --INTERPOLATED
G1 F900 X30.7995 Y102.0763 E12.8879 Z10.4704 ; --INTERPOLATED
G1 F900 X31.2084 Y102.4852 E12.9071 Z10.4206 ; --INTERPOLATED
G1 F900 X31.6172 Y102.8942 E12.9264 Z10.3648 ; --INTERPOLATED
G1 F900 X32.0261 Y103.3031 E12.9456 Z10.3054 ; --INTERPOLATED
G1 F900 X32.435 Y103.712 E12.9648 Z10.23
G0 F2400 X33.017 Y103.728 Z10.2703
G1 F900 X32.6031 Y103.3141 E12.9843 Z10.3421 ; --INTERPOLATED
G1 F900 X32.1891 Y102.9001 E13.0038 Z10.4066 ; --INTERPOLATED
G1 F900 X31.7752 Y102.4862 E13.0232 Z10.4671 ; --INTERPOLATED
G1 F900 X31.3613 Y102.0723 E13.0427 Z10.5236 ; --INTERPOLATED
G1 F900 X30.9474 Y101.6584 E13.0622 Z10.5737 ; --INTERPOLATED
G1 F900 X30.5334 Y101.2444 E13.0816 Z10.6209 ; --INTERPOLATED
G1 F900 X30.1195 Y100.8305 E13.1011 Z10.6606 ; --INTERPOLATED
G1 F900 X29.7056 Y100.4166 E13.1206 Z10.6956 ; --INTERPOLATED
G1 F900 X29.2916 Y100.0026 E13.1401 Z10.7264 ; --INTERPOLATED
G1 F900 X28.8777 Y99.5887 E13.1595 Z10.7487 ; --INTERPOLATED
G1 F900 X28.4638 Y99.1748 E13.179 Z10.7661 ; --INTERPOLATED
G1 F900 X28.0499 Y98.7609 E13.1985 Z10.7786 ; --INTERPOLATED
G1 F900 X27.6359 Y98.3469 E13.2179 Z10.7831 ; --INTERPOLATED
G1 F900 X27.222 Y97.933 E13.2374 Z10.7817 ; --INTERPOLATED
G1 F900 X26.8081 Y97.5191 E13.2569 Z10.7753 ; --INTERPOLATED
G1 F900 X26.3941 Y97.1051 E13.2764 Z10.7618 ; --INTERPOLATED
G1 F900 X25.9802 Y96.6912 E13.2958 Z10.7416 ; --INTERPOLATED
G1 F900 X25.5663 Y96.2773 E13.3153 Z10.7169 ; --INTERPOLATED
G1 F900 X25.1524 Y95.8634 E13.3348 Z10.6858 ; --INTERPOLATED
G1 F900 X24.7384 Y95.4494 E13.3542 Z10.6481 ; --INTERPOLATED
G1 F900 X24.3245 Y95.0355 E13.3737 Z10.6067 ; --INTERPOLATED
G1 F900 X23.9106 Y94.6216 E13.3932 Z10.5585 ; --INTERPOLATED
G1 F900 X23.4966 Y94.2076 E13.4126 Z10.5057 ; --INTERPOLATED
G1 F900 X23.0827 Y93.7937 E13.4321 Z10.4492 ; --INTERPOLATED
G1 F900 X22.6688 Y93.3798 E13.4516 Z10.3862 ; --INTERPOLATED
G1 F900 X22.2549 Y92.9659 E13.4711 Z10.3217 ; --INTERPOLATED
G1 F900 X21.8409 Y92.5519 E13.4905 Z10.2406 ; --INTERPOLATED
G1 F900 X21.427 Y92.138 E13.51 Z10.1465
G0 F2400 X21.041 Y92.392 Z10.0146
G0 X20.855 Y92.003 Z9.9819 ; --INTERPOLATED
G0 X20.669 Y91.614 Z9.9453 ; --INTERPOLATED
G0 X20.483 Y91.225 Z9.9087
G0 X20.91 Y91.055 Z10.0432
G1 F900 X21.3255 Y91.4705 E13.5295 Z10.1495 ; --INTERPOLATED
G1 F900 X21.7409 Y91.8859 E13.5491 Z10.2537 ; --INTERPOLATED
G1 F900 X22.1564 Y92.3014 E13.5686 Z10.3349 ; --INTERPOLATED
G1 F900 X22.5718 Y92.7168 E13.5882 Z10.4074 ; --INTERPOLATED
G1 F900 X22.9873 Y93.1323 E13.6077 Z10.4743 ; --INTERPOLATED
G1 F900 X23.4027 Y93.5477 E13.6272 Z10.5391 ; --INTERPOLATED
G1 F900 X23.8182 Y93.9632 E13.6468 Z10.5963 ; --INTERPOLATED
G1 F900 X24.2336 Y94.3786 E13.6663 Z10.6508 ; --INTERPOLATED
G1 F900 X24.6491 Y94.7941 E13.6859 Z10.6992 ; --INTERPOLATED
G1 F900 X25.0645 Y95.2095 E13.7054 Z10.7418 ; --INTERPOLATED
G1 F900 X25.48 Y95.625 E13.7249 Z10.7803 ; --INTERPOLATED
G1 F900 X25.8954 Y96.0404 E13.7445 Z10.8115 ; --INTERPOLATED
G1 F900 X26.3109 Y96.4559 E13.764 Z10.8366 ; --INTERPOLATED
G1 F900 X26.7263 Y96.8713 E13.7836 Z10.8566 ; --INTERPOLATED
G1 F900 X27.1418 Y97.2868 E13.8031 Z10.8701 ; --INTERPOLATED
G1 F900 X27.5572 Y97.7022 E13.8227 Z10.8758 ; --INTERPOLATED
G1 F900 X27.9727 Y98.1177 E13.8422 Z10.8761 ; --INTERPOLATED
G1 F900 X28.3881 Y98.5331 E13.8617 Z10.8709 ; --INTERPOLATED
G1 F900 X28.8036 Y98.9486 E13.8813 Z10.8574 ; --INTERPOLATED
G1 F900 X29.219 Y99.364 E13.9008 Z10.8379 ; --INTERPOLATED
G1 F900 X29.6345 Y99.7795 E13.9204 Z10.8134 ; --INTERPOLATED
G1 F900 X30.0499 Y100.1949 E13.9399 Z10.7822 ; --INTERPOLATED
G1 F900 X30.4654 Y100.6104 E13.9594 Z10.7442 ; --INTERPOLATED
G1 F900 X30.8808 Y101.0258 E13.979 Z10.7021 ; --INTERPOLATED
G1 F900 X31.2963 Y101.4413 E13.9985 Z10.6537 ; --INTERPOLATED
G1 F900 X31.7117 Y101.8567 E14.0181 Z10.5996 ; --INTERPOLATED
G1 F900 X32.1272 Y102.2722 E14.0376 Z10.5429 ; --INTERPOLATED
G1 F900 X32.5426 Y102.6876 E14.0572 Z10.4782 ; --INTERPOLATED
G1 F900 X32.9581 Y103.1031 E14.0767 Z10.4118 ; --INTERPOLATED
G1 F900 X33.3735 Y103.5185 E14.0962 Z10.3392 ; --INTERPOLATED
G1 F900 X33.789 Y103.934 E14.1158 Z10.2599
G0 F2400 X33.434 Y104.29 Z10.1326
G0 X33.9265 Y104.6163 Z10.0618 ; --INTERPOLATED
G0 X34.419 Y104.9425 Z9.9883 ; --INTERPOLATED
G0 X34.9115 Y105.2688 Z9.9061 ; --INTERPOLATED
G0 X35.404 Y105.595 Z9.822
G0 X35.6 Y105.18 Z9.9524
G1 F900 X35.1859 Y104.7659 E14.1353 Z10.0666 ; --INTERPOLATED
G1 F900 X34.7718 Y104.3517 E14.1547 Z10.1797 ; --INTERPOLATED
G1 F900 X34.3577 Y103.9376 E14.1742 Z10.2854 ; --INTERPOLATED
G1 F900 X33.9436 Y103.5234 E14.1937 Z10.3652 ; --INTERPOLATED
G1 F900 X33.5294 Y103.1093 E14.2132 Z10.4407 ; --INTERPOLATED
G1 F900 X33.1153 Y102.6952 E14.2327 Z10.513 ; --INTERPOLATED
G1 F900 X32.7012 Y102.281 E14.2521 Z10.58 ; --INTERPOLATED
G1 F900 X32.2871 Y101.8669 E14.2716 Z10.6445 ; --INTERPOLATED
G1 F900 X31.873 Y101.4528 E14.2911 Z10.7014 ; --INTERPOLATED
G1 F900 X31.4589 Y101.0386 E14.3106 Z10.7551 ; --INTERPOLATED
G1 F900 X31.0448 Y100.6245 E14.3301 Z10.8034 ; --INTERPOLATED
G1 F900 X30.6307 Y100.2103 E14.3495 Z10.8449 ; --INTERPOLATED
G1 F900 X30.2166 Y99.7962 E14.369 Z10.8819 ; --INTERPOLATED
G1 F900 X29.8024 Y99.3821 E14.3885 Z10.913 ; --INTERPOLATED
G1 F900 X29.3883 Y98.9679 E14.408 Z10.9363 ; --INTERPOLATED
G1 F900 X28.9742 Y98.5538 E14.4274 Z10.9541 ; --INTERPOLATED
G1 F900 X28.5601 Y98.1396 E14.4469 Z10.9662 ; --INTERPOLATED
G1 F900 X28.146 Y97.7255 E14.4664 Z10.9707 ; --INTERPOLATED
G1 F900 X27.7319 Y97.3114 E14.4859 Z10.9681 ; --INTERPOLATED
G1 F900 X27.3178 Y96.8972 E14.5054 Z10.9597 ; --INTERPOLATED
G1 F900 X26.9037 Y96.4831 E14.5248 Z10.9456 ; --INTERPOLATED
G1 F900 X26.4896 Y96.0689 E14.5443 Z10.9233 ; --INTERPOLATED
G1 F900 X26.0754 Y95.6548 E14.5638 Z10.8949 ; --INTERPOLATED
G1 F900 X25.6613 Y95.2407 E14.5833 Z10.8615 ; --INTERPOLATED
G1 F900 X25.2472 Y94.8265 E14.6028 Z10.8217 ; --INTERPOLATED
G1 F900 X24.8331 Y94.4124 E14.6222 Z10.7752 ; --INTERPOLATED
G1 F900 X24.419 Y93.9982 E14.6417 Z10.7249 ; --INTERPOLATED
G1 F900 X24.0049 Y93.5841 E14.6612 Z10.6684 ; --INTERPOLATED
G1 F900 X23.5908 Y93.17 E14.6807 Z10.6068 ; --INTERPOLATED
G1 F900 X23.1767 Y92.7558 E14.7002 Z10.5423 ; --INTERPOLATED
G1 F900 X22.7626 Y92.3417 E14.7196 Z10.4708 ; --INTERPOLATED
G1 F900 X22.3484 Y91.9276 E14.7391 Z10.3984 ; --INTERPOLATED
G1 F900 X21.9343 Y91.5134 E14.7586 Z10.3186 ; --INTERPOLATED
G1 F900 X21.5202 Y91.0993 E14.7781 Z10.2264 ; --INTERPOLATED
G1 F900 X21.1061 Y90.6851 E14.7976 Z10.1136 ; --INTERPOLATED
G1 F900 X20.692 Y90.271 E14.817 Z10.0006
G0 F2400 X20.645 Y89.941 Z9.9921 ; --INTERPOLATED
G0 F2400 X20.598 Y89.611 Z9.9811
G1 F900 X21.0136 Y90.0266 E14.8366 Z10.1034 ; --INTERPOLATED
G1 F900 X21.4291 Y90.4422 E14.8561 Z10.2187 ; --INTERPOLATED
G1 F900 X21.8447 Y90.8577 E14.8757 Z10.3201 ; --INTERPOLATED
G1 F900 X22.2602 Y91.2733 E14.8952 Z10.4029 ; --INTERPOLATED
G1 F900 X22.6758 Y91.6889 E14.9148 Z10.483 ; --INTERPOLATED
G1 F900 X23.0913 Y92.1045 E14.9343 Z10.5583 ; --INTERPOLATED
G1 F900 X23.5069 Y92.5201 E14.9539 Z10.6309 ; --INTERPOLATED
G1 F900 X23.9224 Y92.9356 E14.9734 Z10.697 ; --INTERPOLATED
G1 F900 X24.338 Y93.3512 E14.993 Z10.7605 ; --INTERPOLATED
G1 F900 X24.7535 Y93.7668 E15.0125 Z10.8172 ; --INTERPOLATED
G1 F900 X25.1691 Y94.1824 E15.032 Z10.869 ; --INTERPOLATED
G1 F900 X25.5846 Y94.5979 E15.0516 Z10.9165 ; --INTERPOLATED
G1 F900 X26.0002 Y95.0135 E15.0711 Z10.9564 ; --INTERPOLATED
G1 F900 X26.4157 Y95.4291 E15.0907 Z10.9903 ; --INTERPOLATED
G1 F900 X26.8313 Y95.8447 E15.1102 Z11.0188 ; --INTERPOLATED
G1 F900 X27.2468 Y96.2603 E15.1298 Z11.0412 ; --INTERPOLATED
G1 F900 X27.6624 Y96.6758 E15.1493 Z11.0548 ; --INTERPOLATED
G1 F900 X28.0779 Y97.0914 E15.1689 Z11.0623 ; --INTERPOLATED
G1 F900 X28.4935 Y97.507 E15.1884 Z11.0636 ; --INTERPOLATED
G1 F900 X28.9091 Y97.9226 E15.208 Z11.0585 ; --INTERPOLATED
G1 F900 X29.3246 Y98.3382 E15.2275 Z11.0451 ; --INTERPOLATED
G1 F900 X29.7402 Y98.7537 E15.2471 Z11.0249 ; --INTERPOLATED
G1 F900 X30.1557 Y99.1693 E15.2666 Z10.9989 ; --INTERPOLATED
G1 F900 X30.5713 Y99.5849 E15.2862 Z10.9674 ; --INTERPOLATED
G1 F900 X30.9868 Y100.0005 E15.3057 Z10.9275 ; --INTERPOLATED
G1 F900 X31.4024 Y100.4161 E15.3252 Z10.8823 ; --INTERPOLATED
G1 F900 X31.8179 Y100.8316 E15.3448 Z10.8328 ; --INTERPOLATED
G1 F900 X32.2335 Y101.2472 E15.3643 Z10.7761 ; --INTERPOLATED
G1 F900 X32.649 Y101.6628 E15.3839 Z10.7148 ; --INTERPOLATED
G1 F900 X33.0646 Y102.0784 E15.4034 Z10.65 ; --INTERPOLATED
G1 F900 X33.4801 Y102.4939 E15.423 Z10.5782 ; --INTERPOLATED
G1 F900 X33.8957 Y102.9095 E15.4425 Z10.505 ; --INTERPOLATED
G1 F900 X34.3112 Y103.3251 E15.4621 Z10.4249 ; --INTERPOLATED
G1 F900 X34.7268 Y103.7407 E15.4816 Z10.3441 ; --INTERPOLATED
G1 F900 X35.1423 Y104.1563 E15.5012 Z10.2499 ; --INTERPOLATED
G1 F900 X35.5579 Y104.5718 E15.5207 Z10.1364 ; --INTERPOLATED
G1 F900 X35.9734 Y104.9874 E15.5403 Z10.0147 ; --INTERPOLATED
G1 F900 X36.389 Y105.403 E15.5598 Z9.8925
G0 F2400 X36.934 Y105.382 Z9.8976
G1 F900 X36.5144 Y104.9624 E15.5795 Z10.0277 ; --INTERPOLATED
G1 F900 X36.0949 Y104.5429 E15.5993 Z10.1511 ; --INTERPOLATED
G1 F900 X35.6753 Y104.1233 E15.619 Z10.2746 ; --INTERPOLATED
G1 F900 X35.2557 Y103.7037 E15.6388 Z10.3648 ; --INTERPOLATED
G1 F900 X34.8362 Y103.2842 E15.6585 Z10.4529 ; --INTERPOLATED
G1 F900 X34.4166 Y102.8646 E15.6782 Z10.5352 ; --INTERPOLATED
G1 F900 X33.9971 Y102.4451 E15.698 Z10.6161 ; --INTERPOLATED
G1 F900 X33.5775 Y102.0255 E15.7177 Z10.6901 ; --INTERPOLATED
G1 F900 X33.1579 Y101.6059 E15.7374 Z10.7621 ; --INTERPOLATED
G1 F900 X32.7384 Y101.1864 E15.7572 Z10.8275 ; --INTERPOLATED
G1 F900 X32.3188 Y100.7668 E15.7769 Z10.8883 ; --INTERPOLATED
G1 F900 X31.8992 Y100.3472 E15.7966 Z10.9449 ; --INTERPOLATED
G1 F900 X31.4797 Y99.9277 E15.8164 Z10.9938 ; --INTERPOLATED
G1 F900 X31.0601 Y99.5081 E15.8361 Z11.0371 ; --INTERPOLATED
G1 F900 X30.6405 Y99.0885 E15.8558 Z11.0749 ; --INTERPOLATED
G1 F900 X30.221 Y98.669 E15.8756 Z11.1064 ; --INTERPOLATED
G1 F900 X29.8014 Y98.2494 E15.8953 Z11.1292 ; --INTERPOLATED
G1 F900 X29.3818 Y97.8298 E15.915 Z11.1454 ; --INTERPOLATED
G1 F900 X28.9623 Y97.4103 E15.9348 Z11.1522 ; --INTERPOLATED
G1 F900 X28.5427 Y96.9907 E15.9545 Z11.1542 ; --INTERPOLATED
G1 F900 X28.1232 Y96.5712 E15.9742 Z11.151 ; --INTERPOLATED
G1 F900 X27.7036 Y96.1516 E15.994 Z11.1401 ; --INTERPOLATED
G1 F900 X27.284 Y95.732 E16.0137 Z11.1202 ; --INTERPOLATED
G1 F900 X26.8645 Y95.3125 E16.0335 Z11.0939 ; --INTERPOLATED
G1 F900 X26.4449 Y94.8929 E16.0532 Z11.0614 ; --INTERPOLATED
G1 F900 X26.0253 Y94.4733 E16.0729 Z11.0211 ; --INTERPOLATED
G1 F900 X25.6058 Y94.0538 E16.0927 Z10.9744 ; --INTERPOLATED
G1 F900 X25.1862 Y93.6342 E16.1124 Z10.9228 ; --INTERPOLATED
G1 F900 X24.7666 Y93.2146 E16.1321 Z10.8656 ; --INTERPOLATED
G1 F900 X24.3471 Y92.7951 E16.1519 Z10.8016 ; --INTERPOLATED
G1 F900 X23.9275 Y92.3755 E16.1716 Z10.7344 ; --INTERPOLATED
G1 F900 X23.5079 Y91.9559 E16.1913 Z10.6611 ; --INTERPOLATED
G1 F900 X23.0884 Y91.5364 E16.2111 Z10.584 ; --INTERPOLATED
G1 F900 X22.6688 Y91.1168 E16.2308 Z10.5032 ; --INTERPOLATED
G1 F900 X22.2493 Y90.6973 E16.2505 Z10.4179 ; --INTERPOLATED
G1 F900 X21.8297 Y90.2777 E16.2703 Z10.3299 ; --INTERPOLATED
G1 F900 X21.4101 Y89.8581 E16.29 Z10.2256 ; --INTERPOLATED
G1 F900 X20.9906 Y89.4386 E16.3097 Z10.1022 ; --INTERPOLATED
G1 F900 X20.571 Y89.019 E16.3295 Z9.9772
G0 F2400 X20.603 Y88.485 Z9.9816
G1 F900 X21.0226 Y88.9046 E16.3492 Z10.1134 ; --INTERPOLATED
G1 F900 X21.4422 Y89.3242 E16.369 Z10.2407 ; --INTERPOLATED
G1 F900 X21.8617 Y89.7438 E16.3887 Z10.3447 ; --INTERPOLATED
G1 F900 X22.2813 Y90.1634 E16.4084 Z10.4376 ; --INTERPOLATED
G1 F900 X22.7009 Y90.583 E16.4282 Z10.5257 ; --INTERPOLATED
G1 F900 X23.1205 Y91.0026 E16.4479 Z10.6118 ; --INTERPOLATED
G1 F900 X23.54 Y91.4222 E16.4676 Z10.6926 ; --INTERPOLATED
G1 F900 X23.9596 Y91.8418 E16.4874 Z10.77 ; --INTERPOLATED
G1 F900 X24.3792 Y92.2614 E16.5071 Z10.8433 ; --INTERPOLATED
G1 F900 X24.7988 Y92.681 E16.5268 Z10.9104 ; --INTERPOLATED
G1 F900 X25.2183 Y93.1006 E16.5466 Z10.9738 ; --INTERPOLATED
G1 F900 X25.6379 Y93.5202 E16.5663 Z11.0311 ; --INTERPOLATED
G1 F900 X26.0575 Y93.9398 E16.586 Z11.0817 ; --INTERPOLATED
G1 F900 X26.477 Y94.3594 E16.6058 Z11.1269 ; --INTERPOLATED
G1 F900 X26.8966 Y94.779 E16.6255 Z11.1601 ; --INTERPOLATED
G1 F900 X27.3162 Y95.1986 E16.6453 Z11.1824 ; --INTERPOLATED
G1 F900 X27.7358 Y95.6182 E16.665 Z11.1994 ; --INTERPOLATED
G1 F900 X28.1554 Y96.0378 E16.6847 Z11.2114 ; --INTERPOLATED
G1 F900 X28.5749 Y96.4574 E16.7045 Z11.2184 ; --INTERPOLATED
G1 F900 X28.9945 Y96.877 E16.7242 Z11.2203 ; --INTERPOLATED
G1 F900 X29.4141 Y97.2966 E16.7439 Z11.2171 ; --INTERPOLATED
G1 F900 X29.8337 Y97.7162 E16.7637 Z11.2075 ; --INTERPOLATED
G1 F900 X30.2532 Y98.1358 E16.7834 Z11.1928 ; --INTERPOLATED
G1 F900 X30.6728 Y98.5554 E16.8031 Z11.1732 ; --INTERPOLATED
G1 F900 X31.0924 Y98.975 E16.8229 Z11.1491 ; --INTERPOLATED
G1 F900 X31.512 Y99.3946 E16.8426 Z11.1103 ; --INTERPOLATED
G1 F900 X31.9315 Y99.8142 E16.8624 Z11.0616 ; --INTERPOLATED
G1 F900 X32.3511 Y100.2338 E16.8821 Z11.0076 ; --INTERPOLATED
G1 F900 X32.7707 Y100.6534 E16.9018 Z10.949 ; --INTERPOLATED
G1 F900 X33.1903 Y101.073 E16.9216 Z10.8835 ; --INTERPOLATED
G1 F900 X33.6098 Y101.4926 E16.9413 Z10.8132 ; --INTERPOLATED
G1 F900 X34.0294 Y101.9122 E16.961 Z10.7399 ; --INTERPOLATED
G1 F900 X34.449 Y102.3318 E16.9808 Z10.6594 ; --INTERPOLATED
G1 F900 X34.8686 Y102.7514 E17.0005 Z10.5776 ; --INTERPOLATED
G1 F900 X35.2881 Y103.171 E17.0202 Z10.4895 ; --INTERPOLATED
G1 F900 X35.7077 Y103.5906 E17.04 Z10.4006 ; --INTERPOLATED
G1 F900 X36.1273 Y104.0102 E17.0597 Z10.3057 ; --INTERPOLATED
G1 F900 X36.5469 Y104.4298 E17.0794 Z10.19 ; --INTERPOLATED
G1 F900 X36.9664 Y104.8494 E17.0992 Z10.0593 ; --INTERPOLATED
G1 F900 X37.386 Y105.269 E17.1189 Z9.9275
G0 F2400 X37.771 Y105.088 Z9.9763
G1 F900 X37.3541 Y104.6711 E17.1385 Z10.1096 ; --INTERPOLATED
G1 F900 X36.9373 Y104.2543 E17.1581 Z10.2406 ; --INTERPOLATED
G1 F900 X36.5204 Y103.8374 E17.1777 Z10.3491 ; --INTERPOLATED
G1 F900 X36.1036 Y103.4206 E17.1974 Z10.4434 ; --INTERPOLATED
G1 F900 X35.6867 Y103.0037 E17.217 Z10.5376 ; --INTERPOLATED
G1 F900 X35.2699 Y102.5869 E17.2366 Z10.6251 ; --INTERPOLATED
G1 F900 X34.853 Y102.17 E17.2562 Z10.7121 ; --INTERPOLATED
G1 F900 X34.4362 Y101.7532 E17.2758 Z10.7924 ; --INTERPOLATED
G1 F900 X34.0193 Y101.3363 E17.2954 Z10.8706 ; --INTERPOLATED
G1 F900 X33.6025 Y100.9195 E17.315 Z10.9434 ; --INTERPOLATED
G1 F900 X33.1856 Y100.5026 E17.3346 Z11.0109 ; --INTERPOLATED
G1 F900 X32.7688 Y100.0858 E17.3542 Z11.0744 ; --INTERPOLATED
G1 F900 X32.3519 Y99.6689 E17.3738 Z11.1313 ; --INTERPOLATED
G1 F900 X31.935 Y99.252 E17.3934 Z11.1711 ; --INTERPOLATED
G1 F900 X31.5182 Y98.8352 E17.413 Z11.2028 ; --INTERPOLATED
G1 F900 X31.1013 Y98.4183 E17.4326 Z11.23 ; --INTERPOLATED
G1 F900 X30.6845 Y98.0015 E17.4522 Z11.2522 ; --INTERPOLATED
G1 F900 X30.2676 Y97.5846 E17.4719 Z11.2684 ; --INTERPOLATED
G1 F900 X29.8508 Y97.1678 E17.4915 Z11.2795 ; --INTERPOLATED
G1 F900 X29.4339 Y96.7509 E17.5111 Z11.2853 ; --INTERPOLATED
G1 F900 X29.0171 Y96.3341 E17.5307 Z11.2858 ; --INTERPOLATED
G1 F900 X28.6002 Y95.9172 E17.5503 Z11.281 ; --INTERPOLATED
G1 F900 X28.1834 Y95.5004 E17.5699 Z11.271 ; --INTERPOLATED
G1 F900 X27.7665 Y95.0835 E17.5895 Z11.2551 ; --INTERPOLATED
G1 F900 X27.3497 Y94.6667 E17.6091 Z11.2336 ; --INTERPOLATED
G1 F900 X26.9328 Y94.2498 E17.6287 Z11.2074 ; --INTERPOLATED
G1 F900 X26.516 Y93.833 E17.6483 Z11.1767 ; --INTERPOLATED
G1 F900 X26.0991 Y93.4161 E17.6679 Z11.1406 ; --INTERPOLATED
G1 F900 X25.6822 Y92.9992 E17.6875 Z11.0837 ; --INTERPOLATED
G1 F900 X25.2654 Y92.5824 E17.7071 Z11.0215 ; --INTERPOLATED
G1 F900 X24.8485 Y92.1655 E17.7268 Z10.9553 ; --INTERPOLATED
G1 F900 X24.4317 Y91.7487 E17.7464 Z10.8825 ; --INTERPOLATED
G1 F900 X24.0148 Y91.3318 E17.766 Z10.8056 ; --INTERPOLATED
G1 F900 X23.598 Y90.915 E17.7856 Z10.7253 ; --INTERPOLATED
G1 F900 X23.1811 Y90.4981 E17.8052 Z10.6394 ; --INTERPOLATED
G1 F900 X22.7643 Y90.0813 E17.8248 Z10.5519 ; --INTERPOLATED
G1 F900 X22.3474 Y89.6644 E17.8444 Z10.4588 ; --INTERPOLATED
G1 F900 X21.9306 Y89.2476 E17.864 Z10.3646 ; --INTERPOLATED
G1 F900 X21.5137 Y88.8307 E17.8836 Z10.262 ; --INTERPOLATED
G1 F900 X21.0969 Y88.4139 E17.9032 Z10.1311 ; --INTERPOLATED
G1 F900 X20.68 Y87.997 E17.9228 Z9.999
G0 F2400 X20.788 Y87.539 Z10.018
G1 F900 X21.2102 Y87.9612 E17.9427 Z10.1585 ; --INTERPOLATED
G1 F900 X21.6325 Y88.3835 E17.9626 Z10.2905 ; --INTERPOLATED
G1 F900 X22.0547 Y88.8057 E17.9824 Z10.3925 ; --INTERPOLATED
G1 F900 X22.477 Y89.228 E18.0023 Z10.4924 ; --INTERPOLATED
G1 F900 X22.8992 Y89.6502 E18.0221 Z10.5879 ; --INTERPOLATED
G1 F900 X23.3215 Y90.0725 E18.042 Z10.6818 ; --INTERPOLATED
G1 F900 X23.7437 Y90.4947 E18.0619 Z10.7704 ; --INTERPOLATED
G1 F900 X24.166 Y90.917 E18.0817 Z10.8563 ; --INTERPOLATED
G1 F900 X24.5882 Y91.3392 E18.1016 Z10.9376 ; --INTERPOLATED
G1 F900 X25.0104 Y91.7614 E18.1214 Z11.0136 ; --INTERPOLATED
G1 F900 X25.4327 Y92.1837 E18.1413 Z11.086 ; --INTERPOLATED
G1 F900 X25.8549 Y92.6059 E18.1612 Z11.15 ; --INTERPOLATED
G1 F900 X26.2772 Y93.0282 E18.181 Z11.1923 ; --INTERPOLATED
G1 F900 X26.6994 Y93.4504 E18.2009 Z11.2306 ; --INTERPOLATED
G1 F900 X27.1217 Y93.8727 E18.2207 Z11.2644 ; --INTERPOLATED
G1 F900 X27.5439 Y94.2949 E18.2406 Z11.2931 ; --INTERPOLATED
G1 F900 X27.9661 Y94.7171 E18.2605 Z11.3159 ; --INTERPOLATED
G1 F900 X28.3884 Y95.1394 E18.2803 Z11.3334 ; --INTERPOLATED
G1 F900 X28.8106 Y95.5616 E18.3002 Z11.3453 ; --INTERPOLATED
G1 F900 X29.2329 Y95.9839 E18.32 Z11.3516 ; --INTERPOLATED
G1 F900 X29.6551 Y96.4061 E18.3399 Z11.352 ; --INTERPOLATED
G1 F900 X30.0774 Y96.8284 E18.3598 Z11.3467 ; --INTERPOLATED
G1 F900 X30.4996 Y97.2506 E18.3796 Z11.3357 ; --INTERPOLATED
G1 F900 X30.9219 Y97.6729 E18.3995 Z11.3191 ; --INTERPOLATED
G1 F900 X31.3441 Y98.0951 E18.4194 Z11.2967 ; --INTERPOLATED
G1 F900 X31.7663 Y98.5173 E18.4392 Z11.2686 ; --INTERPOLATED
G1 F900 X32.1886 Y98.9396 E18.4591 Z11.2356 ; --INTERPOLATED
G1 F900 X32.6108 Y99.3618 E18.4789 Z11.1981 ; --INTERPOLATED
G1 F900 X33.0331 Y99.7841 E18.4988 Z11.1567 ; --INTERPOLATED
G1 F900 X33.4553 Y100.2063 E18.5187 Z11.0955 ; --INTERPOLATED
G1 F900 X33.8776 Y100.6286 E18.5385 Z11.0243 ; --INTERPOLATED
G1 F900 X34.2998 Y101.0508 E18.5584 Z10.9493 ; --INTERPOLATED
G1 F900 X34.722 Y101.473 E18.5782 Z10.868 ; --INTERPOLATED
G1 F900 X35.1443 Y101.8953 E18.5981 Z10.7832 ; --INTERPOLATED
G1 F900 X35.5665 Y102.3175 E18.618 Z10.6946 ; --INTERPOLATED
G1 F900 X35.9888 Y102.7398 E18.6378 Z10.6016 ; --INTERPOLATED
G1 F900 X36.411 Y103.162 E18.6577 Z10.5062 ; --INTERPOLATED
G1 F900 X36.8333 Y103.5843 E18.6775 Z10.4071 ; --INTERPOLATED
G1 F900 X37.2555 Y104.0065 E18.6974 Z10.3052 ; --INTERPOLATED
G1 F900 X37.6778 Y104.4288 E18.7173 Z10.1787 ; --INTERPOLATED
G1 F900 X38.1 Y104.851 E18.7371 Z10.0382
G0 F2400 X38.398 Y104.583 Z10.1105
G1 F900 X37.9819 Y104.167 E18.7567 Z10.2489 ; --INTERPOLATED
G1 F900 X37.5659 Y103.7509 E18.7763 Z10.3625 ; --INTERPOLATED
G1 F900 X37.1498 Y103.3349 E18.7958 Z10.463 ; --INTERPOLATED
G1 F900 X36.7337 Y102.9188 E18.8154 Z10.5635 ; --INTERPOLATED
G1 F900 X36.3176 Y102.5028 E18.835 Z10.6596 ; --INTERPOLATED
G1 F900 X35.9016 Y102.0867 E18.8546 Z10.7536 ; --INTERPOLATED
G1 F900 X35.4855 Y101.6707 E18.8741 Z10.8433 ; --INTERPOLATED
G1 F900 X35.0694 Y101.2546 E18.8937 Z10.9306 ; --INTERPOLATED
G1 F900 X34.6534 Y100.8386 E18.9133 Z11.0118 ; --INTERPOLATED
G1 F900 X34.2373 Y100.4225 E18.9328 Z11.0903 ; --INTERPOLATED
G1 F900 X33.8212 Y100.0065 E18.9524 Z11.1578 ; --INTERPOLATED
G1 F900 X33.4051 Y99.5904 E18.972 Z11.2053 ; --INTERPOLATED
G1 F900 X32.9891 Y99.1744 E18.9915 Z11.2492 ; --INTERPOLATED
G1 F900 X32.573 Y98.7583 E19.0111 Z11.2892 ; --INTERPOLATED
G1 F900 X32.1569 Y98.3423 E19.0307 Z11.3235 ; --INTERPOLATED
G1 F900 X31.7409 Y97.9262 E19.0503 Z11.3529 ; --INTERPOLATED
G1 F900 X31.3248 Y97.5102 E19.0698 Z11.3773 ; --INTERPOLATED
G1 F900 X30.9087 Y97.0941 E19.0894 Z11.3962 ; --INTERPOLATED
G1 F900 X30.4926 Y96.6781 E19.109 Z11.4096 ; --INTERPOLATED
G1 F900 X30.0766 Y96.262 E19.1285 Z11.4172 ; --INTERPOLATED
G1 F900 X29.6605 Y95.846 E19.1481 Z11.4189 ; --INTERPOLATED
G1 F900 X29.2444 Y95.43 E19.1677 Z11.4147 ; --INTERPOLATED
G1 F900 X28.8284 Y95.0139 E19.1872 Z11.4047 ; --INTERPOLATED
G1 F900 X28.4123 Y94.5979 E19.2068 Z11.3888 ; --INTERPOLATED
G1 F900 X27.9962 Y94.1818 E19.2264 Z11.367 ; --INTERPOLATED
G1 F900 X27.5801 Y93.7658 E19.246 Z11.3397 ; --INTERPOLATED
G1 F900 X27.1641 Y93.3497 E19.2655 Z11.3075 ; --INTERPOLATED
G1 F900 X26.748 Y92.9337 E19.2851 Z11.2707 ; --INTERPOLATED
G1 F900 X26.3319 Y92.5176 E19.3047 Z11.2298 ; --INTERPOLATED
G1 F900 X25.9159 Y92.1016 E19.3242 Z11.1839 ; --INTERPOLATED
G1 F900 X25.4998 Y91.6855 E19.3438 Z11.1291 ; --INTERPOLATED
G1 F900 X25.0837 Y91.2695 E19.3634 Z11.0547 ; --INTERPOLATED
G1 F900 X24.6676 Y90.8534 E19.3829 Z10.9745 ; --INTERPOLATED
G1 F900 X24.2516 Y90.4374 E19.4025 Z10.89 ; --INTERPOLATED
G1 F900 X23.8355 Y90.0213 E19.4221 Z10.8026 ; --INTERPOLATED
G1 F900 X23.4194 Y89.6053 E19.4417 Z10.7099 ; --INTERPOLATED
G1 F900 X23.0034 Y89.1892 E19.4612 Z10.6158 ; --INTERPOLATED
G1 F900 X22.5873 Y88.7732 E19.4808 Z10.5167 ; --INTERPOLATED
G1 F900 X22.1712 Y88.3571 E19.5004 Z10.4163 ; --INTERPOLATED
G1 F900 X21.7551 Y87.9411 E19.5199 Z10.313 ; --INTERPOLATED
G1 F900 X21.3391 Y87.525 E19.5395 Z10.1845 ; --INTERPOLATED
G1 F900 X20.923 Y87.109 E19.5591 Z10.0461
G0 F2400 X21.085 Y86.705 Z10.0761
G1 F900 X21.5045 Y87.1244 E19.5788 Z10.2226 ; --INTERPOLATED
G1 F900 X21.9239 Y87.5439 E19.5985 Z10.3432 ; --INTERPOLATED
G1 F900 X22.3434 Y87.9633 E19.6183 Z10.4504 ; --INTERPOLATED
G1 F900 X22.7628 Y88.3827 E19.638 Z10.5548 ; --INTERPOLATED
G1 F900 X23.1823 Y88.8021 E19.6577 Z10.656 ; --INTERPOLATED
G1 F900 X23.6017 Y89.2216 E19.6775 Z10.7554 ; --INTERPOLATED
G1 F900 X24.0212 Y89.641 E19.6972 Z10.8503 ; --INTERPOLATED
G1 F900 X24.4406 Y90.0604 E19.7169 Z10.9426 ; --INTERPOLATED
G1 F900 X24.8601 Y90.4799 E19.7366 Z11.0306 ; --INTERPOLATED
G1 F900 X25.2795 Y90.8993 E19.7564 Z11.1139 ; --INTERPOLATED
G1 F900 X25.699 Y91.3187 E19.7761 Z11.1798 ; --INTERPOLATED
G1 F900 X26.1184 Y91.7381 E19.7958 Z11.2317 ; --INTERPOLATED
G1 F900 X26.5379 Y92.1576 E19.8156 Z11.2798 ; --INTERPOLATED
G1 F900 X26.9573 Y92.577 E19.8353 Z11.324 ; --INTERPOLATED
G1 F900 X27.3768 Y92.9964 E19.855 Z11.3638 ; --INTERPOLATED
G1 F900 X27.7962 Y93.4159 E19.8747 Z11.3984 ; --INTERPOLATED
G1 F900 X28.2157 Y93.8353 E19.8945 Z11.4271 ; --INTERPOLATED
G1 F900 X28.6351 Y94.2547 E19.9142 Z11.4504 ; --INTERPOLATED
G1 F900 X29.0546 Y94.6741 E19.9339 Z11.4679 ; --INTERPOLATED
G1 F900 X29.474 Y95.0936 E19.9537 Z11.4794 ; --INTERPOLATED
G1 F900 X29.8935 Y95.513 E19.9734 Z11.4847 ; --INTERPOLATED
G1 F900 X30.313 Y95.9324 E19.9931 Z11.4838 ; --INTERPOLATED
G1 F900 X30.7324 Y96.3519 E20.0129 Z11.4765 ; --INTERPOLATED
G1 F900 X31.1519 Y96.7713 E20.0326 Z11.4631 ; --INTERPOLATED
G1 F900 X31.5713 Y97.1907 E20.0523 Z11.4437 ; --INTERPOLATED
G1 F900 X31.9908 Y97.6101 E20.072 Z11.4186 ; --INTERPOLATED
G1 F900 X32.4102 Y98.0296 E20.0918 Z11.388 ; --INTERPOLATED
G1 F900 X32.8297 Y98.449 E20.1115 Z11.3524 ; --INTERPOLATED
G1 F900 X33.2491 Y98.8684 E20.1312 Z11.3118 ; --INTERPOLATED
G1 F900 X33.6686 Y99.2879 E20.151 Z11.2659 ; --INTERPOLATED
G1 F900 X34.088 Y99.7073 E20.1707 Z11.2161 ; --INTERPOLATED
G1 F900 X34.5075 Y100.1267 E20.1904 Z11.1632 ; --INTERPOLATED
G1 F900 X34.9269 Y100.5461 E20.2101 Z11.0897 ; --INTERPOLATED
G1 F900 X35.3464 Y100.9656 E20.2299 Z11.0042 ; --INTERPOLATED
G1 F900 X35.7658 Y101.385 E20.2496 Z10.9162 ; --INTERPOLATED
G1 F900 X36.1853 Y101.8044 E20.2693 Z10.8218 ; --INTERPOLATED
G1 F900 X36.6047 Y102.2239 E20.2891 Z10.7269 ; --INTERPOLATED
G1 F900 X37.0242 Y102.6433 E20.3088 Z10.6256 ; --INTERPOLATED
G1 F900 X37.4436 Y103.0627 E20.3285 Z10.5244 ; --INTERPOLATED
G1 F900 X37.8631 Y103.4821 E20.3483 Z10.4182 ; --INTERPOLATED
G1 F900 X38.2825 Y103.9016 E20.368 Z10.311 ; --INTERPOLATED
G1 F900 X38.702 Y104.321 E20.3877 Z10.1788
G0 F2400 X39.043 Y104.097 Z10.2292
G1 F900 X38.62 Y103.674 E20.4076 Z10.3547 ; --INTERPOLATED
G1 F900 X38.1971 Y103.2511 E20.4275 Z10.4644 ; --INTERPOLATED
G1 F900 X37.7741 Y102.8281 E20.4474 Z10.5725 ; --INTERPOLATED
G1 F900 X37.3512 Y102.4052 E20.4673 Z10.6788 ; --INTERPOLATED
G1 F900 X36.9282 Y101.9822 E20.4872 Z10.7809 ; --INTERPOLATED
G1 F900 X36.5053 Y101.5593 E20.5071 Z10.8816 ; --INTERPOLATED
G1 F900 X36.0823 Y101.1363 E20.527 Z10.9772 ; --INTERPOLATED
G1 F900 X35.6594 Y100.7134 E20.5469 Z11.0701 ; --INTERPOLATED
G1 F900 X35.2364 Y100.2904 E20.5668 Z11.1549 ; --INTERPOLATED
G1 F900 X34.8135 Y99.8675 E20.5867 Z11.2138 ; --INTERPOLATED
G1 F900 X34.3905 Y99.4445 E20.6065 Z11.2699 ; --INTERPOLATED
G1 F900 X33.9676 Y99.0216 E20.6264 Z11.3222 ; --INTERPOLATED
G1 F900 X33.5446 Y98.5986 E20.6463 Z11.3692 ; --INTERPOLATED
G1 F900 X33.1217 Y98.1757 E20.6662 Z11.4118 ; --INTERPOLATED
G1 F900 X32.6987 Y97.7527 E20.6861 Z11.4495 ; --INTERPOLATED
G1 F900 X32.2758 Y97.3298 E20.706 Z11.4818 ; --INTERPOLATED
G1 F900 X31.8528 Y96.9068 E20.7259 Z11.5083 ; --INTERPOLATED
G1 F900 X31.4299 Y96.4839 E20.7458 Z11.5287 ; --INTERPOLATED
G1 F900 X31.0069 Y96.0609 E20.7657 Z11.5426 ; --INTERPOLATED
G1 F900 X30.584 Y95.638 E20.7856 Z11.55 ; --INTERPOLATED
G1 F900 X30.161 Y95.215 E20.8055 Z11.5508 ; --INTERPOLATED
G1 F900 X29.738 Y94.792 E20.8254 Z11.5449 ; --INTERPOLATED
G1 F900 X29.3151 Y94.3691 E20.8453 Z11.5324 ; --INTERPOLATED
G1 F900 X28.8921 Y93.9461 E20.8652 Z11.5136 ; --INTERPOLATED
G1 F900 X28.4692 Y93.5232 E20.8851 Z11.4885 ; --INTERPOLATED
G1 F900 X28.0462 Y93.1002 E20.905 Z11.4577 ; --INTERPOLATED
G1 F900 X27.6233 Y92.6773 E20.9249 Z11.4214 ; --INTERPOLATED
G1 F900 X27.2003 Y92.2543 E20.9448 Z11.3801 ; --INTERPOLATED
G1 F900 X26.7774 Y91.8314 E20.9646 Z11.3334 ; --INTERPOLATED
G1 F900 X26.3544 Y91.4084 E20.9845 Z11.2821 ; --INTERPOLATED
G1 F900 X25.9315 Y90.9855 E21.0044 Z11.2273 ; --INTERPOLATED
G1 F900 X25.5085 Y90.5625 E21.0243 Z11.1696 ; --INTERPOLATED
G1 F900 X25.0856 Y90.1396 E21.0442 Z11.0909 ; --INTERPOLATED
G1 F900 X24.6626 Y89.7166 E21.0641 Z10.9996 ; --INTERPOLATED
G1 F900 X24.2397 Y89.2937 E21.084 Z10.904 ; --INTERPOLATED
G1 F900 X23.8167 Y88.8707 E21.1039 Z10.8049 ; --INTERPOLATED
G1 F900 X23.3938 Y88.4478 E21.1238 Z10.7027 ; --INTERPOLATED
G1 F900 X22.9708 Y88.0248 E21.1437 Z10.5979 ; --INTERPOLATED
G1 F900 X22.5479 Y87.6019 E21.1636 Z10.4897 ; --INTERPOLATED
G1 F900 X22.1249 Y87.1789 E21.1835 Z10.3813 ; --INTERPOLATED
G1 F900 X21.702 Y86.756 E21.2034 Z10.2639 ; --INTERPOLATED
G1 F900 X21.279 Y86.333 E21.2233 Z10.116
G0 F2400 X21.486 Y85.974 Z10.158
G1 F900 X21.9033 Y86.3913 E21.2429 Z10.3002 ; --INTERPOLATED
G1 F900 X22.3207 Y86.8087 E21.2625 Z10.4124 ; --INTERPOLATED
G1 F900 X22.738 Y87.226 E21.2822 Z10.5246 ; --INTERPOLATED
G1 F900 X23.1553 Y87.6433 E21.3018 Z10.6321 ; --INTERPOLATED
G1 F900 X23.5726 Y88.0606 E21.3214 Z10.7388 ; --INTERPOLATED
G1 F900 X23.99 Y88.478 E21.341 Z10.8423 ; --INTERPOLATED
G1 F900 X24.4073 Y88.8953 E21.3607 Z10.9431 ; --INTERPOLATED
G1 F900 X24.8246 Y89.3126 E21.3803 Z11.0406 ; --INTERPOLATED
G1 F900 X25.2419 Y89.7299 E21.3999 Z11.1349 ; --INTERPOLATED
G1 F900 X25.6593 Y90.1473 E21.4196 Z11.2012 ; --INTERPOLATED
G1 F900 X26.0766 Y90.5646 E21.4392 Z11.2624 ; --INTERPOLATED
G1 F900 X26.4939 Y90.9819 E21.4588 Z11.3193 ; --INTERPOLATED
G1 F900 X26.9112 Y91.3992 E21.4785 Z11.3723 ; --INTERPOLATED
G1 F900 X27.3286 Y91.8166 E21.4981 Z11.4215 ; --INTERPOLATED
G1 F900 X27.7459 Y92.2339 E21.5177 Z11.4662 ; --INTERPOLATED
G1 F900 X28.1632 Y92.6512 E21.5373 Z11.506 ; --INTERPOLATED
G1 F900 X28.5805 Y93.0685 E21.557 Z11.5403 ; --INTERPOLATED
G1 F900 X28.9979 Y93.4859 E21.5766 Z11.5687 ; --INTERPOLATED
G1 F900 X29.4152 Y93.9032 E21.5962 Z11.5909 ; --INTERPOLATED
G1 F900 X29.8325 Y94.3205 E21.6159 Z11.6065 ; --INTERPOLATED
G1 F900 X30.2498 Y94.7378 E21.6355 Z11.6156 ; --INTERPOLATED
G1 F900 X30.6672 Y95.1552 E21.6551 Z11.6178 ; --INTERPOLATED
G1 F900 X31.0845 Y95.5725 E21.6748 Z11.6133 ; --INTERPOLATED
G1 F900 X31.5018 Y95.9898 E21.6944 Z11.6021 ; --INTERPOLATED
G1 F900 X31.9191 Y96.4071 E21.714 Z11.5844 ; --INTERPOLATED
G1 F900 X32.3365 Y96.8245 E21.7336 Z11.5603 ; --INTERPOLATED
G1 F900 X32.7538 Y97.2418 E21.7533 Z11.5303 ; --INTERPOLATED
G1 F900 X33.1711 Y97.6591 E21.7729 Z11.4947 ; --INTERPOLATED
G1 F900 X33.5884 Y98.0764 E21.7925 Z11.454 ; --INTERPOLATED
G1 F900 X34.0058 Y98.4938 E21.8122 Z11.4079 ; --INTERPOLATED
G1 F900 X34.4231 Y98.9111 E21.8318 Z11.3571 ; --INTERPOLATED
G1 F900 X34.8404 Y99.3284 E21.8514 Z11.3026 ; --INTERPOLATED
G1 F900 X35.2577 Y99.7457 E21.8711 Z11.245 ; --INTERPOLATED
G1 F900 X35.6751 Y100.1631 E21.8907 Z11.183 ; --INTERPOLATED
G1 F900 X36.0924 Y100.5804 E21.9103 Z11.1072 ; --INTERPOLATED
G1 F900 X36.5097 Y100.9977 E21.9299 Z11.0129 ; --INTERPOLATED
G1 F900 X36.927 Y101.415 E21.9496 Z10.9135 ; --INTERPOLATED
G1 F900 X37.3444 Y101.8324 E21.9692 Z10.8128 ; --INTERPOLATED
G1 F900 X37.7617 Y102.2497 E21.9888 Z10.7074 ; --INTERPOLATED
G1 F900 X38.179 Y102.667 E22.0085 Z10.6007 ; --INTERPOLATED
G1 F900 X38.5963 Y103.0843 E22.0281 Z10.4917 ; --INTERPOLATED
G1 F900 X39.0137 Y103.5017 E22.0477 Z10.3795 ; --INTERPOLATED
G1 F900 X39.431 Y103.919 E22.0674 Z10.2634
G0 F2400 X39.862 Y103.784 Z10.2759
G1 F900 X39.4399 Y103.3619 E22.0872 Z10.3954 ; --INTERPOLATED
G1 F900 X39.0178 Y102.9398 E22.1071 Z10.509 ; --INTERPOLATED
G1 F900 X38.5957 Y102.5177 E22.1269 Z10.6225 ; --INTERPOLATED
G1 F900 X38.1735 Y102.0955 E22.1468 Z10.7339 ; --INTERPOLATED
G1 F900 X37.7514 Y101.6734 E22.1666 Z10.8418 ; --INTERPOLATED
G1 F900 X37.3293 Y101.2513 E22.1865 Z10.9487 ; --INTERPOLATED
G1 F900 X36.9072 Y100.8292 E22.2063 Z11.0506 ; --INTERPOLATED
G1 F900 X36.4851 Y100.4071 E22.2262 Z11.1492 ; --INTERPOLATED
G1 F900 X36.063 Y99.985 E22.246 Z11.2168 ; --INTERPOLATED
G1 F900 X35.6408 Y99.5628 E22.2659 Z11.2814 ; --INTERPOLATED
G1 F900 X35.2187 Y99.1407 E22.2858 Z11.3435 ; --INTERPOLATED
G1 F900 X34.7966 Y98.7186 E22.3056 Z11.4011 ; --INTERPOLATED
G1 F900 X34.3745 Y98.2965 E22.3255 Z11.4544 ; --INTERPOLATED
G1 F900 X33.9524 Y97.8744 E22.3453 Z11.5035 ; --INTERPOLATED
G1 F900 X33.5303 Y97.4523 E22.3652 Z11.5477 ; --INTERPOLATED
G1 F900 X33.1081 Y97.0301 E22.385 Z11.5865 ; --INTERPOLATED
G1 F900 X32.686 Y96.608 E22.4049 Z11.6192 ; --INTERPOLATED
G1 F900 X32.2639 Y96.1859 E22.4247 Z11.6456 ; --INTERPOLATED
G1 F900 X31.8418 Y95.7638 E22.4446 Z11.6653 ; --INTERPOLATED
G1 F900 X31.4197 Y95.3417 E22.4645 Z11.6781 ; --INTERPOLATED
G1 F900 X30.9976 Y94.9196 E22.4843 Z11.6837 ; --INTERPOLATED
G1 F900 X30.5754 Y94.4974 E22.5042 Z11.6821 ; --INTERPOLATED
G1 F900 X30.1533 Y94.0753 E22.524 Z11.6734 ; --INTERPOLATED
G1 F900 X29.7312 Y93.6532 E22.5439 Z11.6572 ; --INTERPOLATED
G1 F900 X29.3091 Y93.2311 E22.5637 Z11.634 ; --INTERPOLATED
G1 F900 X28.887 Y92.809 E22.5836 Z11.6044 ; --INTERPOLATED
G1 F900 X28.4649 Y92.3869 E22.6034 Z11.5687 ; --INTERPOLATED
G1 F900 X28.0427 Y91.9647 E22.6233 Z11.5275 ; --INTERPOLATED
G1 F900 X27.6206 Y91.5426 E22.6431 Z11.4809 ; --INTERPOLATED
G1 F900 X27.1985 Y91.1205 E22.663 Z11.4291 ; --INTERPOLATED
G1 F900 X26.7764 Y90.6984 E22.6829 Z11.3731 ; --INTERPOLATED
G1 F900 X26.3543 Y90.2763 E22.7027 Z11.3137 ; --INTERPOLATED
G1 F900 X25.9322 Y89.8542 E22.7226 Z11.251 ; --INTERPOLATED
G1 F900 X25.51 Y89.432 E22.7424 Z11.184 ; --INTERPOLATED
G1 F900 X25.0879 Y89.0099 E22.7623 Z11.1031 ; --INTERPOLATED
G1 F900 X24.6658 Y88.5878 E22.7821 Z11.0012 ; --INTERPOLATED
G1 F900 X24.2437 Y88.1657 E22.802 Z10.8974 ; --INTERPOLATED
G1 F900 X23.8216 Y87.7436 E22.8218 Z10.7894 ; --INTERPOLATED
G1 F900 X23.3995 Y87.3215 E22.8417 Z10.6809 ; --INTERPOLATED
G1 F900 X22.9773 Y86.8993 E22.8616 Z10.5674 ; --INTERPOLATED
G1 F900 X22.5552 Y86.4772 E22.8814 Z10.4539 ; --INTERPOLATED
G1 F900 X22.1331 Y86.0551 E22.9013 Z10.3379 ; --INTERPOLATED
G1 F900 X21.711 Y85.633 E22.9211 Z10.2011
G0 F2400 X21.935 Y85.291 Z10.2438
G1 F900 X22.3536 Y85.7096 E22.9408 Z10.3698 ; --INTERPOLATED
G1 F900 X22.7722 Y86.1283 E22.9605 Z10.4874 ; --INTERPOLATED
G1 F900 X23.1908 Y86.5469 E22.9802 Z10.6032 ; --INTERPOLATED
