; FLAVOR:Marlin
; TIME:495
; Filament used: 0.493083m
; Layer height: 0.2
; MINX:19.646
; MINY:165.328
; MINZ:0.2
; MAXX:53.688
; MAXY:201.338
; MAXZ:2
; TARGET_MACHINE.NAME:Creality Ender-3 V3 SE
; Generated with Cura_SteamEngine 5.6.0
M104 S228
M105
M109 S228
M82  ; absolute extrusion mode
M220 S100 ; Reset Feedrate
M221 S100 ; Reset Flowrate
G28  ; Home
M420 S1 ; Enable mesh leveling
G92 E0.0 ; Reset Extruder
G1 Z2.0 F3000 ; Move Z Axis up
G1 X10.1 Y20.0 Z21.7548828125 F5000.0 ; Move to start position
M109 S
G1 X10.1 Y145.0 Z27.192649841308594 F1500.0 E15.0 ; Draw the first line
G1 X10.4 Y145.0 Z27.297775268554688 F5000.0 ; Move to side a little
G1 X10.4 Y20.0 Z21.7548828125 F1500.0 E30.0 ; Draw the second line
G92 E0.0 ; Reset Extruder
G1 E-1.0 F1800 ; Retract a bit
G1 Z2.0 F3000 ; Move Z Axis up
G1 E0.0 F1800
G92 E0.0
G92 E0.0
G1 F2400 E-0.8
; LAYER_COUNT:10
; LAYER:0
M107
; MESH:All_parts - Willow-1.STL
G0 F9000 X51.382 Y191.582 Z37.62598419189453
; TYPE:WALL-INNER
G1 F2400 E0.0
G1 F1800 X51.538 Y191.185 E0.01419 Z37.636436462402344
G1 X51.632 Y190.778 E0.02808 Z37.65711975097656
G1 X51.665 Y190.346 E0.04249 Z37.6884651184082
G1 X51.638 Y189.917 E0.05679 Z37.72938919067383
G1 X51.5505 Y189.514 E0.070505 Z37.77749252319336 ; INTERPOLATED
G1 X51.463 Y189.111 E0.08422 Z37.824256896972656
G1 X51.443 Y188.737 E0.09668 Z37.85481262207031
G1 X51.478 Y188.318 E0.11066 Z37.87561798095703
G1 X51.595 Y187.877 E0.12584 Z37.87993621826172
G1 X51.752 Y187.523 E0.13872 Z37.86945343017578
G1 X52.055 Y187.062 E0.157065 Z37.832672119140625 ; INTERPOLATED
G1 X52.358 Y186.601 E0.17541 Z37.792476654052734
G1 X52.679 Y185.992 E0.19831 Z37.75053787231445
G1 X52.929 Y185.364 E0.22079 Z37.71806335449219
G1 X53.111 Y184.701 E0.24366 Z37.6947021484375
G1 X53.222 Y184.019 E0.26664 Z37.680198669433594
G1 X53.26 Y183.333 E0.28949 Z37.674495697021484
G1 X53.222 Y182.647 E0.31234 Z37.67851257324219
G1 X53.111 Y181.965 E0.33533 Z37.691627502441406
G1 X52.929 Y181.302 E0.35819 Z37.71376419067383
G1 X52.679 Y180.674 E0.38067 Z37.74502182006836
G1 X52.346 Y180.042 E0.40443 Z37.78717041015625
G1 X52.054 Y179.60250000000002 E0.42198 Z37.824867248535156 ; INTERPOLATED
G1 X51.762 Y179.163 E0.43953 Z37.85952377319336
G1 X51.589 Y178.777 E0.4536 Z37.87130355834961
G1 X51.482 Y178.381 E0.46725 Z37.86668014526367
G1 X51.441 Y177.99 E0.48032 Z37.848106384277344
G1 X51.462 Y177.557 E0.49474 Z37.81314468383789
G1 X51.5495 Y177.1515 E0.50854 Z37.76504898071289 ; INTERPOLATED
G1 X51.637 Y176.746 E0.52234 Z37.7164192199707
G1 X51.667 Y176.305 E0.53704 Z37.673095703125
G1 X51.633 Y175.901 E0.55052 Z37.64331817626953
G1 X51.537 Y175.482 E0.56482 Z37.621883392333984
G1 X51.38 Y175.084 E0.57905 Z37.61042785644531
G1 X51.165 Y174.714 E0.59328 Z37.61040496826172
G1 X50.903 Y174.385 E0.60727 Z37.62094497680664
G1 X50.592 Y174.091 E0.62151 Z37.64084243774414
G1 X50.244 Y173.853 E0.63553 Z37.67196273803711
G1 X49.859 Y173.663 E0.64981 Z37.712860107421875
G1 X49.462 Y173.5355 E0.663675 Z37.76143264770508 ; INTERPOLATED
G1 X49.065 Y173.408 E0.67754 Z37.80912399291992
G1 X48.681 Y173.208 E0.69194 Z37.842891693115234
G1 X48.388 Y172.997 E0.70395 Z37.85990905761719
G1 X48.069 Y172.68 E0.71891 Z37.86452102661133
G1 X47.849 Y172.381 E0.73126 Z37.85409164428711
G1 X47.5995 Y171.88549999999998 E0.74971 Z37.81767654418945 ; INTERPOLATED
G1 X47.35 Y171.39 E0.76816 Z37.77785873413086
G1 X46.97 Y170.785 E0.79192 Z37.73423767089844
G1 X46.565 Y170.274 E0.81361 Z37.70329284667969
G1 X46.064 Y169.765 E0.83737 Z37.678871154785156
G1 X45.533 Y169.332 E0.86015 Z37.66478729248047
G1 X44.968 Y168.963 E0.8826 Z37.659793853759766
G1 X44.341 Y168.645 E0.90598 Z37.66437911987305
G1 X43.717 Y168.409 E0.92817 Z37.677703857421875
G1 X43.035 Y168.232 E0.95161 Z37.70133972167969
G1 X42.369 Y168.135 E0.97399 Z37.73274612426758
G1 X41.677 Y168.11 E0.99702 Z37.7742919921875
G1 X41.128 Y168.1425 E1.015315 Z37.81386947631836 ; INTERPOLATED
G1 X40.579 Y168.175 E1.03361 Z37.849510192871094
G1 X40.148 Y168.126 E1.04803 Z37.860172271728516
G1 X39.803 Y168.031 E1.05993 Z37.85629653930664
G1 X39.384 Y167.843 E1.07521 Z37.83478927612305
G1 X39.067 Y167.633 E1.08786 Z37.8026123046875
G1 X38.7555 Y167.353 E1.10179 Z37.75550842285156 ; INTERPOLATED
G1 X38.444 Y167.073 E1.11572 Z37.706138610839844
G1 X38.089 Y166.835 E1.12993 Z37.66510009765625
G1 X37.706 Y166.653 E1.14404 Z37.63410186767578
G1 X37.293 Y166.528 E1.15839 Z37.61255645751953
G1 X36.881 Y166.466 E1.17225 Z37.60231018066406
G1 X36.453 Y166.465 E1.18648 Z37.602108001708984
G1 X36.041 Y166.527 E1.20034 Z37.61235427856445
G1 X35.628 Y166.653 E1.2147 Z37.63410949707031
G1 X35.241 Y166.837 E1.22895 Z37.66545104980469
G1 X34.892 Y167.069 E1.24289 Z37.70539093017578
G1 X34.583 Y167.3505 E1.2567949999999999 Z37.755123138427734 ; INTERPOLATED
G1 X34.274 Y167.632 E1.2707 Z37.802642822265625
G1 X33.908 Y167.866 E1.28515 Z37.83779525756836
G1 X33.559 Y168.023 E1.29787 Z37.85579299926758
G1 X33.142 Y168.135 E1.31223 Z37.8599739074707
G1 X32.725 Y168.175 E1.32617 Z37.84794616699219
G1 X32.19 Y168.1425 E1.343995 Z37.81294250488281 ; INTERPOLATED
G1 X31.655 Y168.11 E1.36182 Z37.77421569824219
G1 X30.964 Y168.137 E1.38482 Z37.73310470581055
G1 X30.297 Y168.234 E1.40724 Z37.70161819458008
G1 X29.615 Y168.411 E1.43067 Z37.67795181274414
G1 X28.991 Y168.647 E1.45286 Z37.664608001708984
G1 X28.364 Y168.965 E1.47625 Z37.660011291503906
G1 X27.796 Y169.335 E1.49879 Z37.664825439453125
G1 X27.267 Y169.768 E1.52153 Z37.67910385131836
G1 X26.767 Y170.276 E1.54524 Z37.703453063964844
G1 X26.362 Y170.787 E1.56692 Z37.73438262939453
G1 X25.982 Y171.392 E1.59069 Z37.777992248535156
G1 X25.7315 Y171.8905 E1.609245 Z37.81808853149414 ; INTERPOLATED
G1 X25.481 Y172.389 E1.6278 Z37.854759216308594
G1 X25.246 Y172.703 E1.64084 Z37.86491012573242
G1 X24.944 Y172.999 E1.65491 Z37.8599853515625
G1 X24.634 Y173.22 E1.66757 Z37.841617584228516
G1 X24.265 Y173.409 E1.68136 Z37.808712005615234
G1 X23.869500000000002 Y173.536 E1.6951749999999999 Z37.761199951171875 ; INTERPOLATED
G1 X23.474 Y173.663 E1.70899 Z37.71280288696289
G1 X23.09 Y173.853 E1.72324 Z37.67206954956055
G1 X22.742 Y174.091 E1.73726 Z37.640960693359375
G1 X22.431 Y174.385 E1.7515 Z37.62105941772461
G1 X22.169 Y174.715 E1.76551 Z37.610618591308594
G1 X21.954 Y175.084 E1.77972 Z37.61054992675781
G1 X21.797 Y175.482 E1.79395 Z37.62200164794922
G1 X21.701 Y175.901 E1.80824 Z37.64344024658203
G1 X21.667 Y176.305 E1.82173 Z37.673213958740234
G1 X21.695 Y176.747 E1.83646 Z37.71625900268555
G1 X21.783 Y177.151 E1.8502100000000001 Z37.76485061645508 ; INTERPOLATED
G1 X21.871 Y177.555 E1.86396 Z37.81293487548828
G1 X21.891 Y177.926 E1.87632 Z37.8432731628418
G1 X21.856 Y178.348 E1.89041 Z37.865455627441406
G1 X21.739 Y178.788 E1.90555 Z37.87089157104492
G1 X21.571 Y179.164 E1.91925 Z37.859519958496094
G1 X21.276000000000003 Y179.61 E1.9370349999999998 Z37.824581146240234 ; INTERPOLATED
G1 X20.981 Y180.056 E1.95482 Z37.786495208740234
G1 X20.655 Y180.674 E1.97806 Z37.74515151977539
G1 X20.405 Y181.302 E2.00054 Z37.713897705078125
G1 X20.223 Y181.965 E2.0234 Z37.691768646240234
G1 X20.112 Y182.647 E2.04639 Z37.67864990234375
G1 X20.073 Y183.333 E2.06924 Z37.674434661865234
G1 X20.112 Y184.019 E2.09209 Z37.680335998535156
G1 X20.223 Y184.701 E2.11507 Z37.69483947753906
G1 X20.405 Y185.364 E2.13794 Z37.718196868896484
G1 X20.655 Y185.992 E2.16042 Z37.750667572021484
G1 X20.985 Y186.621 E2.18405 Z37.79356002807617
G1 X21.2785 Y187.0625 E2.20168 Z37.832679748535156 ; INTERPOLATED
G1 X21.572 Y187.504 E2.21931 Z37.868675231933594
G1 X21.745 Y187.891 E2.23341 Z37.88043975830078
G1 X21.856 Y188.316 E2.24802 Z37.87586975097656
G1 X21.891 Y188.706 E2.26105 Z37.857154846191406
G1 X21.87 Y189.108 E2.27444 Z37.82440948486328
G1 X21.7825 Y189.51350000000002 E2.288235 Z37.7774658203125 ; INTERPOLATED
G1 X21.695 Y189.919 E2.30203 Z37.72916793823242
G1 X21.667 Y190.359 E2.31669 Z37.687110900878906
G1 X21.7 Y190.763 E2.33018 Z37.65827178955078
G1 X21.798 Y191.188 E2.34468 Z37.63664245605469
G1 X21.953 Y191.584 E2.35883 Z37.62608337402344
G1 X22.168 Y191.953 E2.37303 Z37.62721252441406
G1 X22.434 Y192.287 E2.38723 Z37.63792037963867
G1 X22.738 Y192.574 E2.40114 Z37.65840530395508
G1 X23.09 Y192.815 E2.41533 Z37.690860748291016
G1 X23.474 Y193.003 E2.42955 Z37.73183059692383
G1 X23.871499999999997 Y193.1315 E2.4434449999999996 Z37.781341552734375 ; INTERPOLATED
G1 X24.269 Y193.26 E2.45734 Z37.828983306884766
G1 X24.633 Y193.445 E2.47092 Z37.86255645751953
G1 X24.946 Y193.669 E2.48372 Z37.881866455078125
G1 X25.261 Y193.98 E2.49844 Z37.88673400878906
G1 X25.494 Y194.296 E2.5115 Z37.8767204284668
G1 X25.739 Y194.7855 E2.529705 Z37.84130859375 ; INTERPOLATED
G1 X25.984 Y195.275 E2.54791 Z37.802581787109375
G1 X26.364 Y195.88 E2.57167 Z37.7597541809082
G1 X26.769 Y196.392 E2.59339 Z37.729400634765625
G1 X27.269 Y196.9 E2.61709 Z37.70574951171875
G1 X27.798 Y197.333 E2.63983 Z37.692134857177734
G1 X28.366 Y197.703 E2.66238 Z37.68793869018555
G1 X28.993 Y198.021 E2.68576 Z37.69312286376953
G1 X29.617 Y198.257 E2.70795 Z37.70700454711914
G1 X30.299 Y198.434 E2.73139 Z37.731178283691406
G1 X30.965 Y198.531 E2.75377 Z37.76332473754883
G1 X31.657 Y198.556 E2.7768 Z37.805389404296875
G1 X32.2175 Y198.524 E2.795475 Z37.84556198120117 ; INTERPOLATED
G1 X32.778 Y198.492 E2.81415 Z37.88197326660156
G1 X33.177 Y198.539 E2.82751 Z37.89168930053711
G1 X33.532 Y198.635 E2.83974 Z37.8883171081543
G1 X33.909 Y198.801 E2.85344 Z37.86959457397461
G1 X34.271 Y199.035 E2.86778 Z37.834510803222656
G1 X34.581 Y199.3155 E2.881685 Z37.78739929199219 ; INTERPOLATED
G1 X34.891 Y199.596 E2.89559 Z37.73789978027344
G1 X35.246 Y199.833 E2.90978 Z37.69716262817383
G1 X35.628 Y200.015 E2.92386 Z37.66614532470703
G1 X36.041 Y200.141 E2.93822 Z37.64445877075195
G1 X36.451 Y200.203 E2.95201 Z37.634239196777344
G1 X36.882 Y200.201 E2.96635 Z37.634647369384766
G1 X37.294 Y200.139 E2.9802 Z37.64485168457031
G1 X37.708 Y200.013 E2.9946 Z37.6665153503418
G1 X38.089 Y199.832 E3.00863 Z37.69733428955078
G1 X38.443 Y199.593 E3.02283 Z37.73849105834961
G1 X38.733999999999995 Y199.3285 E3.03591 Z37.78520202636719 ; INTERPOLATED
G1 X39.025 Y199.064 E3.04899 Z37.829830169677734
G1 X39.386 Y198.821 E3.06347 Z37.8670654296875
G1 X39.772 Y198.645 E3.07758 Z37.8874397277832
G1 X40.18 Y198.533 E3.09165 Z37.89179229736328
G1 X40.556 Y198.49 E3.10424 Z37.88232421875
G1 X41.1175 Y198.52300000000002 E3.1229449999999996 Z37.84566116333008 ; INTERPOLATED
G1 X41.679 Y198.556 E3.14165 Z37.80522537231445
G1 X42.37 Y198.529 E3.16465 Z37.763580322265625
G1 X43.037 Y198.432 E3.18707 Z37.73133087158203
G1 X43.719 Y198.255 E3.2105 Z37.707122802734375
G1 X44.344 Y198.019 E3.23272 Z37.6931266784668
G1 X44.971 Y197.7 E3.25612 Z37.688087463378906
G1 X45.538 Y197.331 E3.27862 Z37.69218826293945
G1 X46.067 Y196.899 E3.30134 Z37.70560836791992
G1 X46.567 Y196.39 E3.32507 Z37.72939682006836
G1 X46.972 Y195.878 E3.34678 Z37.75972366333008
G1 X47.352 Y195.273 E3.37054 Z37.802528381347656
G1 X47.6015 Y194.778 E3.38898 Z37.8414192199707 ; INTERPOLATED
G1 X47.851 Y194.283 E3.40742 Z37.87687683105469
G1 X48.071 Y193.984 E3.41977 Z37.886390686035156
G1 X48.39 Y193.667 E3.43472 Z37.8817138671875
G1 X48.699 Y193.446 E3.44736 Z37.86263656616211
G1 X49.067 Y193.258 E3.4611 Z37.82881164550781
G1 X49.4645 Y193.1295 E3.474995 Z37.781166076660156 ; INTERPOLATED
G1 X49.862 Y193.001 E3.48889 Z37.73162841796875
G1 X50.246 Y192.813 E3.50311 Z37.690643310546875
G1 X50.598 Y192.572 E3.5173 Z37.65817642211914
G1 X50.902 Y192.285 E3.53121 Z37.637664794921875
G1 X51.168 Y191.951 E3.54541 Z37.62696075439453
G1 X51.382 Y191.582 E3.5596 Z37.62598419189453
G0 F9000 X51.744 Y191.756 Z37.54450988769531
; TYPE:WALL-OUTER
G1 F1800 X51.921 Y191.304 E3.57574 Z37.556121826171875
G1 X52.029 Y190.839 E3.59162 Z37.579132080078125
G1 X52.066 Y190.348 E3.60799 Z37.6143913269043
G1 X52.035 Y189.861 E3.62423 Z37.659393310546875
G1 X51.9475 Y189.461 E3.637845 Z37.70705032348633 ; INTERPOLATED
G1 X51.86 Y189.061 E3.65146 Z37.7523078918457
G1 X51.843 Y188.687 E3.66391 Z37.781524658203125
G1 X51.879 Y188.35 E3.67519 Z37.79623794555664
G1 X51.967 Y188.024 E3.68642 Z37.798980712890625
G1 X52.11 Y187.702 E3.69814 Z37.78941345214844
G1 X52.406 Y187.2535 E3.71601 Z37.75399398803711 ; INTERPOLATED
G1 X52.702 Y186.805 E3.73388 Z37.71550369262695
G1 X53.043 Y186.16 E3.75815 Z37.67183303833008
G1 X53.309 Y185.492 E3.78206 Z37.63806915283203
G1 X53.503 Y184.787 E3.80638 Z37.61373519897461
G1 X53.62 Y184.062 E3.83081 Z37.599098205566406
G1 X53.661 Y183.333 E3.85509 Z37.59300994873047
G1 X53.62 Y182.604 E3.87938 Z37.59725570678711
G1 X53.503 Y181.879 E3.9038 Z37.610660552978516
G1 X53.309 Y181.174 E3.92812 Z37.63376998901367
G1 X53.043 Y180.506 E3.95204 Z37.66632080078125
G1 X52.8665 Y180.172 E3.964605 Z37.68912124633789 ; INTERPOLATED
G1 X52.69 Y179.838 E3.97717 Z37.7101936340332
G1 X52.3985 Y179.399 E3.994695 Z37.746883392333984 ; INTERPOLATED
G1 X52.107 Y178.96 E4.01222 Z37.78065872192383
G1 X51.96 Y178.624 E4.02442 Z37.790130615234375
G1 X51.872 Y178.291 E4.03588 Z37.78569412231445
G1 X51.84 Y177.937 E4.0477 Z37.76840591430664
G1 X51.859 Y177.608 E4.05866 Z37.74126434326172
G1 X51.947 Y177.20499999999998 E4.07238 Z37.69475555419922 ; INTERPOLATED
G1 X52.035 Y176.802 E4.0861 Z37.646568298339844
G1 X52.068 Y176.301 E4.1028 Z37.598846435546875
G1 X52.029 Y175.839 E4.11822 Z37.56593322753906
G1 X51.92 Y175.363 E4.13446 Z37.541568756103516
G1 X51.741 Y174.909 E4.15069 Z37.52903366088867
G1 X51.497 Y174.488 E4.16688 Z37.528873443603516
G1 X51.199 Y174.113 E4.18281 Z37.54057693481445
G1 X50.844 Y173.779 E4.19902 Z37.563087463378906
G1 X50.446 Y173.507 E4.21505 Z37.5975341796875
G1 X50.009 Y173.291 E4.23127 Z37.64320373535156
G1 X49.6145 Y173.164 E4.24505 Z37.690555572509766 ; INTERPOLATED
G1 X49.22 Y173.037 E4.25883 Z37.736724853515625
G1 X48.904 Y172.876 E4.27063 Z37.76475524902344
G1 X48.616 Y172.665 E4.2825 Z37.78022766113281
G1 X48.374 Y172.421 E4.29393 Z37.78324508666992
G1 X48.165 Y172.132 E4.3058 Z37.772804260253906
G1 X47.932 Y171.663 E4.323214999999999 Z37.7383918762207 ; INTERPOLATED
G1 X47.699 Y171.194 E4.34063 Z37.70116424560547
G1 X47.498 Y170.874 E4.3532 Z37.679141998291016 ; INTERPOLATED
G1 X47.297 Y170.554 E4.36577 Z37.655906677246094
G1 X46.865 Y170.009 E4.3889 Z37.62361526489258
G1 X46.599500000000006 Y169.73899999999998 E4.401495 Z37.61209487915039 ; INTERPOLATED
G1 X46.334 Y169.469 E4.41409 Z37.598167419433594
G1 X45.769 Y169.008 E4.43834 Z37.583473205566406
G1 X45.168 Y168.616 E4.46221 Z37.57839584350586
G1 X44.503 Y168.279 E4.48701 Z37.5832633972168
G1 X43.839 Y168.027 E4.51063 Z37.59705352783203
G1 X43.114 Y167.839 E4.53554 Z37.621185302734375
G1 X42.405 Y167.736 E4.55937 Z37.653865814208984
G1 X41.672 Y167.71 E4.58376 Z37.69699478149414
G1 X41.129 Y167.7425 E4.6018550000000005 Z37.73539733886719 ; INTERPOLATED
G1 X40.586 Y167.775 E4.61995 Z37.7706184387207
G1 X40.23 Y167.734 E4.63187 Z37.77879333496094
G1 X39.897 Y167.639 E4.64338 Z37.774452209472656
G1 X39.587 Y167.498 E4.65471 Z37.75815963745117
G1 X39.309 Y167.315 E4.66578 Z37.731300354003906
G1 X39.0 Y167.036 E4.679625 Z37.68471145629883 ; INTERPOLATED
G1 X38.691 Y166.757 E4.69347 Z37.63664627075195
G1 X38.287 Y166.486 E4.70965 Z37.59121322631836
G1 X37.851 Y166.279 E4.72571 Z37.55607604980469
G1 X37.381 Y166.136 E4.74205 Z37.532264709472656
G1 X36.911 Y166.066 E4.75785 Z37.5210075378418
G1 X36.423 Y166.065 E4.77408 Z37.520809173583984
G1 X35.953 Y166.136 E4.78989 Z37.53226852416992
G1 X35.483 Y166.279 E4.80623 Z37.55608367919922
G1 X35.043 Y166.488 E4.82243 Z37.5915412902832
G1 X34.645 Y166.753 E4.83834 Z37.635894775390625
G1 X34.336 Y167.034 E4.85223 Z37.68438720703125 ; INTERPOLATED
G1 X34.027 Y167.315 E4.86612 Z37.73137664794922
G1 X33.723 Y167.511 E4.87815 Z37.75986099243164
G1 X33.402 Y167.654 E4.88984 Z37.7761344909668
G1 X33.075 Y167.741 E4.90109 Z37.77888107299805
G1 X32.729 Y167.775 E4.91266 Z37.76969528198242
G1 X32.1945 Y167.7425 E4.93047 Z37.7348747253418 ; INTERPOLATED
G1 X31.66 Y167.71 E4.94828 Z37.69691848754883
G1 X30.928 Y167.738 E4.97264 Z37.65422821044922
G1 X30.218 Y167.841 E4.9965 Z37.621463775634766
G1 X29.493 Y168.029 E5.02141 Z37.59730529785156
G1 X28.829 Y168.281 E5.04504 Z37.58348846435547
G1 X28.164 Y168.618 E5.06983 Z37.57861328125
G1 X27.56 Y169.012 E5.09382 Z37.583683013916016
G1 X26.997 Y169.472 E5.118 Z37.5984001159668
G1 X26.732 Y169.7415 E5.1305700000000005 Z37.612274169921875 ; INTERPOLATED
G1 X26.467 Y170.011 E5.14314 Z37.623779296875
G1 X26.035 Y170.556 E5.16627 Z37.65605545043945
G1 X25.834 Y170.876 E5.17884 Z37.67926788330078 ; INTERPOLATED
G1 X25.633 Y171.196 E5.19141 Z37.701290130615234
G1 X25.3955 Y171.6735 E5.209145 Z37.739131927490234 ; INTERPOLATED
G1 X25.158 Y172.151 E5.22688 Z37.77401351928711
G1 X24.945 Y172.439 E5.2388 Z37.78355026245117
G1 X24.707 Y172.676 E5.24997 Z37.780174255371094
G1 X24.407 Y172.89 E5.26223 Z37.76311111450195
G1 X24.11 Y173.04 E5.27329 Z37.73659896850586
G1 X23.717 Y173.1655 E5.287015 Z37.69044494628906 ; INTERPOLATED
G1 X23.324 Y173.291 E5.30074 Z37.643150329589844
G1 X22.888 Y173.507 E5.31692 Z37.59764862060547
G1 X22.49 Y173.779 E5.33295 Z37.56319808959961
G1 X22.135 Y174.113 E5.34916 Z37.54069900512695
G1 X21.837 Y174.489 E5.36512 Z37.52909469604492
G1 X21.593 Y174.909 E5.38128 Z37.52915573120117
G1 X21.414 Y175.363 E5.39751 Z37.541690826416016
G1 X21.305 Y175.839 E5.41375 Z37.56605529785156
G1 X21.266 Y176.301 E5.42917 Z37.598968505859375
G1 X21.298 Y176.803 E5.4459 Z37.646583557128906
G1 X21.386 Y177.204 E5.459555 Z37.69462203979492 ; INTERPOLATED
G1 X21.474 Y177.605 E5.47321 Z37.74098587036133
G1 X21.491 Y177.976 E5.48556 Z37.770751953125
G1 X21.455 Y178.316 E5.49694 Z37.78607940673828
G1 X21.362 Y178.654 E5.50859 Z37.78970718383789
G1 X21.226 Y178.961 E5.51976 Z37.7806510925293
G1 X20.9315 Y179.4065 E5.5375250000000005 Z37.74659729003906 ; INTERPOLATED
G1 X20.637 Y179.852 E5.55529 Z37.70952224731445
G1 X20.291 Y180.506 E5.5799 Z37.66645050048828
G1 X20.025 Y181.174 E5.60381 Z37.633907318115234
G1 X19.831 Y181.879 E5.62813 Z37.61079788208008
G1 X19.714 Y182.604 E5.65256 Z37.59739303588867
G1 X19.673 Y183.333 E5.67684 Z37.59314727783203
G1 X19.714 Y184.062 E5.70113 Z37.59923553466797
G1 X19.831 Y184.787 E5.72555 Z37.61386489868164
G1 X20.025 Y185.492 E5.74987 Z37.63820266723633
G1 X20.291 Y186.16 E5.77379 Z37.67197036743164
G1 X20.466 Y186.4925 E5.7862849999999995 Z37.6955680847168 ; INTERPOLATED
G1 X20.641 Y186.825 E5.79878 Z37.716583251953125
G1 X20.933999999999997 Y187.266 E5.81639 Z37.75468826293945 ; INTERPOLATED
G1 X21.227 Y187.707 E5.834 Z37.78984451293945
G1 X21.374 Y188.043 E5.8462 Z37.799400329589844
G1 X21.46 Y188.372 E5.85751 Z37.79591751098633
G1 X21.491 Y188.705 E5.86863 Z37.78049087524414
G1 X21.473 Y189.058 E5.88039 Z37.75246047973633
G1 X21.384999999999998 Y189.4605 E5.894095 Z37.706932067871094 ; INTERPOLATED
G1 X21.297 Y189.863 E5.9078 Z37.65898513793945
G1 X21.266 Y190.363 E5.92446 Z37.612857818603516
G1 X21.304 Y190.825 E5.93988 Z37.58027267456055
G1 X21.415 Y191.306 E5.95629 Z37.55641555786133
G1 X21.592 Y191.758 E5.97244 Z37.5447883605957
G1 X21.837 Y192.179 E5.98864 Z37.54585266113281
G1 X22.139 Y192.559 E6.00478 Z37.557926177978516
G1 X22.486 Y192.886 E6.02064 Z37.58064270019531
G1 X22.888 Y193.161 E6.03684 Z37.61643600463867
G1 X23.324 Y193.375 E6.053 Z37.66289138793945
G1 X23.719 Y193.502 E6.0668 Z37.71059036254883 ; INTERPOLATED
G1 X24.114 Y193.629 E6.0806 Z37.75779724121094
G1 X24.423 Y193.786 E6.09212 Z37.78525924682617
G1 X24.719 Y194.002 E6.10431 Z37.80223083496094
G1 X24.961 Y194.245 E6.11572 Z37.80538558959961
G1 X25.16 Y194.517 E6.12693 Z37.79680252075195
G1 X25.3975 Y194.994 E6.14465 Z37.762840270996094 ; INTERPOLATED
G1 X25.635 Y195.471 E6.16237 Z37.72551727294922
G1 X25.836 Y195.791 E6.174939999999999 Z37.703857421875 ; INTERPOLATED
G1 X26.037 Y196.111 E6.18751 Z37.681427001953125
G1 X26.469 Y196.657 E6.21067 Z37.64972686767578
G1 X26.734 Y196.9265 E6.2232400000000005 Z37.63821792602539 ; INTERPOLATED
G1 X26.999 Y197.196 E6.23581 Z37.62504577636719
G1 X27.562 Y197.656 E6.25999 Z37.61098861694336
G1 X28.166 Y198.05 E6.28398 Z37.60653305053711
G1 X28.831 Y198.387 E6.30877 Z37.612003326416016
G1 X29.495 Y198.639 E6.33239 Z37.6263542175293
G1 X30.22 Y198.827 E6.35731 Z37.65147018432617
G1 X30.929 Y198.93 E6.38113 Z37.68457794189453
G1 X31.662 Y198.956 E6.40553 Z37.728092193603516
G1 X32.205 Y198.9235 E6.42362 Z37.76683807373047 ; INTERPOLATED
G1 X32.748 Y198.891 E6.44171 Z37.8021125793457
G1 X33.11 Y198.934 E6.45384 Z37.81039810180664
G1 X33.433 Y199.025 E6.465 Z37.80667495727539
G1 X33.747 Y199.168 E6.47648 Z37.790138244628906
G1 X34.029 Y199.353 E6.48769 Z37.763206481933594
G1 X34.336 Y199.6325 E6.5015 Z37.71644973754883 ; INTERPOLATED
G1 X34.643 Y199.912 E6.51531 Z37.66837692260742
G1 X35.048 Y200.182 E6.5315 Z37.62317657470703
G1 X35.483 Y200.389 E6.54752 Z37.58811950683594
G1 X35.953 Y200.532 E6.56386 Z37.56437301635742
G1 X36.422 Y200.603 E6.57964 Z37.55293655395508
G1 X36.912 Y200.601 E6.59594 Z37.553348541259766
G1 X37.383 Y200.53 E6.61178 Z37.564754486083984
G1 X37.853 Y200.387 E6.62812 Z37.5884895324707
G1 X38.287 Y200.18 E6.64411 Z37.6235466003418
G1 X38.691 Y199.909 E6.66029 Z37.668968200683594
G1 X39.005 Y199.625 E6.6743749999999995 Z37.71772766113281 ; INTERPOLATED
G1 X39.319 Y199.341 E6.68846 Z37.76516342163086
G1 X39.595 Y199.162 E6.6994 Z37.7910041809082
G1 X39.927 Y199.015 E6.71147 Z37.807655334472656
G1 X40.259 Y198.925 E6.72291 Z37.810550689697266
G1 X40.594 Y198.889 E6.73412 Z37.80203628540039
G1 X41.134 Y198.9225 E6.752115 Z37.766727447509766 ; INTERPOLATED
G1 X41.674 Y198.956 E6.77011 Z37.727928161621094
G1 X42.406 Y198.928 E6.79448 Z37.68484878540039
G1 X43.116 Y198.825 E6.81834 Z37.651649475097656
G1 X43.841 Y198.637 E6.84325 Z37.62648010253906
G1 X44.506 Y198.385 E6.8669 Z37.61200714111328
G1 X45.171 Y198.047 E6.89171 Z37.606685638427734
G1 X45.774 Y197.654 E6.91565 Z37.61103820800781
G1 X46.337 Y197.195 E6.93981 Z37.62490463256836
G1 X46.602000000000004 Y196.925 E6.952394999999999 Z37.63813400268555 ; INTERPOLATED
G1 X46.867 Y196.655 E6.96498 Z37.649723052978516
G1 X47.299 Y196.109 E6.98813 Z37.68140411376953
G1 X47.5 Y195.789 E7.0007 Z37.70380783081055 ; INTERPOLATED
G1 X47.701 Y195.469 E7.01327 Z37.72544479370117
G1 X47.934 Y195.0005 E7.0306750000000005 Z37.76213455200195 ; INTERPOLATED
G1 X48.167 Y194.532 E7.04808 Z37.79559326171875
G1 X48.393 Y194.223 E7.06081 Z37.8052864074707
G1 X48.627 Y193.99 E7.07179 Z37.80196762084961
G1 X48.911 Y193.785 E7.08344 Z37.78528594970703
G1 X49.222 Y193.627 E7.09505 Z37.75764465332031
G1 X49.617000000000004 Y193.5 E7.10885 Z37.710411071777344 ; INTERPOLATED
G1 X50.012 Y193.373 E7.12265 Z37.662689208984375
G1 X50.448 Y193.159 E7.1388 Z37.616233825683594
G1 X50.85 Y192.884 E7.155 Z37.580421447753906
G1 X51.197 Y192.557 E7.17086 Z37.557674407958984
G1 X51.499 Y192.177 E7.187 Z37.54560089111328
G1 X51.744 Y191.756 E7.2032 Z37.54450988769531
G0 F9000 X51.4005 Y191.5895 Z37.6219596862793 ; INTERPOLATED
G0 F9000 X51.057 Y191.423 Z37.699405670166016
; TYPE:SKIN
G1 F1800 X50.866 Y191.75 E7.2158 Z37.70064163208008
G1 X50.634 Y192.043 E7.22823 Z37.709800720214844
G1 X50.37 Y192.292 E7.2403 Z37.728271484375
G1 X50.062 Y192.503 E7.25272 Z37.75666809082031
G1 X49.733 Y192.663 E7.26488 Z37.793067932128906
G1 X49.3305 Y192.794 E7.27896 Z37.84386444091797 ; INTERPOLATED
G1 X48.928 Y192.925 E7.29304 Z37.89270782470703
G1 X48.517 Y193.135 E7.30839 Z37.92876434326172
G1 X48.176 Y193.377 E7.3223 Z37.94611358642578
G1 X47.817 Y193.726 E7.33895 Z37.95173263549805
G1 X47.534 Y194.108 E7.35476 Z37.94189453125
G1 X47.289500000000004 Y194.595 E7.372885 Z37.9119987487793 ; INTERPOLATED
G1 X47.045 Y195.082 E7.39101 Z37.87284469604492
G1 X46.667 Y195.683 E7.41463 Z37.829551696777344
G1 X46.302 Y196.144 E7.43418 Z37.80171203613281
G1 X45.826 Y196.631 E7.45683 Z37.77827453613281
G1 X45.322 Y197.042 E7.47846 Z37.76531982421875
G1 X44.796 Y197.386 E7.49937 Z37.76113510131836
G1 X44.191 Y197.693 E7.52193 Z37.76621627807617
G1 X43.621 Y197.908 E7.5422 Z37.77923583984375
G1 X42.958 Y198.08 E7.56498 Z37.80325698852539
G1 X42.343 Y198.169 E7.58565 Z37.83359909057617
G1 X41.689 Y198.194 E7.60741 Z37.87415313720703
G1 X41.1295 Y198.161 E7.626055 Z37.915164947509766 ; INTERPOLATED
G1 X40.57 Y198.128 E7.6447 Z37.94581604003906
G1 X40.056 Y198.19 E7.66192 Z37.95623779296875
G1 X39.625 Y198.314 E7.67683 Z37.951141357421875
G1 X39.211 Y198.505 E7.692 Z37.93267059326172
G1 X38.836 Y198.75 E7.7069 Z37.89871597290039
G1 X38.528499999999994 Y199.029 E7.72071 Z37.85041046142578 ; INTERPOLATED
G1 X38.221 Y199.308 E7.73452 Z37.80115509033203
G1 X37.909 Y199.516 E7.74699 Z37.76414108276367
G1 X37.581 Y199.674 E7.7591 Z37.73709487915039
G1 X37.211 Y199.787 E7.77196 Z37.71698760986328
G1 X36.855 Y199.841 E7.78394 Z37.70781326293945
G1 X36.477 Y199.843 E7.79651 Z37.70740509033203
G1 X36.125 Y199.789 E7.80836 Z37.71659851074219
G1 X35.755 Y199.677 E7.82121 Z37.73649978637695
G1 X35.423 Y199.518 E7.83346 Z37.76371765136719
G1 X35.115 Y199.313 E7.84576 Z37.80020523071289
G1 X34.801500000000004 Y199.03 E7.8598099999999995 Z37.850135803222656 ; INTERPOLATED
G1 X34.488 Y198.747 E7.87386 Z37.89903259277344
G1 X34.099 Y198.495 E7.88927 Z37.9337272644043
G1 X33.656 Y198.297 E7.90541 Z37.9522819519043
G1 X33.219 Y198.18 E7.92046 Z37.95568084716797
G1 X32.773 Y198.13 E7.93539 Z37.945919036865234
G1 X32.21 Y198.1625 E7.9541450000000005 Z37.91523361206055 ; INTERPOLATED
G1 X31.647 Y198.195 E7.9729 Z37.874141693115234
G1 X30.992 Y198.171 E7.9947 Z37.83333969116211
G1 X30.383 Y198.082 E8.01517 Z37.80351638793945
G1 X29.715 Y197.909 E8.03812 Z37.779300689697266
G1 X29.135 Y197.688 E8.05876 Z37.76641082763672
G1 X28.548 Y197.392 E8.08063 Z37.761173248291016
G1 X28.015 Y197.044 E8.1018 Z37.76537322998047
G1 X27.518 Y196.638 E8.12315 Z37.77833938598633
G1 X27.028 Y196.14 E8.14638 Z37.80195999145508
G1 X26.669 Y195.686 E8.16563 Z37.82941436767578
G1 X26.299 Y195.096 E8.1888 Z37.872127532958984
G1 X26.057499999999997 Y194.613 E8.20676 Z37.911251068115234 ; INTERPOLATED
G1 X25.816 Y194.13 E8.22472 Z37.94131088256836
G1 X25.545 Y193.757 E8.24005 Z37.95178985595703
G1 X25.219 Y193.428 E8.25546 Z37.948482513427734
G1 X24.837 Y193.147 E8.27123 Z37.93009567260742
G1 X24.394 Y192.922 E8.28776 Z37.89126968383789
G1 X23.9985 Y192.793 E8.301594999999999 Z37.843265533447266 ; INTERPOLATED
G1 X23.603 Y192.664 E8.31543 Z37.793392181396484
G1 X23.274 Y192.505 E8.32758 Z37.75688934326172
G1 X22.966 Y192.294 E8.34 Z37.72850036621094
G1 X22.702 Y192.045 E8.35207 Z37.710052490234375
G1 X22.47 Y191.752 E8.3645 Z37.700889587402344
G1 X22.279 Y191.425 E8.3771 Z37.699684143066406
G1 X22.146 Y191.082 E8.38933 Z37.709415435791016
G1 X22.054 Y190.693 E8.40263 Z37.728797912597656
G1 X22.027 Y190.366 E8.41354 Z37.75285720825195
G1 X22.052 Y189.963 E8.42697 Z37.791996002197266
G1 X22.139 Y189.55849999999998 E8.44073 Z37.84074020385742 ; INTERPOLATED
G1 X22.226 Y189.154 E8.45449 Z37.888851165771484
G1 X22.25 Y188.684 E8.47014 Z37.92499542236328
G1 X22.214 Y188.279 E8.48367 Z37.94149398803711
G1 X22.095 Y187.795 E8.50025 Z37.94711685180664
G1 X21.899 Y187.352 E8.51636 Z37.93609619140625
G1 X21.597 Y186.89249999999998 E8.534645000000001 Z37.90385818481445 ; INTERPOLATED
G1 X21.295 Y186.433 E8.55293 Z37.863101959228516
G1 X20.981 Y185.836 E8.57537 Z37.82134246826172
G1 X20.748 Y185.255 E8.59619 Z37.790225982666016
G1 X20.576 Y184.627 E8.61785 Z37.767635345458984
G1 X20.473 Y183.983 E8.63954 Z37.75383377075195
G1 X20.435 Y183.333 E8.66119 Z37.74799346923828
G1 X20.473 Y182.683 E8.68285 Z37.752323150634766
G1 X20.576 Y182.039 E8.70454 Z37.76461410522461
G1 X20.748 Y181.412 E8.72617 Z37.78595733642578
G1 X20.981 Y180.831 E8.74699 Z37.81585693359375
G1 X21.291 Y180.246 E8.76901 Z37.85612487792969
G1 X21.589 Y179.79500000000002 E8.78699 Z37.89543914794922 ; INTERPOLATED
G1 X21.887 Y179.344 E8.80497 Z37.92857360839844
G1 X22.083 Y178.897 E8.8212 Z37.938995361328125
G1 X22.208 Y178.415 E8.83776 Z37.93363571166992
G1 X22.25 Y177.993 E8.85187 Z37.91630935668945
G1 X22.231 Y177.506 E8.86808 Z37.87673568725586
G1 X22.142000000000003 Y177.103 E8.881805 Z37.82835006713867 ; INTERPOLATED
G1 X22.053 Y176.7 E8.89553 Z37.778202056884766
G1 X22.028 Y176.3 E8.90886 Z37.739315032958984
G1 X22.057 Y175.967 E8.91998 Z37.713958740234375
G1 X22.144 Y175.587 E8.93294 Z37.69422912597656
G1 X22.278 Y175.246 E8.94513 Z37.68408966064453
G1 X22.471 Y174.912 E8.95796 Z37.683876037597656
G1 X22.695 Y174.63 E8.96994 Z37.69281768798828
G1 X22.969 Y174.372 E8.98245 Z37.71099853515625
G1 X23.267 Y174.168 E8.99447 Z37.73848342895508
G1 X23.612 Y173.996 E9.00729 Z37.7751350402832
G1 X24.0065 Y173.869 E9.021075 Z37.82477951049805 ; INTERPOLATED
G1 X24.401 Y173.742 E9.03486 Z37.872127532958984
G1 X24.838 Y173.518 E9.05119 Z37.912357330322266
G1 X25.21 Y173.245 E9.06654 Z37.930362701416016
G1 X25.532 Y172.924 E9.08166 Z37.934043884277344
G1 X25.812 Y172.542 E9.09741 Z37.922977447509766
G1 X26.0545 Y172.05599999999998 E9.115475 Z37.88762664794922 ; INTERPOLATED
G1 X26.297 Y171.57 E9.13354 Z37.847389221191406
G1 X26.667 Y170.981 E9.15668 Z37.804054260253906
G1 X27.026 Y170.528 E9.1759 Z37.7760124206543
G1 X27.517 Y170.029 E9.19918 Z37.751644134521484
G1 X28.013 Y169.624 E9.22048 Z37.73806381225586
G1 X28.542 Y169.279 E9.24149 Z37.733367919921875
G1 X29.144 Y168.972 E9.26396 Z37.737518310546875
G1 X29.709 Y168.76 E9.28404 Z37.75007629394531
G1 X30.381 Y168.586 E9.30712 Z37.77396774291992
G1 X30.991 Y168.497 E9.32763 Z37.803409576416016
G1 X31.645 Y168.472 E9.3494 Z37.843528747558594
G1 X32.1985 Y168.50400000000002 E9.36784 Z37.88359069824219 ; INTERPOLATED
G1 X32.752 Y168.536 E9.38628 Z37.91942596435547
G1 X33.246 Y168.484 E9.4028 Z37.9305419921875
G1 X33.65 Y168.373 E9.41673 Z37.926719665527344
G1 X34.123 Y168.161 E9.43397 Z37.904300689697266
G1 X34.491 Y167.919 E9.44862 Z37.86695861816406
G1 X34.801 Y167.638 E9.462534999999999 Z37.818206787109375 ; INTERPOLATED
G1 X35.111 Y167.357 E9.47645 Z37.768592834472656
G1 X35.422 Y167.15 E9.48888 Z37.731666564941406
G1 X35.756 Y166.992 E9.50117 Z37.70460510253906
G1 X36.124 Y166.879 E9.51397 Z37.684486389160156
G1 X36.48 Y166.826 E9.52594 Z37.675479888916016
G1 X36.856 Y166.827 E9.53845 Z37.675682067871094
G1 X37.208 Y166.879 E9.55028 Z37.68449401855469
G1 X37.583 Y166.993 E9.56332 Z37.70476531982422
G1 X37.906 Y167.145 E9.57519 Z37.730735778808594
G1 X38.221 Y167.358 E9.58784 Z37.76882553100586
G1 X38.5415 Y167.644 E9.602125000000001 Z37.8192024230957 ; INTERPOLATED
G1 X38.862 Y167.93 E9.61641 Z37.868568420410156
G1 X39.218 Y168.166 E9.63062 Z37.90507125854492
G1 X39.657 Y168.363 E9.64662 Z37.92591094970703
G1 X40.056 Y168.474 E9.6604 Z37.93009567260742
G1 X40.586 Y168.541 E9.67817 Z37.92002868652344
G1 X41.135999999999996 Y168.506 E9.6965 Z37.8838996887207 ; INTERPOLATED
G1 X41.686 Y168.471 E9.71483 Z37.8434944152832
G1 X42.342 Y168.495 E9.73666 Z37.80305480957031
G1 X42.951 Y168.584 E9.75713 Z37.773712158203125
G1 X43.619 Y168.757 E9.78008 Z37.750003814697266
G1 X44.197 Y168.977 E9.80065 Z37.7376823425293
G1 X44.785 Y169.273 E9.82255 Z37.73296356201172
G1 X45.317 Y169.62 E9.84367 Z37.73774337768555
G1 X45.814 Y170.026 E9.86502 Z37.75140380859375
G1 X46.306 Y170.526 E9.88835 Z37.775848388671875
G1 X46.665 Y170.979 E9.90757 Z37.80390930175781
G1 X47.035 Y171.569 E9.93074 Z37.84740447998047
G1 X47.2765 Y172.053 E9.948730000000001 Z37.887508392333984 ; INTERPOLATED
G1 X47.518 Y172.537 E9.96672 Z37.92279052734375
G1 X47.819 Y172.942 E9.9835 Z37.93388366699219
G1 X48.103 Y173.229 E9.99693 Z37.93107223510742
G1 X48.521 Y173.533 E10.01412 Z37.91032791137695
G1 X48.928 Y173.74 E10.02931 Z37.87257766723633
G1 X49.32599999999999 Y173.8685 E10.043220000000002 Z37.824851989746094 ; INTERPOLATED
G1 X49.724 Y173.997 E10.05713 Z37.77481460571289
G1 X50.06 Y174.165 E10.06962 Z37.73921585083008
G1 X50.368 Y174.375 E10.08202 Z37.71071243286133
G1 X50.634 Y174.627 E10.09421 Z37.6932487487793
G1 X50.866 Y174.917 E10.10656 Z37.68377685546875
G1 X51.055 Y175.243 E10.11909 Z37.68385314941406
G1 X51.19 Y175.587 E10.13138 Z37.69411087036133
G1 X51.277 Y175.967 E10.14435 Z37.71384048461914
G1 X51.306 Y176.299 E10.15543 Z37.739112854003906
G1 X51.28 Y176.704 E10.16893 Z37.77861785888672
G1 X51.193 Y177.10649999999998 E10.18263 Z37.82831954956055 ; INTERPOLATED
G1 X51.106 Y177.509 E10.19633 Z37.876285552978516
G1 X51.082 Y178.009 E10.21297 Z37.917449951171875
G1 X51.131 Y178.467 E10.22829 Z37.935462951660156
G1 X51.242 Y178.877 E10.24242 Z37.939395904541016
G1 X51.432 Y179.322 E10.25852 Z37.929832458496094
G1 X51.7315 Y179.7705 E10.276455 Z37.89675521850586 ; INTERPOLATED
G1 X52.031 Y180.219 E10.29439 Z37.857242584228516
G1 X52.354 Y180.83 E10.31738 Z37.81549835205078
G1 X52.584 Y181.405 E10.33798 Z37.786033630371094
G1 X52.758 Y182.039 E10.35984 Z37.76447677612305
G1 X52.861 Y182.683 E10.38153 Z37.75217819213867
G1 X52.899 Y183.333 E10.40319 Z37.74785614013672
G1 X52.861 Y183.983 E10.42485 Z37.753692626953125
G1 X52.758 Y184.627 E10.44654 Z37.76750564575195
G1 X52.586 Y185.254 E10.46816 Z37.79011535644531
G1 X52.356 Y185.83 E10.48879 Z37.82081604003906
G1 X52.048 Y186.412 E10.51069 Z37.862064361572266
G1 X51.7425 Y186.875 E10.52914 Z37.90336608886719 ; INTERPOLATED
G1 X51.437 Y187.338 E10.54759 Z37.93623352050781
G1 X51.251 Y187.769 E10.5632 Z37.94631576538086
G1 X51.126 Y188.25 E10.57973 Z37.94196319580078
G1 X51.084 Y188.666 E10.59364 Z37.92593765258789
G1 X51.104 Y189.162 E10.61015 Z37.88885498046875
G1 X51.192 Y189.5625 E10.62379 Z37.840858459472656 ; INTERPOLATED
G1 X51.28 Y189.963 E10.63743 Z37.79224395751953
G1 X51.302 Y190.341 E10.65002 Z37.755794525146484
G1 X51.274 Y190.723 E10.66276 Z37.726985931396484
G1 X51.19 Y191.08 E10.67496 Z37.70912170410156
G1 X51.057 Y191.423 E10.68719 Z37.699405670166016
G0 F9000 X51.299 Y191.518 Z37.647064208984375
G0 X51.385999999999996 Y191.136 Z37.66847229003906 ; INTERPOLATED
G0 X51.473 Y190.754 Z37.6881103515625
G0 X51.501 Y190.0904 Z37.7406005859375 ; INTERPOLATED
G0 X51.528999999999996 Y189.4268 Z37.78838348388672 ; INTERPOLATED
G0 X51.557 Y188.7632 Z37.83124923706055 ; INTERPOLATED
G0 X51.585 Y188.0996 Z37.869022369384766 ; INTERPOLATED
G0 X51.613 Y187.436 Z37.901283264160156
G0 X51.916 Y186.97750000000002 Z37.864253997802734 ; INTERPOLATED
G0 X52.219 Y186.519 Z37.82356262207031
G0 X52.4975 Y185.9155 Z37.789527893066406 ; INTERPOLATED
G0 X52.776 Y185.312 Z37.750282287597656
G0 X52.919 Y184.6565 Z37.734405517578125 ; INTERPOLATED
G0 X53.062 Y184.001 Z37.7127799987793
G0 X53.062 Y183.333 Z37.7147331237793 ; INTERPOLATED
G0 X53.062 Y182.665 Z37.711185455322266
G0 X52.919 Y182.00900000000001 Z37.7313232421875 ; INTERPOLATED
G0 X52.776 Y181.353 Z37.7459602355957
G0 X52.525000000000006 Y180.71733333333333 Z37.77736282348633 ; INTERPOLATED
G0 X52.274 Y180.08166666666668 Z37.80315017700195 ; INTERPOLATED
G0 X52.023 Y179.446 Z37.8232307434082 ; INTERPOLATED
G0 X51.772000000000006 Y178.81033333333332 Z37.83749771118164 ; INTERPOLATED
G0 X51.521 Y178.17466666666667 Z37.84589385986328 ; INTERPOLATED
G0 X51.27 Y177.539 Z37.84790802001953
G0 X51.374 Y177.131 Z37.796321868896484 ; INTERPOLATED
G0 X51.478 Y176.723 Z37.74374771118164
G0 X51.474 Y176.078 Z37.688480377197266
G0 X51.3705 Y175.58350000000002 Z37.661407470703125 ; INTERPOLATED
G0 X51.267 Y175.089 Z37.630958557128906
G0 X50.868 Y175.319 Z37.72455596923828
G1 F1800 X50.341 Y174.79199999999997 E10.71198 Z37.76155090332031 ; INTERPOLATED
G1 F1800 X49.814 Y174.265 E10.73677 Z37.79182434082031
G0 F9000 X49.373999999999995 Y174.108 Z37.84571075439453 ; INTERPOLATED
G0 F9000 X48.934 Y173.951 Z37.89799118041992
G1 F1800 X49.364799999999995 Y174.3816 E10.75703 Z37.87974548339844 ; INTERPOLATED
G1 F1800 X49.7956 Y174.8122 E10.77729 Z37.856788635253906 ; INTERPOLATED
G1 F1800 X50.2264 Y175.24280000000002 E10.797550000000001 Z37.829219818115234 ; INTERPOLATED
G1 F1800 X50.6572 Y175.67340000000002 E10.817810000000001 Z37.79715347290039 ; INTERPOLATED
G1 F1800 X51.088 Y176.104 E10.83807 Z37.76072311401367
G0 F9000 X51.082 Y176.664 Z37.811676025390625
G1 F1800 X50.563066666666664 Y176.14506666666665 E10.862478666666666 Z37.8594970703125 ; INTERPOLATED
G1 F1800 X50.044133333333335 Y175.6261333333333 E10.886887333333332 Z37.901145935058594 ; INTERPOLATED
G1 F1800 X49.5252 Y175.10719999999998 E10.911295999999998 Z37.93210220336914 ; INTERPOLATED
G1 F1800 X49.00626666666667 Y174.58826666666667 E10.935704666666664 Z37.95463562011719 ; INTERPOLATED
G1 F1800 X48.48733333333333 Y174.06933333333333 E10.96011333333333 Z37.97169494628906 ; INTERPOLATED
G1 F1800 X47.9684 Y173.5504 E10.984521999999997 Z37.98320007324219 ; INTERPOLATED
G1 F1800 X47.449466666666666 Y173.03146666666666 E11.008930666666663 Z37.988224029541016 ; INTERPOLATED
G1 F1800 X46.93053333333334 Y172.51253333333332 E11.033339333333329 Z37.98743438720703 ; INTERPOLATED
G1 F1800 X46.4116 Y171.9936 E11.057747999999995 Z37.98101806640625 ; INTERPOLATED
G1 F1800 X45.89266666666667 Y171.47466666666665 E11.08215666666666 Z37.96855545043945 ; INTERPOLATED
G1 F1800 X45.373733333333334 Y170.9557333333333 E11.106565333333327 Z37.949981689453125 ; INTERPOLATED
G1 F1800 X44.854800000000004 Y170.4368 E11.130973999999993 Z37.92597198486328 ; INTERPOLATED
G1 F1800 X44.33586666666667 Y169.91786666666667 E11.15538266666666 Z37.89219665527344 ; INTERPOLATED
G1 F1800 X43.81693333333334 Y169.39893333333333 E11.179791333333325 Z37.849586486816406 ; INTERPOLATED
G1 F1800 X43.298 Y168.88 E11.2042 Z37.800209045410156
G0 F9000 X42.584 Y168.731 Z37.8294563293457
G1 F1800 X43.1089375 Y169.2559375 E11.22889125 Z37.88562774658203 ; INTERPOLATED
G1 F1800 X43.633875 Y169.78087499999998 E11.2535825 Z37.932037353515625 ; INTERPOLATED
G1 F1800 X44.1588125 Y170.3058125 E11.27827375 Z37.96685791015625 ; INTERPOLATED
G1 F1800 X44.68375 Y170.83075 E11.302965 Z37.99618148803711 ; INTERPOLATED
G1 F1800 X45.2086875 Y171.3556875 E11.32765625 Z38.01996994018555 ; INTERPOLATED
G1 F1800 X45.733625 Y171.880625 E11.3523475 Z38.03775405883789 ; INTERPOLATED
G1 F1800 X46.258562500000004 Y172.4055625 E11.37703875 Z38.049015045166016 ; INTERPOLATED
G1 F1800 X46.783500000000004 Y172.9305 E11.40173 Z38.054447174072266 ; INTERPOLATED
G1 F1800 X47.3084375 Y173.4554375 E11.42642125 Z38.05360412597656 ; INTERPOLATED
G1 F1800 X47.833375 Y173.98037499999998 E11.4511125 Z38.046165466308594 ; INTERPOLATED
G1 F1800 X48.3583125 Y174.5053125 E11.47580375 Z38.03292465209961 ; INTERPOLATED
G1 F1800 X48.88325 Y175.03025 E11.500495 Z38.0135498046875 ; INTERPOLATED
G1 F1800 X49.4081875 Y175.5551875 E11.52518625 Z37.98787307739258 ; INTERPOLATED
G1 F1800 X49.933125 Y176.080125 E11.549877500000001 Z37.956695556640625 ; INTERPOLATED
G1 F1800 X50.4580625 Y176.6050625 E11.574568750000001 Z37.920162200927734 ; INTERPOLATED
G1 F1800 X50.983 Y177.13 E11.59926 Z37.86952590942383
G0 F9000 X50.901 Y177.614 Z37.92168045043945
G1 F1800 X50.37541176470589 Y177.0884705882353 E11.623981176470588 Z37.96673583984375 ; INTERPOLATED
G1 F1800 X49.849823529411765 Y176.5629411764706 E11.648702352941177 Z38.00661849975586 ; INTERPOLATED
G1 F1800 X49.32423529411765 Y176.0374117647059 E11.673423529411766 Z38.04116439819336 ; INTERPOLATED
G1 F1800 X48.79864705882353 Y175.51188235294117 E11.698144705882354 Z38.06935501098633 ; INTERPOLATED
G1 F1800 X48.27305882352941 Y174.98635294117648 E11.722865882352943 Z38.09164047241211 ; INTERPOLATED
G1 F1800 X47.747470588235295 Y174.46082352941178 E11.747587058823532 Z38.10813522338867 ; INTERPOLATED
G1 F1800 X47.22188235294118 Y173.93529411764706 E11.77230823529412 Z38.11764907836914 ; INTERPOLATED
G1 F1800 X46.696294117647064 Y173.40976470588237 E11.79702941176471 Z38.12107849121094 ; INTERPOLATED
G1 F1800 X46.17070588235294 Y172.88423529411764 E11.821750588235298 Z38.11821365356445 ; INTERPOLATED
G1 F1800 X45.645117647058825 Y172.35870588235295 E11.846471764705887 Z38.108455657958984 ; INTERPOLATED
G1 F1800 X45.11952941176471 Y171.83317647058823 E11.871192941176476 Z38.09282684326172 ; INTERPOLATED
G1 F1800 X44.59394117647059 Y171.30764705882353 E11.895914117647065 Z38.07073974609375 ; INTERPOLATED
G1 F1800 X44.06835294117647 Y170.78211764705884 E11.920635294117654 Z38.04246139526367 ; INTERPOLATED
G1 F1800 X43.542764705882355 Y170.25658823529412 E11.945356470588242 Z38.008636474609375 ; INTERPOLATED
G1 F1800 X43.01717647058824 Y169.73105882352942 E11.970077647058831 Z37.969356536865234 ; INTERPOLATED
G1 F1800 X42.49158823529412 Y169.2055294117647 E11.99479882352942 Z37.924171447753906 ; INTERPOLATED
G1 F1800 X41.966 Y168.68 E12.01952 Z37.86452102661133
G0 F9000 X41.408 Y168.688 Z37.90272903442383
G1 F1800 X41.93522222222222 Y169.21522222222222 E12.044318888888888 Z37.95929718017578 ; INTERPOLATED
G1 F1800 X42.46244444444444 Y169.74244444444443 E12.069117777777777 Z38.008216857910156 ; INTERPOLATED
G1 F1800 X42.98966666666667 Y170.26966666666667 E12.093916666666665 Z38.05154037475586 ; INTERPOLATED
G1 F1800 X43.51688888888889 Y170.79688888888887 E12.118715555555553 Z38.08949661254883 ; INTERPOLATED
G1 F1800 X44.044111111111114 Y171.3241111111111 E12.143514444444442 Z38.12191390991211 ; INTERPOLATED
G1 F1800 X44.571333333333335 Y171.85133333333332 E12.16831333333333 Z38.147499084472656 ; INTERPOLATED
G1 F1800 X45.098555555555556 Y172.37855555555555 E12.193112222222219 Z38.167137145996094 ; INTERPOLATED
G1 F1800 X45.62577777777778 Y172.90577777777776 E12.217911111111107 Z38.18032455444336 ; INTERPOLATED
G1 F1800 X46.153000000000006 Y173.433 E12.242709999999995 Z38.18659210205078 ; INTERPOLATED
G1 F1800 X46.68022222222223 Y173.96022222222223 E12.267508888888884 Z38.186767578125 ; INTERPOLATED
G1 F1800 X47.20744444444445 Y174.48744444444444 E12.292307777777772 Z38.17949295043945 ; INTERPOLATED
G1 F1800 X47.73466666666667 Y175.01466666666667 E12.31710666666666 Z38.16619110107422 ; INTERPOLATED
G1 F1800 X48.26188888888889 Y175.54188888888888 E12.341905555555549 Z38.14610290527344 ; INTERPOLATED
G1 F1800 X48.78911111111111 Y176.0691111111111 E12.366704444444437 Z38.119686126708984 ; INTERPOLATED
G1 F1800 X49.31633333333333 Y176.59633333333332 E12.391503333333326 Z38.087554931640625 ; INTERPOLATED
G1 F1800 X49.84355555555556 Y177.12355555555555 E12.416302222222214 Z38.04902267456055 ; INTERPOLATED
G1 F1800 X50.37077777777778 Y177.65077777777776 E12.441101111111102 Z38.00497055053711 ; INTERPOLATED
G1 F1800 X50.898 Y178.178 E12.4659 Z37.955810546875
G0 F9000 X51.037 Y178.882 Z37.97195053100586
G1 F1800 X50.528999999999996 Y178.374 E12.4897945 Z38.024410247802734 ; INTERPOLATED
G1 F1800 X50.021 Y177.866 E12.513689000000001 Z38.0721549987793 ; INTERPOLATED
G1 F1800 X49.513 Y177.358 E12.537583500000002 Z38.1150016784668 ; INTERPOLATED
G1 F1800 X49.005 Y176.85 E12.561478000000003 Z38.15276336669922 ; INTERPOLATED
G1 F1800 X48.497 Y176.342 E12.585372500000004 Z38.184513092041016 ; INTERPOLATED
G1 F1800 X47.989 Y175.834 E12.609267000000004 Z38.21049880981445 ; INTERPOLATED
G1 F1800 X47.481 Y175.326 E12.633161500000005 Z38.23088836669922 ; INTERPOLATED
G1 F1800 X46.973 Y174.818 E12.657056000000006 Z38.24443817138672 ; INTERPOLATED
G1 F1800 X46.465 Y174.31 E12.680950500000007 Z38.2520866394043 ; INTERPOLATED
G1 F1800 X45.957 Y173.80200000000002 E12.704845000000008 Z38.25328063964844 ; INTERPOLATED
G1 F1800 X45.449 Y173.294 E12.728739500000009 Z38.247955322265625 ; INTERPOLATED
G1 F1800 X44.941 Y172.786 E12.75263400000001 Z38.236751556396484 ; INTERPOLATED
G1 F1800 X44.433 Y172.27800000000002 E12.77652850000001 Z38.21860122680664 ; INTERPOLATED
G1 F1800 X43.925000000000004 Y171.77 E12.800423000000011 Z38.194828033447266 ; INTERPOLATED
G1 F1800 X43.417 Y171.262 E12.824317500000012 Z38.16516876220703 ; INTERPOLATED
G1 F1800 X42.909000000000006 Y170.75400000000002 E12.848212000000013 Z38.12944793701172 ; INTERPOLATED
G1 F1800 X42.401 Y170.246 E12.872106500000013 Z38.08857345581055 ; INTERPOLATED
G1 F1800 X41.893 Y169.738 E12.896001000000014 Z38.042701721191406 ; INTERPOLATED
G1 F1800 X41.385000000000005 Y169.23000000000002 E12.919895500000015 Z37.991981506347656 ; INTERPOLATED
G1 F1800 X40.877 Y168.722 E12.94379 Z37.93632888793945
G0 F9000 X40.293 Y168.704 Z37.9583625793457
G1 F1800 X40.81390909090909 Y169.22486363636364 E12.968290909090909 Z38.01936340332031 ; INTERPOLATED
G1 F1800 X41.33481818181818 Y169.7457272727273 E12.992791818181818 Z38.075279235839844 ; INTERPOLATED
G1 F1800 X41.85572727272727 Y170.26659090909092 E13.017292727272727 Z38.12629318237305 ; INTERPOLATED
G1 F1800 X42.376636363636365 Y170.78745454545455 E13.041793636363636 Z38.172183990478516 ; INTERPOLATED
G1 F1800 X42.89754545454545 Y171.30831818181818 E13.066294545454545 Z38.212554931640625 ; INTERPOLATED
G1 F1800 X43.418454545454544 Y171.82918181818184 E13.090795454545454 Z38.246402740478516 ; INTERPOLATED
G1 F1800 X43.93936363636364 Y172.35004545454547 E13.115296363636363 Z38.274505615234375 ; INTERPOLATED
G1 F1800 X44.460272727272724 Y172.8709090909091 E13.139797272727272 Z38.295745849609375 ; INTERPOLATED
G1 F1800 X44.98118181818182 Y173.39177272727272 E13.16429818181818 Z38.31052017211914 ; INTERPOLATED
G1 F1800 X45.50209090909091 Y173.91263636363638 E13.18879909090909 Z38.31831741333008 ; INTERPOLATED
G1 F1800 X46.022999999999996 Y174.4335 E13.213299999999998 Z38.319339752197266 ; INTERPOLATED
G1 F1800 X46.54390909090909 Y174.95436363636364 E13.237800909090907 Z38.31330108642578 ; INTERPOLATED
G1 F1800 X47.06481818181818 Y175.4752272727273 E13.262301818181816 Z38.30052185058594 ; INTERPOLATED
G1 F1800 X47.58572727272727 Y175.99609090909092 E13.286802727272725 Z38.280948638916016 ; INTERPOLATED
G1 F1800 X48.10663636363636 Y176.51695454545455 E13.311303636363634 Z38.254756927490234 ; INTERPOLATED
G1 F1800 X48.627545454545455 Y177.03781818181818 E13.335804545454543 Z38.22255325317383 ; INTERPOLATED
G1 F1800 X49.14845454545454 Y177.55868181818184 E13.360305454545452 Z38.18373489379883 ; INTERPOLATED
G1 F1800 X49.669363636363634 Y178.07954545454547 E13.384806363636361 Z38.1395149230957 ; INTERPOLATED
G1 F1800 X50.19027272727273 Y178.6004090909091 E13.40930727272727 Z38.090084075927734 ; INTERPOLATED
G1 F1800 X50.71118181818182 Y179.12127272727275 E13.43380818181818 Z38.03507995605469 ; INTERPOLATED
G1 F1800 X51.23209090909091 Y179.64213636363638 E13.458309090909088 Z37.97534942626953 ; INTERPOLATED
G1 F1800 X51.753 Y180.163 E13.48281 Z37.91017532348633
G0 F9000 X52.315 Y180.199 Z37.799930572509766
G0 X52.535 Y180.66750000000002 Z37.773643493652344 ; INTERPOLATED
G0 X52.755 Y181.136 Z37.74436569213867
G0 X52.329 Y181.305 Z37.8347282409668
G1 F1800 X51.81828 Y180.79428000000001 E13.5068328 Z37.92054748535156 ; INTERPOLATED
G1 F1800 X51.30756 Y180.28356 E13.530855599999999 Z37.987545013427734 ; INTERPOLATED
G1 F1800 X50.79684 Y179.77284 E13.554878399999998 Z38.05050277709961 ; INTERPOLATED
G1 F1800 X50.28612 Y179.26212 E13.578901199999997 Z38.109161376953125 ; INTERPOLATED
G1 F1800 X49.7754 Y178.75140000000002 E13.602923999999996 Z38.163169860839844 ; INTERPOLATED
G1 F1800 X49.26468 Y178.24068 E13.626946799999995 Z38.211612701416016 ; INTERPOLATED
G1 F1800 X48.75396 Y177.72996 E13.650969599999994 Z38.254905700683594 ; INTERPOLATED
G1 F1800 X48.24324 Y177.21924 E13.674992399999994 Z38.29286575317383 ; INTERPOLATED
G1 F1800 X47.73252 Y176.70852 E13.699015199999993 Z38.32413864135742 ; INTERPOLATED
G1 F1800 X47.2218 Y176.1978 E13.723037999999992 Z38.349609375 ; INTERPOLATED
G1 F1800 X46.71108 Y175.68708 E13.747060799999991 Z38.36826705932617 ; INTERPOLATED
G1 F1800 X46.20036 Y175.17636000000002 E13.77108359999999 Z38.38047790527344 ; INTERPOLATED
G1 F1800 X45.68964 Y174.66564 E13.79510639999999 Z38.38563919067383 ; INTERPOLATED
G1 F1800 X45.17892 Y174.15492 E13.819129199999988 Z38.38420867919922 ; INTERPOLATED
G1 F1800 X44.6682 Y173.6442 E13.843151999999987 Z38.375614166259766 ; INTERPOLATED
G1 F1800 X44.15748 Y173.13348000000002 E13.867174799999987 Z38.360591888427734 ; INTERPOLATED
G1 F1800 X43.64676 Y172.62276 E13.891197599999986 Z38.338623046875 ; INTERPOLATED
G1 F1800 X43.13604 Y172.11204 E13.915220399999985 Z38.31044387817383 ; INTERPOLATED
G1 F1800 X42.62532 Y171.60132000000002 E13.939243199999984 Z38.27610397338867 ; INTERPOLATED
G1 F1800 X42.114599999999996 Y171.0906 E13.963265999999983 Z38.23562240600586 ; INTERPOLATED
G1 F1800 X41.603880000000004 Y170.57988 E13.987288799999982 Z38.18989562988281 ; INTERPOLATED
G1 F1800 X41.09316 Y170.06916 E14.011311599999981 Z38.13898468017578 ; INTERPOLATED
G1 F1800 X40.58244 Y169.55844000000002 E14.03533439999998 Z38.08273696899414 ; INTERPOLATED
G1 F1800 X40.07172 Y169.04772 E14.05935719999998 Z38.02204895019531 ; INTERPOLATED
G1 F1800 X39.561 Y168.537 E14.08338 Z37.95718765258789
G0 F9000 X39.77 Y168.126 Z37.876522064208984
G0 X39.161 Y167.70966666666666 Z37.81513214111328 ; INTERPOLATED
G0 X38.552 Y167.29333333333335 Z37.748146057128906 ; INTERPOLATED
G0 X37.943 Y166.877 Z37.67585372924805
G0 X37.748 Y167.29 Z37.762550354003906
G1 F1800 X38.277249999999995 Y167.81921428571428 E14.10827357142857 Z37.86066818237305 ; INTERPOLATED
G1 F1800 X38.8065 Y168.34842857142857 E14.133167142857141 Z37.94724655151367 ; INTERPOLATED
G1 F1800 X39.33575 Y168.87764285714286 E14.158060714285712 Z38.01958465576172 ; INTERPOLATED
G1 F1800 X39.864999999999995 Y169.40685714285715 E14.182954285714283 Z38.087684631347656 ; INTERPOLATED
G1 F1800 X40.39425 Y169.9360714285714 E14.207847857142854 Z38.15122985839844 ; INTERPOLATED
G1 F1800 X40.9235 Y170.4652857142857 E14.232741428571424 Z38.209957122802734 ; INTERPOLATED
G1 F1800 X41.45275 Y170.9945 E14.257634999999995 Z38.26292037963867 ; INTERPOLATED
G1 F1800 X41.982 Y171.52371428571428 E14.282528571428566 Z38.31007385253906 ; INTERPOLATED
G1 F1800 X42.51125 Y172.05292857142857 E14.307422142857137 Z38.351409912109375 ; INTERPOLATED
G1 F1800 X43.0405 Y172.58214285714286 E14.332315714285707 Z38.38558578491211 ; INTERPOLATED
G1 F1800 X43.56975 Y173.11135714285714 E14.357209285714278 Z38.41338348388672 ; INTERPOLATED
G1 F1800 X44.099 Y173.64057142857143 E14.382102857142849 Z38.43095397949219 ; INTERPOLATED
G1 F1800 X44.62825 Y174.16978571428572 E14.40699642857142 Z38.44101333618164 ; INTERPOLATED
G1 F1800 X45.1575 Y174.699 E14.43188999999999 Z38.44533920288086 ; INTERPOLATED
G1 F1800 X45.686749999999996 Y175.22821428571427 E14.456783571428561 Z38.44343948364258 ; INTERPOLATED
G1 F1800 X46.216 Y175.75742857142856 E14.481677142857132 Z38.43598937988281 ; INTERPOLATED
G1 F1800 X46.74525 Y176.28664285714285 E14.506570714285703 Z38.42252731323242 ; INTERPOLATED
G1 F1800 X47.2745 Y176.81585714285714 E14.531464285714273 Z38.39809799194336 ; INTERPOLATED
G1 F1800 X47.80375 Y177.34507142857143 E14.556357857142844 Z38.3665885925293 ; INTERPOLATED
G1 F1800 X48.333 Y177.87428571428572 E14.581251428571415 Z38.32817077636719 ; INTERPOLATED
G1 F1800 X48.86225 Y178.4035 E14.606144999999986 Z38.283470153808594 ; INTERPOLATED
G1 F1800 X49.3915 Y178.9327142857143 E14.631038571428556 Z38.23303985595703 ; INTERPOLATED
G1 F1800 X49.92075 Y179.4619285714286 E14.655932142857127 Z38.176490783691406 ; INTERPOLATED
G1 F1800 X50.45 Y179.99114285714285 E14.680825714285698 Z38.114994049072266 ; INTERPOLATED
G1 F1800 X50.97925 Y180.52035714285714 E14.705719285714268 Z38.048824310302734 ; INTERPOLATED
G1 F1800 X51.5085 Y181.04957142857143 E14.73061285714284 Z37.97825622558594 ; INTERPOLATED
G1 F1800 X52.03775 Y181.57878571428571 E14.75550642857141 Z37.90074920654297 ; INTERPOLATED
G1 F1800 X52.567 Y182.108 E14.7804 Z37.804447174072266
G0 F9000 X52.666 Y182.773 Z37.792789459228516
G1 F1800 X52.14153333333333 Y182.24853333333334 E14.805069 Z37.89316177368164 ; INTERPOLATED
G1 F1800 X51.617066666666666 Y181.72406666666666 E14.829737999999999 Z37.97570037841797 ; INTERPOLATED
G1 F1800 X51.0926 Y181.1996 E14.854406999999998 Z38.05031967163086 ; INTERPOLATED
G1 F1800 X50.56813333333333 Y180.67513333333332 E14.879075999999998 Z38.1207160949707 ; INTERPOLATED
G1 F1800 X50.04366666666667 Y180.15066666666667 E14.903744999999997 Z38.18667221069336 ; INTERPOLATED
G1 F1800 X49.5192 Y179.62619999999998 E14.928413999999997 Z38.247920989990234 ; INTERPOLATED
G1 F1800 X48.99473333333333 Y179.10173333333333 E14.953082999999996 Z38.30419921875 ; INTERPOLATED
G1 F1800 X48.47026666666667 Y178.57726666666667 E14.977751999999995 Z38.35443878173828 ; INTERPOLATED
G1 F1800 X47.9458 Y178.0528 E15.002420999999995 Z38.39875411987305 ; INTERPOLATED
G1 F1800 X47.42133333333333 Y177.52833333333334 E15.027089999999994 Z38.433345794677734 ; INTERPOLATED
G1 F1800 X46.89686666666667 Y177.00386666666665 E15.051758999999993 Z38.4573860168457 ; INTERPOLATED
G1 F1800 X46.3724 Y176.4794 E15.076427999999993 Z38.47579574584961 ; INTERPOLATED
G1 F1800 X45.84793333333333 Y175.95493333333332 E15.101096999999992 Z38.4887580871582 ; INTERPOLATED
G1 F1800 X45.32346666666667 Y175.43046666666666 E15.125765999999992 Z38.49538040161133 ; INTERPOLATED
G1 F1800 X44.799 Y174.90599999999998 E15.150434999999991 Z38.49623107910156 ; INTERPOLATED
G1 F1800 X44.27453333333333 Y174.38153333333332 E15.17510399999999 Z38.491336822509766 ; INTERPOLATED
G1 F1800 X43.75006666666667 Y173.85706666666667 E15.19977299999999 Z38.480037689208984 ; INTERPOLATED
G1 F1800 X43.2256 Y173.33259999999999 E15.22444199999999 Z38.46321105957031 ; INTERPOLATED
G1 F1800 X42.70113333333333 Y172.80813333333333 E15.249110999999989 Z38.440799713134766 ; INTERPOLATED
G1 F1800 X42.17666666666667 Y172.28366666666665 E15.273779999999988 Z38.41020202636719 ; INTERPOLATED
G1 F1800 X41.6522 Y171.7592 E15.298448999999987 Z38.3678092956543 ; INTERPOLATED
G1 F1800 X41.12773333333333 Y171.2347333333333 E15.323117999999987 Z38.319068908691406 ; INTERPOLATED
G1 F1800 X40.60326666666667 Y170.71026666666666 E15.347786999999986 Z38.26447296142578 ; INTERPOLATED
G1 F1800 X40.0788 Y170.1858 E15.372455999999985 Z38.204803466796875 ; INTERPOLATED
G1 F1800 X39.55433333333333 Y169.66133333333332 E15.397124999999985 Z38.14019775390625 ; INTERPOLATED
G1 F1800 X39.02986666666667 Y169.13686666666666 E15.421793999999984 Z38.07069778442383 ; INTERPOLATED
G1 F1800 X38.5054 Y168.61239999999998 E15.446462999999984 Z37.997135162353516 ; INTERPOLATED
G1 F1800 X37.98093333333333 Y168.08793333333332 E15.471131999999983 Z37.919822692871094 ; INTERPOLATED
G1 F1800 X37.45646666666667 Y167.56346666666664 E15.495800999999982 Z37.821598052978516 ; INTERPOLATED
G1 F1800 X36.932 Y167.039 E15.52047 Z37.718772888183594
G0 F9000 X36.371 Y167.044 Z37.719791412353516
G1 F1800 X36.897612903225806 Y167.57061290322582 E15.545240322580645 Z37.826820373535156 ; INTERPOLATED
G1 F1800 X37.42422580645162 Y168.09722580645163 E15.57001064516129 Z37.9276237487793 ; INTERPOLATED
G1 F1800 X37.95083870967742 Y168.62383870967744 E15.594780967741935 Z38.008663177490234 ; INTERPOLATED
G1 F1800 X38.477451612903224 Y169.15045161290323 E15.61955129032258 Z38.08615493774414 ; INTERPOLATED
G1 F1800 X39.004064516129034 Y169.67706451612904 E15.644321612903225 Z38.15974807739258 ; INTERPOLATED
G1 F1800 X39.53067741935484 Y170.20367741935485 E15.66909193548387 Z38.228668212890625 ; INTERPOLATED
G1 F1800 X40.05729032258065 Y170.73029032258066 E15.693862258064515 Z38.292728424072266 ; INTERPOLATED
G1 F1800 X40.58390322580645 Y171.25690322580647 E15.71863258064516 Z38.351806640625 ; INTERPOLATED
G1 F1800 X41.11051612903226 Y171.78351612903228 E15.743402903225805 Z38.40523147583008 ; INTERPOLATED
G1 F1800 X41.637129032258066 Y172.31012903225806 E15.76817322580645 Z38.4454231262207 ; INTERPOLATED
G1 F1800 X42.16374193548387 Y172.83674193548387 E15.792943548387095 Z38.476985931396484 ; INTERPOLATED
G1 F1800 X42.69035483870968 Y173.36335483870968 E15.81771387096774 Z38.50296401977539 ; INTERPOLATED
G1 F1800 X43.216967741935484 Y173.8899677419355 E15.842484193548385 Z38.52321243286133 ; INTERPOLATED
G1 F1800 X43.74358064516129 Y174.4165806451613 E15.86725451612903 Z38.5377311706543 ; INTERPOLATED
G1 F1800 X44.2701935483871 Y174.94319354838711 E15.892024838709675 Z38.545928955078125 ; INTERPOLATED
G1 F1800 X44.7968064516129 Y175.4698064516129 E15.91679516129032 Z38.5478401184082 ; INTERPOLATED
G1 F1800 X45.323419354838705 Y175.9964193548387 E15.941565483870965 Z38.54364776611328 ; INTERPOLATED
G1 F1800 X45.850032258064516 Y176.52303225806452 E15.96633580645161 Z38.533424377441406 ; INTERPOLATED
G1 F1800 X46.37664516129032 Y177.04964516129033 E15.991106129032255 Z38.51669692993164 ; INTERPOLATED
G1 F1800 X46.90325806451613 Y177.57625806451614 E16.0158764516129 Z38.49433135986328 ; INTERPOLATED
G1 F1800 X47.429870967741934 Y178.10287096774195 E16.040646774193547 Z38.46647262573242 ; INTERPOLATED
G1 F1800 X47.95648387096774 Y178.62948387096773 E16.065417096774194 Z38.433006286621094 ; INTERPOLATED
G1 F1800 X48.48309677419355 Y179.15609677419354 E16.09018741935484 Z38.38699722290039 ; INTERPOLATED
G1 F1800 X49.00970967741935 Y179.68270967741935 E16.114957741935488 Z38.33150863647461 ; INTERPOLATED
G1 F1800 X49.53632258064516 Y180.20932258064516 E16.139728064516135 Z38.2704963684082 ; INTERPOLATED
G1 F1800 X50.062935483870966 Y180.73593548387097 E16.16449838709678 Z38.20461654663086 ; INTERPOLATED
G1 F1800 X50.58954838709677 Y181.26254838709679 E16.189268709677428 Z38.134159088134766 ; INTERPOLATED
G1 F1800 X51.11616129032258 Y181.78916129032257 E16.214039032258075 Z38.05927276611328 ; INTERPOLATED
G1 F1800 X51.642774193548384 Y182.31577419354838 E16.238809354838722 Z37.9804801940918 ; INTERPOLATED
G1 F1800 X52.16938709677419 Y182.8423870967742 E16.26357967741937 Z37.89423751831055 ; INTERPOLATED
G1 F1800 X52.696 Y183.369 E16.28835 Z37.78924560546875
G0 F9000 X52.665 Y183.904 Z37.79383087158203
G1 F1800 X52.1415 Y183.38049999999998 E16.3129740625 Z37.901973724365234 ; INTERPOLATED
G1 F1800 X51.618 Y182.857 E16.337598125 Z37.989593505859375 ; INTERPOLATED
G1 F1800 X51.0945 Y182.3335 E16.3622221875 Z38.07126235961914 ; INTERPOLATED
G1 F1800 X50.571 Y181.81 E16.386846249999998 Z38.14933776855469 ; INTERPOLATED
G1 F1800 X50.0475 Y181.2865 E16.411470312499997 Z38.2232666015625 ; INTERPOLATED
G1 F1800 X49.524 Y180.763 E16.436094374999996 Z38.2928352355957 ; INTERPOLATED
G1 F1800 X49.000499999999995 Y180.2395 E16.460718437499995 Z38.35774230957031 ; INTERPOLATED
G1 F1800 X48.477 Y179.716 E16.485342499999994 Z38.417667388916016 ; INTERPOLATED
G1 F1800 X47.9535 Y179.1925 E16.509966562499994 Z38.46010971069336 ; INTERPOLATED
G1 F1800 X47.43 Y178.66899999999998 E16.534590624999993 Z38.49725341796875 ; INTERPOLATED
G1 F1800 X46.906499999999994 Y178.1455 E16.559214687499992 Z38.52873229980469 ; INTERPOLATED
G1 F1800 X46.382999999999996 Y177.62199999999999 E16.58383874999999 Z38.55500411987305 ; INTERPOLATED
G1 F1800 X45.8595 Y177.0985 E16.60846281249999 Z38.57542037963867 ; INTERPOLATED
G1 F1800 X45.336 Y176.575 E16.63308687499999 Z38.58952713012695 ; INTERPOLATED
G1 F1800 X44.8125 Y176.0515 E16.65771093749999 Z38.59748840332031 ; INTERPOLATED
G1 F1800 X44.289 Y175.528 E16.682334999999988 Z38.59917449951172 ; INTERPOLATED
G1 F1800 X43.765499999999996 Y175.00449999999998 E16.706959062499987 Z38.59449768066406 ; INTERPOLATED
G1 F1800 X43.242 Y174.481 E16.731583124999986 Z38.583187103271484 ; INTERPOLATED
G1 F1800 X42.7185 Y173.95749999999998 E16.756207187499985 Z38.5657958984375 ; INTERPOLATED
G1 F1800 X42.19499999999999 Y173.434 E16.780831249999984 Z38.54262924194336 ; INTERPOLATED
G1 F1800 X41.671499999999995 Y172.91049999999998 E16.805455312499983 Z38.51355743408203 ; INTERPOLATED
G1 F1800 X41.147999999999996 Y172.387 E16.830079374999983 Z38.47916793823242 ; INTERPOLATED
G1 F1800 X40.6245 Y171.8635 E16.854703437499982 Z38.43982696533203 ; INTERPOLATED
G1 F1800 X40.101 Y171.33999999999997 E16.87932749999998 Z38.388248443603516 ; INTERPOLATED
G1 F1800 X39.57749999999999 Y170.8165 E16.90395156249998 Z38.32577133178711 ; INTERPOLATED
G1 F1800 X39.053999999999995 Y170.29299999999998 E16.92857562499998 Z38.258487701416016 ; INTERPOLATED
G1 F1800 X38.530499999999996 Y169.7695 E16.95319968749998 Z38.18669509887695 ; INTERPOLATED
G1 F1800 X38.00699999999999 Y169.24599999999998 E16.977823749999978 Z38.11066436767578 ; INTERPOLATED
G1 F1800 X37.48349999999999 Y168.7225 E17.002447812499977 Z38.03068923950195 ; INTERPOLATED
G1 F1800 X36.959999999999994 Y168.19899999999998 E17.027071874999976 Z37.94737243652344 ; INTERPOLATED
G1 F1800 X36.436499999999995 Y167.6755 E17.051695937499975 Z37.84814453125 ; INTERPOLATED
G1 F1800 X35.913 Y167.152 E17.07632 Z37.73830795288086
G0 F9000 X35.52 Y167.324 Z37.768436431884766
G1 F1800 X36.037333333333336 Y167.84136363636364 E17.10065424242424 Z37.879276275634766 ; INTERPOLATED
G1 F1800 X36.55466666666667 Y168.3587272727273 E17.124988484848483 Z37.973846435546875 ; INTERPOLATED
G1 F1800 X37.072 Y168.87609090909092 E17.149322727272725 Z38.058677673339844 ; INTERPOLATED
G1 F1800 X37.589333333333336 Y169.39345454545455 E17.173656969696967 Z38.140235900878906 ; INTERPOLATED
G1 F1800 X38.10666666666667 Y169.9108181818182 E17.19799121212121 Z38.21817398071289 ; INTERPOLATED
G1 F1800 X38.624 Y170.42818181818183 E17.22232545454545 Z38.29215621948242 ; INTERPOLATED
G1 F1800 X39.141333333333336 Y170.94554545454545 E17.246659696969694 Z38.36186599731445 ; INTERPOLATED
G1 F1800 X39.65866666666667 Y171.4629090909091 E17.270993939393936 Z38.425872802734375 ; INTERPOLATED
G1 F1800 X40.176 Y171.98027272727273 E17.295328181818178 Z38.47178649902344 ; INTERPOLATED
G1 F1800 X40.693333333333335 Y172.49763636363636 E17.31966242424242 Z38.51356506347656 ; INTERPOLATED
G1 F1800 X41.21066666666667 Y173.01500000000001 E17.343996666666662 Z38.550262451171875 ; INTERPOLATED
G1 F1800 X41.728 Y173.53236363636364 E17.368330909090904 Z38.582054138183594 ; INTERPOLATED
G1 F1800 X42.245333333333335 Y174.04972727272727 E17.392665151515146 Z38.60780715942383 ; INTERPOLATED
G1 F1800 X42.76266666666667 Y174.56709090909092 E17.41699939393939 Z38.62781524658203 ; INTERPOLATED
G1 F1800 X43.28 Y175.08445454545455 E17.44133363636363 Z38.64175033569336 ; INTERPOLATED
G1 F1800 X43.797333333333334 Y175.60181818181817 E17.465667878787873 Z38.64937973022461 ; INTERPOLATED
G1 F1800 X44.31466666666667 Y176.11918181818183 E17.490002121212115 Z38.65034103393555 ; INTERPOLATED
G1 F1800 X44.832 Y176.63654545454546 E17.514336363636357 Z38.64478302001953 ; INTERPOLATED
G1 F1800 X45.349333333333334 Y177.15390909090908 E17.5386706060606 Z38.63288116455078 ; INTERPOLATED
G1 F1800 X45.86666666666667 Y177.67127272727274 E17.56300484848484 Z38.61482238769531 ; INTERPOLATED
G1 F1800 X46.384 Y178.18863636363636 E17.587339090909083 Z38.59086227416992 ; INTERPOLATED
G1 F1800 X46.90133333333333 Y178.706 E17.611673333333325 Z38.560829162597656 ; INTERPOLATED
G1 F1800 X47.41866666666667 Y179.22336363636364 E17.636007575757567 Z38.52573013305664 ; INTERPOLATED
G1 F1800 X47.936 Y179.74072727272727 E17.66034181818181 Z38.48548889160156 ; INTERPOLATED
G1 F1800 X48.45333333333333 Y180.2580909090909 E17.68467606060605 Z38.44086456298828 ; INTERPOLATED
G1 F1800 X48.970666666666666 Y180.77545454545455 E17.709010303030293 Z38.38288497924805 ; INTERPOLATED
G1 F1800 X49.488 Y181.29281818181818 E17.733344545454536 Z38.314727783203125 ; INTERPOLATED
G1 F1800 X50.00533333333333 Y181.8101818181818 E17.757678787878778 Z38.24216079711914 ; INTERPOLATED
G1 F1800 X50.522666666666666 Y182.32754545454546 E17.78201303030302 Z38.165504455566406 ; INTERPOLATED
G1 F1800 X51.04 Y182.84490909090908 E17.806347272727262 Z38.08507537841797 ; INTERPOLATED
G1 F1800 X51.55733333333333 Y183.3622727272727 E17.830681515151504 Z38.001216888427734 ; INTERPOLATED
G1 F1800 X52.074666666666666 Y183.87963636363637 E17.855015757575746 Z37.913883209228516 ; INTERPOLATED
G1 F1800 X52.592 Y184.397 E17.87935 Z37.803836822509766
G0 F9000 X52.487 Y184.857 Z37.81796646118164
G1 F1800 X51.96275757575758 Y184.33275757575757 E17.904008787878787 Z37.929256439208984 ; INTERPOLATED
G1 F1800 X51.438515151515155 Y183.80851515151514 E17.928667575757576 Z38.01980972290039 ; INTERPOLATED
G1 F1800 X50.91427272727273 Y183.28427272727274 E17.953326363636364 Z38.1074104309082 ; INTERPOLATED
G1 F1800 X50.3900303030303 Y182.7600303030303 E17.977985151515153 Z38.19170379638672 ; INTERPOLATED
G1 F1800 X49.86578787878788 Y182.23578787878787 E18.00264393939394 Z38.2723274230957 ; INTERPOLATED
G1 F1800 X49.341545454545454 Y181.71154545454544 E18.02730272727273 Z38.348934173583984 ; INTERPOLATED
G1 F1800 X48.81730303030303 Y181.187303030303 E18.05196151515152 Z38.42119216918945 ; INTERPOLATED
G1 F1800 X48.29306060606061 Y180.6630606060606 E18.076620303030307 Z38.47346115112305 ; INTERPOLATED
G1 F1800 X47.76881818181818 Y180.13881818181818 E18.101279090909095 Z38.521087646484375 ; INTERPOLATED
G1 F1800 X47.24457575757576 Y179.61457575757575 E18.125937878787884 Z38.564300537109375 ; INTERPOLATED
G1 F1800 X46.720333333333336 Y179.09033333333332 E18.150596666666672 Z38.60213088989258 ; INTERPOLATED
G1 F1800 X46.19609090909091 Y178.56609090909092 E18.17525545454546 Z38.634456634521484 ; INTERPOLATED
G1 F1800 X45.67184848484848 Y178.0418484848485 E18.19991424242425 Z38.66094970703125 ; INTERPOLATED
G1 F1800 X45.14760606060606 Y177.51760606060606 E18.224573030303038 Z38.681156158447266 ; INTERPOLATED
G1 F1800 X44.623363636363635 Y176.99336363636363 E18.249231818181826 Z38.69462966918945 ; INTERPOLATED
G1 F1800 X44.09912121212121 Y176.4691212121212 E18.273890606060615 Z38.70125198364258 ; INTERPOLATED
G1 F1800 X43.57487878787879 Y175.9448787878788 E18.298549393939403 Z38.70097351074219 ; INTERPOLATED
G1 F1800 X43.050636363636364 Y175.42063636363636 E18.32320818181819 Z38.69378662109375 ; INTERPOLATED
G1 F1800 X42.52639393939394 Y174.89639393939393 E18.34786696969698 Z38.679805755615234 ; INTERPOLATED
G1 F1800 X42.00215151515151 Y174.3721515151515 E18.37252575757577 Z38.659271240234375 ; INTERPOLATED
G1 F1800 X41.477909090909094 Y173.84790909090907 E18.397184545454557 Z38.632530212402344 ; INTERPOLATED
G1 F1800 X40.95366666666666 Y173.32366666666667 E18.421843333333346 Z38.599815368652344 ; INTERPOLATED
G1 F1800 X40.42942424242424 Y172.79942424242424 E18.446502121212134 Z38.561370849609375 ; INTERPOLATED
G1 F1800 X39.905181818181816 Y172.2751818181818 E18.471160909090923 Z38.51821517944336 ; INTERPOLATED
G1 F1800 X39.38093939393939 Y171.75093939393938 E18.49581969696971 Z38.469905853271484 ; INTERPOLATED
G1 F1800 X38.85669696969697 Y171.22669696969695 E18.5204784848485 Z38.41644287109375 ; INTERPOLATED
G1 F1800 X38.332454545454546 Y170.70245454545454 E18.54513727272729 Z38.344146728515625 ; INTERPOLATED
G1 F1800 X37.80821212121212 Y170.1782121212121 E18.569796060606077 Z38.267032623291016 ; INTERPOLATED
G1 F1800 X37.28396969696969 Y169.65396969696968 E18.594454848484865 Z38.186031341552734 ; INTERPOLATED
G1 F1800 X36.759727272727275 Y169.12972727272725 E18.619113636363654 Z38.10148239135742 ; INTERPOLATED
G1 F1800 X36.235484848484845 Y168.60548484848482 E18.643772424242442 Z38.01375198364258 ; INTERPOLATED
G1 F1800 X35.71124242424242 Y168.08124242424242 E18.66843121212123 Z37.923213958740234 ; INTERPOLATED
G1 F1800 X35.187 Y167.557 E18.69309 Z37.810543060302734
G0 F9000 X34.89 Y167.826 Z37.858219146728516
G1 F1800 X35.41924242424243 Y168.35524242424242 E18.717983939393942 Z37.964786529541016 ; INTERPOLATED
G1 F1800 X35.948484848484846 Y168.88448484848485 E18.742877878787883 Z38.05810546875 ; INTERPOLATED
G1 F1800 X36.47772727272727 Y169.41372727272727 E18.767771818181824 Z38.14849853515625 ; INTERPOLATED
G1 F1800 X37.0069696969697 Y169.9429696969697 E18.792665757575765 Z38.23558044433594 ; INTERPOLATED
G1 F1800 X37.536212121212124 Y170.47221212121212 E18.817559696969706 Z38.318973541259766 ; INTERPOLATED
G1 F1800 X38.06545454545454 Y171.00145454545455 E18.842453636363647 Z38.39833450317383 ; INTERPOLATED
G1 F1800 X38.59469696969697 Y171.53069696969698 E18.867347575757588 Z38.46176528930664 ; INTERPOLATED
G1 F1800 X39.123939393939395 Y172.05993939393937 E18.89224151515153 Z38.51595687866211 ; INTERPOLATED
G1 F1800 X39.65318181818182 Y172.5891818181818 E18.91713545454547 Z38.56555938720703 ; INTERPOLATED
G1 F1800 X40.18242424242424 Y173.11842424242423 E18.94202939393941 Z38.61053466796875 ; INTERPOLATED
G1 F1800 X40.711666666666666 Y173.64766666666665 E18.96692333333335 Z38.650146484375 ; INTERPOLATED
G1 F1800 X41.24090909090909 Y174.17690909090908 E18.991817272727292 Z38.683799743652344 ; INTERPOLATED
G1 F1800 X41.77015151515151 Y174.7061515151515 E19.016711212121233 Z38.7112922668457 ; INTERPOLATED
G1 F1800 X42.29939393939394 Y175.23539393939393 E19.041605151515174 Z38.73214340209961 ; INTERPOLATED
G1 F1800 X42.82863636363636 Y175.76463636363636 E19.066499090909115 Z38.74600601196289 ; INTERPOLATED
G1 F1800 X43.35787878787879 Y176.29387878787878 E19.091393030303056 Z38.75263977050781 ; INTERPOLATED
G1 F1800 X43.887121212121215 Y176.8231212121212 E19.116286969696997 Z38.75193405151367 ; INTERPOLATED
G1 F1800 X44.416363636363634 Y177.35236363636363 E19.141180909090938 Z38.743900299072266 ; INTERPOLATED
G1 F1800 X44.94560606060606 Y177.88160606060606 E19.16607484848488 Z38.72868728637695 ; INTERPOLATED
G1 F1800 X45.474848484848486 Y178.4108484848485 E19.19096878787882 Z38.70655059814453 ; INTERPOLATED
G1 F1800 X46.004090909090905 Y178.9400909090909 E19.21586272727276 Z38.67787551879883 ; INTERPOLATED
G1 F1800 X46.53333333333333 Y179.46933333333334 E19.2407566666667 Z38.64307403564453 ; INTERPOLATED
G1 F1800 X47.06257575757576 Y179.99857575757576 E19.265650606060643 Z38.60226058959961 ; INTERPOLATED
G1 F1800 X47.591818181818184 Y180.5278181818182 E19.290544545454583 Z38.556495666503906 ; INTERPOLATED
G1 F1800 X48.12106060606061 Y181.0570606060606 E19.315438484848524 Z38.50579833984375 ; INTERPOLATED
G1 F1800 X48.65030303030303 Y181.58630303030301 E19.340332424242465 Z38.45115661621094 ; INTERPOLATED
G1 F1800 X49.179545454545455 Y182.11554545454544 E19.365226363636406 Z38.383541107177734 ; INTERPOLATED
G1 F1800 X49.70878787878788 Y182.64478787878787 E19.390120303030347 Z38.303218841552734 ; INTERPOLATED
G1 F1800 X50.2380303030303 Y183.1740303030303 E19.415014242424288 Z38.218997955322266 ; INTERPOLATED
G1 F1800 X50.767272727272726 Y183.70327272727272 E19.43990818181823 Z38.1312370300293 ; INTERPOLATED
G1 F1800 X51.29651515151515 Y184.23251515151514 E19.46480212121217 Z38.04031753540039 ; INTERPOLATED
G1 F1800 X51.82575757575758 Y184.76175757575757 E19.48969606060611 Z37.946632385253906 ; INTERPOLATED
G1 F1800 X52.355 Y185.291 E19.51459 Z37.835662841796875
G0 F9000 X52.193 Y185.695 Z37.85745620727539
G1 F1800 X51.67526470588235 Y185.17726470588235 E19.53894264705882 Z37.964603424072266 ; INTERPOLATED
G1 F1800 X51.157529411764706 Y184.6595294117647 E19.563295294117644 Z38.0583610534668 ; INTERPOLATED
G1 F1800 X50.63979411764706 Y184.14179411764707 E19.587647941176467 Z38.149715423583984 ; INTERPOLATED
G1 F1800 X50.12205882352941 Y183.6240588235294 E19.61200058823529 Z38.238277435302734 ; INTERPOLATED
G1 F1800 X49.604323529411765 Y183.10632352941175 E19.636353235294113 Z38.323673248291016 ; INTERPOLATED
G1 F1800 X49.086588235294116 Y182.5885882352941 E19.660705882352936 Z38.4055290222168 ; INTERPOLATED
G1 F1800 X48.56885294117647 Y182.07085294117647 E19.68505852941176 Z38.46965026855469 ; INTERPOLATED
G1 F1800 X48.051117647058824 Y181.55311764705883 E19.70941117647058 Z38.52619934082031 ; INTERPOLATED
G1 F1800 X47.533382352941175 Y181.03538235294118 E19.733763823529404 Z38.5789909362793 ; INTERPOLATED
G1 F1800 X47.01564705882353 Y180.51764705882354 E19.758116470588227 Z38.627464294433594 ; INTERPOLATED
G1 F1800 X46.49791176470588 Y179.99991176470587 E19.78246911764705 Z38.67103958129883 ; INTERPOLATED
G1 F1800 X45.98017647058823 Y179.48217647058823 E19.806821764705873 Z38.70914840698242 ; INTERPOLATED
G1 F1800 X45.46244117647059 Y178.9644411764706 E19.831174411764696 Z38.74153137207031 ; INTERPOLATED
G1 F1800 X44.94470588235294 Y178.44670588235294 E19.85552705882352 Z38.767635345458984 ; INTERPOLATED
G1 F1800 X44.42697058823529 Y177.9289705882353 E19.87987970588234 Z38.787025451660156 ; INTERPOLATED
G1 F1800 X43.90923529411765 Y177.41123529411766 E19.904232352941165 Z38.79936218261719 ; INTERPOLATED
G1 F1800 X43.3915 Y176.89350000000002 E19.928584999999988 Z38.80446243286133 ; INTERPOLATED
G1 F1800 X42.87376470588235 Y176.37576470588235 E19.95293764705881 Z38.80222702026367 ; INTERPOLATED
G1 F1800 X42.35602941176471 Y175.8580294117647 E19.977290294117633 Z38.792724609375 ; INTERPOLATED
G1 F1800 X41.83829411764706 Y175.34029411764706 E20.001642941176456 Z38.776100158691406 ; INTERPOLATED
G1 F1800 X41.32055882352941 Y174.82255882352942 E20.02599558823528 Z38.75264358520508 ; INTERPOLATED
G1 F1800 X40.80282352941177 Y174.30482352941178 E20.050348235294102 Z38.72277069091797 ; INTERPOLATED
G1 F1800 X40.28508823529412 Y173.78708823529414 E20.074700882352925 Z38.68699264526367 ; INTERPOLATED
G1 F1800 X39.767352941176476 Y173.26935294117646 E20.099053529411748 Z38.64528274536133 ; INTERPOLATED
G1 F1800 X39.24961764705883 Y172.75161764705882 E20.12340617647057 Z38.598785400390625 ; INTERPOLATED
G1 F1800 X38.731882352941184 Y172.23388235294118 E20.147758823529394 Z38.54761505126953 ; INTERPOLATED
G1 F1800 X38.214147058823535 Y171.71614705882354 E20.172111470588217 Z38.49259948730469 ; INTERPOLATED
G1 F1800 X37.696411764705886 Y171.1984117647059 E20.19646411764704 Z38.433502197265625 ; INTERPOLATED
G1 F1800 X37.17867647058824 Y170.68067647058825 E20.220816764705862 Z38.35654067993164 ; INTERPOLATED
G1 F1800 X36.660941176470594 Y170.1629411764706 E20.245169411764685 Z38.272525787353516 ; INTERPOLATED
G1 F1800 X36.143205882352945 Y169.64520588235297 E20.269522058823508 Z38.18517303466797 ; INTERPOLATED
G1 F1800 X35.6254705882353 Y169.1274705882353 E20.29387470588233 Z38.094844818115234 ; INTERPOLATED
G1 F1800 X35.10773529411765 Y168.60973529411766 E20.318227352941154 Z38.00194549560547 ; INTERPOLATED
G1 F1800 X34.59 Y168.092 E20.34258 Z37.904754638671875
G0 F9000 X34.249 Y168.316 Z37.93499755859375
G1 F1800 X34.77114705882353 Y168.83817647058825 E20.367140882352942 Z38.033203125 ; INTERPOLATED
G1 F1800 X35.29329411764706 Y169.36035294117647 E20.391701764705882 Z38.12888717651367 ; INTERPOLATED
G1 F1800 X35.81544117647059 Y169.88252941176472 E20.416262647058822 Z38.221858978271484 ; INTERPOLATED
G1 F1800 X36.33758823529412 Y170.40470588235294 E20.440823529411762 Z38.31202697753906 ; INTERPOLATED
G1 F1800 X36.85973529411765 Y170.9268823529412 E20.465384411764703 Z38.39899444580078 ; INTERPOLATED
G1 F1800 X37.381882352941176 Y171.4490588235294 E20.489945294117643 Z38.46862030029297 ; INTERPOLATED
G1 F1800 X37.90402941176471 Y171.97123529411766 E20.514506176470583 Z38.52962112426758 ; INTERPOLATED
G1 F1800 X38.42617647058824 Y172.49341176470588 E20.539067058823523 Z38.587127685546875 ; INTERPOLATED
G1 F1800 X38.948323529411766 Y173.01558823529413 E20.563627941176463 Z38.64048767089844 ; INTERPOLATED
G1 F1800 X39.470470588235294 Y173.53776470588235 E20.588188823529403 Z38.68915557861328 ; INTERPOLATED
G1 F1800 X39.99261764705882 Y174.0599411764706 E20.612749705882344 Z38.73252487182617 ; INTERPOLATED
G1 F1800 X40.51476470588236 Y174.58211764705882 E20.637310588235284 Z38.77025604248047 ; INTERPOLATED
G1 F1800 X41.036911764705884 Y175.10429411764707 E20.661871470588224 Z38.80169677734375 ; INTERPOLATED
G1 F1800 X41.55905882352941 Y175.6264705882353 E20.686432352941164 Z38.82339859008789 ; INTERPOLATED
G1 F1800 X42.08120588235295 Y176.14864705882354 E20.710993235294104 Z38.835792541503906 ; INTERPOLATED
G1 F1800 X42.603352941176475 Y176.67082352941176 E20.735554117647045 Z38.842811584472656 ; INTERPOLATED
G1 F1800 X43.1255 Y177.19299999999998 E20.760114999999985 Z38.844356536865234 ; INTERPOLATED
G1 F1800 X43.64764705882353 Y177.71517647058823 E20.784675882352925 Z38.84038162231445 ; INTERPOLATED
G1 F1800 X44.16979411764706 Y178.23735294117648 E20.809236764705865 Z38.830902099609375 ; INTERPOLATED
G1 F1800 X44.69194117647059 Y178.7595294117647 E20.833797647058805 Z38.8160400390625 ; INTERPOLATED
G1 F1800 X45.21408823529412 Y179.28170588235295 E20.858358529411746 Z38.78826141357422 ; INTERPOLATED
G1 F1800 X45.73623529411765 Y179.80388235294117 E20.882919411764686 Z38.75398254394531 ; INTERPOLATED
G1 F1800 X46.258382352941176 Y180.32605882352942 E20.907480294117626 Z38.71342849731445 ; INTERPOLATED
G1 F1800 X46.780529411764704 Y180.84823529411764 E20.932041176470566 Z38.66746520996094 ; INTERPOLATED
G1 F1800 X47.30267647058824 Y181.37041176470586 E20.956602058823506 Z38.61683654785156 ; INTERPOLATED
G1 F1800 X47.824823529411766 Y181.8925882352941 E20.981162941176446 Z38.56132507324219 ; INTERPOLATED
G1 F1800 X48.346970588235294 Y182.41476470588236 E21.005723823529387 Z38.502159118652344 ; INTERPOLATED
G1 F1800 X48.86911764705883 Y182.93694117647058 E21.030284705882327 Z38.43962478637695 ; INTERPOLATED
G1 F1800 X49.39126470588236 Y183.45911764705883 E21.054845588235267 Z38.3597526550293 ; INTERPOLATED
G1 F1800 X49.913411764705884 Y183.98129411764705 E21.079406470588207 Z38.271278381347656 ; INTERPOLATED
G1 F1800 X50.43555882352942 Y184.5034705882353 E21.103967352941147 Z38.179786682128906 ; INTERPOLATED
G1 F1800 X50.95770588235294 Y185.02564705882352 E21.128528235294088 Z38.08556365966797 ; INTERPOLATED
G1 F1800 X51.479852941176475 Y185.54782352941177 E21.153089117647028 Z37.98856735229492 ; INTERPOLATED
G1 F1800 X52.002 Y186.07 E21.17765 Z37.88345718383789
G0 F9000 X51.796 Y186.43 Z37.91141891479492
G1 F1800 X51.2685294117647 Y185.9025 E21.202461470588236 Z38.01386642456055 ; INTERPOLATED
G1 F1800 X50.741058823529414 Y185.375 E21.227272941176473 Z38.11358642578125 ; INTERPOLATED
G1 F1800 X50.21358823529412 Y184.8475 E21.25208441176471 Z38.21098327636719 ; INTERPOLATED
G1 F1800 X49.68611764705882 Y184.32 E21.276895882352946 Z38.305660247802734 ; INTERPOLATED
G1 F1800 X49.15864705882353 Y183.79250000000002 E21.301707352941182 Z38.39720916748047 ; INTERPOLATED
G1 F1800 X48.63117647058824 Y183.26500000000001 E21.32651882352942 Z38.47100830078125 ; INTERPOLATED
G1 F1800 X48.10370588235294 Y182.7375 E21.351330294117655 Z38.536216735839844 ; INTERPOLATED
G1 F1800 X47.576235294117645 Y182.21 E21.376141764705892 Z38.59811782836914 ; INTERPOLATED
G1 F1800 X47.048764705882355 Y181.6825 E21.40095323529413 Z38.655757904052734 ; INTERPOLATED
G1 F1800 X46.52129411764706 Y181.155 E21.425764705882365 Z38.70921325683594 ; INTERPOLATED
G1 F1800 X45.99382352941176 Y180.6275 E21.4505761764706 Z38.75726318359375 ; INTERPOLATED
G1 F1800 X45.46635294117647 Y180.1 E21.475387647058838 Z38.79977035522461 ; INTERPOLATED
G1 F1800 X44.93888235294118 Y179.57250000000002 E21.500199117647075 Z38.83030319213867 ; INTERPOLATED
G1 F1800 X44.41141176470588 Y179.04500000000002 E21.52501058823531 Z38.85120391845703 ; INTERPOLATED
G1 F1800 X43.883941176470586 Y178.5175 E21.549822058823548 Z38.8668327331543 ; INTERPOLATED
G1 F1800 X43.3564705882353 Y177.99 E21.574633529411784 Z38.876914978027344 ; INTERPOLATED
G1 F1800 X42.829 Y177.4625 E21.59944500000002 Z38.88094711303711 ; INTERPOLATED
G1 F1800 X42.301529411764704 Y176.935 E21.624256470588257 Z38.879150390625 ; INTERPOLATED
G1 F1800 X41.774058823529415 Y176.4075 E21.649067941176494 Z38.871559143066406 ; INTERPOLATED
G1 F1800 X41.24658823529412 Y175.88 E21.67387941176473 Z38.85821533203125 ; INTERPOLATED
G1 F1800 X40.71911764705882 Y175.3525 E21.698690882352967 Z38.83934783935547 ; INTERPOLATED
G1 F1800 X40.191647058823534 Y174.82500000000002 E21.723502352941203 Z38.815155029296875 ; INTERPOLATED
G1 F1800 X39.66417647058824 Y174.2975 E21.74831382352944 Z38.775142669677734 ; INTERPOLATED
G1 F1800 X39.13670588235294 Y173.77 E21.773125294117676 Z38.7291259765625 ; INTERPOLATED
G1 F1800 X38.60923529411765 Y173.2425 E21.797936764705913 Z38.67766571044922 ; INTERPOLATED
G1 F1800 X38.08176470588236 Y172.715 E21.82274823529415 Z38.621849060058594 ; INTERPOLATED
G1 F1800 X37.55429411764706 Y172.1875 E21.847559705882386 Z38.56141662597656 ; INTERPOLATED
G1 F1800 X37.026823529411764 Y171.66 E21.872371176470622 Z38.49755859375 ; INTERPOLATED
G1 F1800 X36.499352941176475 Y171.1325 E21.89718264705886 Z38.43054962158203 ; INTERPOLATED
G1 F1800 X35.97188235294118 Y170.60500000000002 E21.921994117647095 Z38.34287643432617 ; INTERPOLATED
G1 F1800 X35.44441176470589 Y170.07750000000001 E21.946805588235332 Z38.24940490722656 ; INTERPOLATED
G1 F1800 X34.91694117647059 Y169.55 E21.97161705882357 Z38.153018951416016 ; INTERPOLATED
G1 F1800 X34.3894705882353 Y169.0225 E21.996428529411805 Z38.05413055419922 ; INTERPOLATED
G1 F1800 X33.862 Y168.495 E22.02124 Z37.953155517578125
G0 F9000 X33.439 Y168.638 Z37.96257781982422
G1 F1800 X33.95708571428572 Y169.15605714285715 E22.045608285714284 Z38.0635986328125 ; INTERPOLATED
G1 F1800 X34.47517142857143 Y169.6741142857143 E22.06997657142857 Z38.162906646728516 ; INTERPOLATED
G1 F1800 X34.993257142857146 Y170.19217142857144 E22.094344857142854 Z38.260074615478516 ; INTERPOLATED
G1 F1800 X35.51134285714286 Y170.7102285714286 E22.11871314285714 Z38.35469055175781 ; INTERPOLATED
G1 F1800 X36.029428571428575 Y171.22828571428573 E22.143081428571424 Z38.440860748291016 ; INTERPOLATED
G1 F1800 X36.547514285714286 Y171.74634285714285 E22.16744971428571 Z38.50930404663086 ; INTERPOLATED
G1 F1800 X37.0656 Y172.2644 E22.191817999999994 Z38.574859619140625 ; INTERPOLATED
G1 F1800 X37.583685714285714 Y172.78245714285714 E22.21618628571428 Z38.637245178222656 ; INTERPOLATED
G1 F1800 X38.10177142857143 Y173.30051428571429 E22.240554571428564 Z38.69577407836914 ; INTERPOLATED
G1 F1800 X38.61985714285714 Y173.81857142857143 E22.26492285714285 Z38.750003814697266 ; INTERPOLATED
G1 F1800 X39.13794285714286 Y174.33662857142858 E22.289291142857135 Z38.79924392700195 ; INTERPOLATED
G1 F1800 X39.65602857142857 Y174.85468571428572 E22.31365942857142 Z38.835323333740234 ; INTERPOLATED
G1 F1800 X40.17411428571429 Y175.37274285714287 E22.338027714285705 Z38.86214065551758 ; INTERPOLATED
G1 F1800 X40.6922 Y175.8908 E22.36239599999999 Z38.88410186767578 ; INTERPOLATED
G1 F1800 X41.21028571428572 Y176.40885714285716 E22.386764285714275 Z38.90082931518555 ; INTERPOLATED
G1 F1800 X41.72837142857143 Y176.9269142857143 E22.41113257142856 Z38.91203689575195 ; INTERPOLATED
G1 F1800 X42.246457142857146 Y177.44497142857145 E22.435500857142845 Z38.917152404785156 ; INTERPOLATED
G1 F1800 X42.76454285714286 Y177.9630285714286 E22.45986914285713 Z38.916412353515625 ; INTERPOLATED
G1 F1800 X43.282628571428575 Y178.4810857142857 E22.484237428571415 Z38.909759521484375 ; INTERPOLATED
G1 F1800 X43.800714285714285 Y178.99914285714286 E22.5086057142857 Z38.89714050292969 ; INTERPOLATED
G1 F1800 X44.3188 Y179.5172 E22.532973999999985 Z38.879066467285156 ; INTERPOLATED
G1 F1800 X44.836885714285714 Y180.03525714285715 E22.55734228571427 Z38.8558464050293 ; INTERPOLATED
G1 F1800 X45.35497142857143 Y180.5533142857143 E22.581710571428555 Z38.827877044677734 ; INTERPOLATED
G1 F1800 X45.87305714285714 Y181.07137142857144 E22.60607885714284 Z38.787353515625 ; INTERPOLATED
G1 F1800 X46.39114285714286 Y181.58942857142858 E22.630447142857125 Z38.736881256103516 ; INTERPOLATED
G1 F1800 X46.90922857142857 Y182.10748571428573 E22.65481542857141 Z38.6814079284668 ; INTERPOLATED
G1 F1800 X47.42731428571429 Y182.62554285714288 E22.679183714285696 Z38.622039794921875 ; INTERPOLATED
G1 F1800 X47.94540000000001 Y183.14360000000002 E22.70355199999998 Z38.55868148803711 ; INTERPOLATED
G1 F1800 X48.46348571428572 Y183.66165714285717 E22.727920285714266 Z38.49227523803711 ; INTERPOLATED
G1 F1800 X48.98157142857143 Y184.17971428571428 E22.75228857142855 Z38.42310333251953 ; INTERPOLATED
G1 F1800 X49.499657142857146 Y184.69777142857143 E22.776656857142836 Z38.330989837646484 ; INTERPOLATED
G1 F1800 X50.01774285714286 Y185.21582857142857 E22.80102514285712 Z38.23575973510742 ; INTERPOLATED
G1 F1800 X50.535828571428574 Y185.73388571428572 E22.825393428571406 Z38.13814163208008 ; INTERPOLATED
G1 F1800 X51.053914285714285 Y186.25194285714286 E22.84976171428569 Z38.038570404052734 ; INTERPOLATED
G1 F1800 X51.572 Y186.77 E22.87413 Z37.936927795410156
G0 F9000 X51.347 Y187.112 Z37.95979690551758
G1 F1800 X50.821400000000004 Y186.5864 E22.89885285714286 Z38.06478500366211 ; INTERPOLATED
G1 F1800 X50.2958 Y186.0608 E22.923575714285718 Z38.167903900146484 ; INTERPOLATED
G1 F1800 X49.7702 Y185.5352 E22.948298571428577 Z38.26863479614258 ; INTERPOLATED
G1 F1800 X49.2446 Y185.0096 E22.973021428571435 Z38.36713790893555 ; INTERPOLATED
G1 F1800 X48.719 Y184.484 E22.997744285714294 Z38.45376205444336 ; INTERPOLATED
G1 F1800 X48.193400000000004 Y183.95839999999998 E23.022467142857153 Z38.52567672729492 ; INTERPOLATED
G1 F1800 X47.6678 Y183.4328 E23.04719000000001 Z38.59489822387695 ; INTERPOLATED
G1 F1800 X47.1422 Y182.9072 E23.07191285714287 Z38.66061019897461 ; INTERPOLATED
G1 F1800 X46.6166 Y182.3816 E23.09663571428573 Z38.7227668762207 ; INTERPOLATED
G1 F1800 X46.091 Y181.856 E23.121358571428587 Z38.78063201904297 ; INTERPOLATED
G1 F1800 X45.5654 Y181.3304 E23.146081428571446 Z38.82868194580078 ; INTERPOLATED
G1 F1800 X45.0398 Y180.8048 E23.170804285714304 Z38.862449645996094 ; INTERPOLATED
G1 F1800 X44.5142 Y180.2792 E23.195527142857163 Z38.89167022705078 ; INTERPOLATED
G1 F1800 X43.9886 Y179.7536 E23.22025000000002 Z38.915771484375 ; INTERPOLATED
G1 F1800 X43.463 Y179.228 E23.24497285714288 Z38.934383392333984 ; INTERPOLATED
G1 F1800 X42.9374 Y178.7024 E23.26969571428574 Z38.94715881347656 ; INTERPOLATED
G1 F1800 X42.4118 Y178.17680000000001 E23.294418571428597 Z38.95341110229492 ; INTERPOLATED
G1 F1800 X41.8862 Y177.6512 E23.319141428571456 Z38.953399658203125 ; INTERPOLATED
G1 F1800 X41.3606 Y177.1256 E23.343864285714314 Z38.946739196777344 ; INTERPOLATED
G1 F1800 X40.835 Y176.6 E23.368587142857173 Z38.93400573730469 ; INTERPOLATED
G1 F1800 X40.3094 Y176.0744 E23.39331000000003 Z38.915069580078125 ; INTERPOLATED
G1 F1800 X39.7838 Y175.5488 E23.41803285714289 Z38.89070129394531 ; INTERPOLATED
G1 F1800 X39.2582 Y175.0232 E23.44275571428575 Z38.8613166809082 ; INTERPOLATED
G1 F1800 X38.732600000000005 Y174.4976 E23.467478571428607 Z38.82743453979492 ; INTERPOLATED
G1 F1800 X38.207 Y173.972 E23.492201428571466 Z38.778900146484375 ; INTERPOLATED
G1 F1800 X37.681400000000004 Y173.4464 E23.516924285714325 Z38.72089767456055 ; INTERPOLATED
G1 F1800 X37.1558 Y172.9208 E23.541647142857183 Z38.65857696533203 ; INTERPOLATED
G1 F1800 X36.6302 Y172.39520000000002 E23.566370000000042 Z38.592552185058594 ; INTERPOLATED
G1 F1800 X36.1046 Y171.8696 E23.5910928571429 Z38.52344512939453 ; INTERPOLATED
G1 F1800 X35.579 Y171.344 E23.61581571428576 Z38.451560974121094 ; INTERPOLATED
G1 F1800 X35.053399999999996 Y170.8184 E23.640538571428618 Z38.36420440673828 ; INTERPOLATED
G1 F1800 X34.5278 Y170.2928 E23.665261428571476 Z38.26546859741211 ; INTERPOLATED
G1 F1800 X34.0022 Y169.7672 E23.689984285714335 Z38.16436767578125 ; INTERPOLATED
G1 F1800 X33.476600000000005 Y169.2416 E23.714707142857193 Z38.061336517333984 ; INTERPOLATED
G1 F1800 X32.951 Y168.716 E23.73943 Z37.95681381225586
G0 F9000 X32.383 Y168.713 Z37.93170928955078
G1 F1800 X32.904444444444444 Y169.23444444444445 E23.763956944444445 Z38.037628173828125 ; INTERPOLATED
G1 F1800 X33.42588888888889 Y169.75588888888888 E23.78848388888889 Z38.142398834228516 ; INTERPOLATED
G1 F1800 X33.94733333333333 Y170.27733333333333 E23.813010833333337 Z38.245601654052734 ; INTERPOLATED
G1 F1800 X34.46877777777778 Y170.7987777777778 E23.837537777777783 Z38.34663009643555 ; INTERPOLATED
G1 F1800 X34.99022222222222 Y171.3202222222222 E23.86206472222223 Z38.43994140625 ; INTERPOLATED
G1 F1800 X35.51166666666667 Y171.84166666666667 E23.886591666666675 Z38.51430130004883 ; INTERPOLATED
G1 F1800 X36.03311111111111 Y172.3631111111111 E23.91111861111112 Z38.58634567260742 ; INTERPOLATED
G1 F1800 X36.55455555555556 Y172.88455555555555 E23.935645555555567 Z38.655330657958984 ; INTERPOLATED
G1 F1800 X37.076 Y173.406 E23.960172500000013 Z38.72117233276367 ; INTERPOLATED
G1 F1800 X37.59744444444445 Y173.92744444444443 E23.98469944444446 Z38.783443450927734 ; INTERPOLATED
G1 F1800 X38.11888888888889 Y174.4488888888889 E24.009226388888905 Z38.83392333984375 ; INTERPOLATED
G1 F1800 X38.64033333333334 Y174.97033333333334 E24.03375333333335 Z38.871429443359375 ; INTERPOLATED
G1 F1800 X39.16177777777778 Y175.49177777777777 E24.058280277777797 Z38.904823303222656 ; INTERPOLATED
G1 F1800 X39.68322222222223 Y176.01322222222223 E24.082807222222243 Z38.933536529541016 ; INTERPOLATED
G1 F1800 X40.20466666666667 Y176.53466666666668 E24.10733416666669 Z38.9570198059082 ; INTERPOLATED
G1 F1800 X40.72611111111111 Y177.0561111111111 E24.131861111111135 Z38.97450256347656 ; INTERPOLATED
G1 F1800 X41.24755555555556 Y177.57755555555556 E24.15638805555558 Z38.985904693603516 ; INTERPOLATED
G1 F1800 X41.769 Y178.099 E24.180915000000027 Z38.99056625366211 ; INTERPOLATED
G1 F1800 X42.29044444444445 Y178.62044444444444 E24.205441944444473 Z38.98855209350586 ; INTERPOLATED
G1 F1800 X42.81188888888889 Y179.1418888888889 E24.22996888888892 Z38.979976654052734 ; INTERPOLATED
G1 F1800 X43.333333333333336 Y179.66333333333333 E24.254495833333365 Z38.964786529541016 ; INTERPOLATED
G1 F1800 X43.85477777777778 Y180.18477777777778 E24.27902277777781 Z38.94374084472656 ; INTERPOLATED
G1 F1800 X44.376222222222225 Y180.70622222222224 E24.303549722222257 Z38.91716384887695 ; INTERPOLATED
G1 F1800 X44.897666666666666 Y181.22766666666666 E24.328076666666703 Z38.88558578491211 ; INTERPOLATED
G1 F1800 X45.419111111111114 Y181.74911111111112 E24.35260361111115 Z38.8497200012207 ; INTERPOLATED
G1 F1800 X45.940555555555555 Y182.27055555555557 E24.377130555555595 Z38.8073616027832 ; INTERPOLATED
G1 F1800 X46.462 Y182.792 E24.40165750000004 Z38.74690246582031 ; INTERPOLATED
G1 F1800 X46.983444444444444 Y183.31344444444446 E24.426184444444488 Z38.68248748779297 ; INTERPOLATED
G1 F1800 X47.504888888888885 Y183.83488888888888 E24.450711388888934 Z38.61476135253906 ; INTERPOLATED
G1 F1800 X48.02633333333333 Y184.35633333333334 E24.47523833333338 Z38.54377746582031 ; INTERPOLATED
G1 F1800 X48.54777777777778 Y184.8777777777778 E24.499765277777826 Z38.4703254699707 ; INTERPOLATED
G1 F1800 X49.06922222222222 Y185.39922222222222 E24.52429222222227 Z38.38681411743164 ; INTERPOLATED
G1 F1800 X49.590666666666664 Y185.92066666666668 E24.548819166666718 Z38.28691101074219 ; INTERPOLATED
G1 F1800 X50.11211111111111 Y186.44211111111113 E24.573346111111164 Z38.18460464477539 ; INTERPOLATED
G1 F1800 X50.63355555555556 Y186.96355555555556 E24.59787305555561 Z38.08033752441406 ; INTERPOLATED
G1 F1800 X51.155 Y187.485 E24.6224 Z37.974735260009766
G0 F9000 X51.009 Y187.905 Z37.97840118408203
G1 F1800 X50.48940540540541 Y187.3854054054054 E24.646840270270268 Z38.08513641357422 ; INTERPOLATED
G1 F1800 X49.96981081081081 Y186.8658108108108 E24.671280540540536 Z38.19084930419922 ; INTERPOLATED
G1 F1800 X49.45021621621622 Y186.34621621621622 E24.695720810810805 Z38.29509353637695 ; INTERPOLATED
G1 F1800 X48.93062162162162 Y185.82662162162163 E24.720161081081073 Z38.397037506103516 ; INTERPOLATED
G1 F1800 X48.411027027027025 Y185.30702702702703 E24.744601351351342 Z38.479957580566406 ; INTERPOLATED
G1 F1800 X47.89143243243243 Y184.78743243243244 E24.76904162162161 Z38.555328369140625 ; INTERPOLATED
G1 F1800 X47.37183783783784 Y184.26783783783785 E24.79348189189188 Z38.628448486328125 ; INTERPOLATED
G1 F1800 X46.852243243243244 Y183.74824324324325 E24.817922162162148 Z38.69874954223633 ; INTERPOLATED
G1 F1800 X46.33264864864865 Y183.22864864864866 E24.842362432432417 Z38.76576614379883 ; INTERPOLATED
G1 F1800 X45.81305405405406 Y182.70905405405406 E24.866802702702685 Z38.8255729675293 ; INTERPOLATED
G1 F1800 X45.293459459459456 Y182.18945945945947 E24.891242972972954 Z38.86753845214844 ; INTERPOLATED
G1 F1800 X44.77386486486486 Y181.66986486486488 E24.915683243243222 Z38.90596389770508 ; INTERPOLATED
G1 F1800 X44.25427027027027 Y181.15027027027028 E24.94012351351349 Z38.940216064453125 ; INTERPOLATED
G1 F1800 X43.734675675675675 Y180.6306756756757 E24.96456378378376 Z38.969703674316406 ; INTERPOLATED
G1 F1800 X43.21508108108108 Y180.1110810810811 E24.98900405405403 Z38.99359130859375 ; INTERPOLATED
G1 F1800 X42.69548648648649 Y179.5914864864865 E25.013444324324297 Z39.01156234741211 ; INTERPOLATED
G1 F1800 X42.175891891891894 Y179.0718918918919 E25.037884594594566 Z39.02280807495117 ; INTERPOLATED
G1 F1800 X41.6562972972973 Y178.55229729729732 E25.062324864864834 Z39.0272102355957 ; INTERPOLATED
G1 F1800 X41.1367027027027 Y178.0327027027027 E25.086765135135103 Z39.024593353271484 ; INTERPOLATED
G1 F1800 X40.617108108108106 Y177.5131081081081 E25.11120540540537 Z39.01499557495117 ; INTERPOLATED
G1 F1800 X40.09751351351351 Y176.9935135135135 E25.13564567567564 Z38.99860763549805 ; INTERPOLATED
G1 F1800 X39.57791891891892 Y176.4739189189189 E25.16008594594591 Z38.976219177246094 ; INTERPOLATED
G1 F1800 X39.058324324324325 Y175.95432432432432 E25.184526216216177 Z38.947998046875 ; INTERPOLATED
G1 F1800 X38.53872972972973 Y175.43472972972972 E25.208966486486446 Z38.91487503051758 ; INTERPOLATED
G1 F1800 X38.01913513513513 Y174.91513513513513 E25.233406756756715 Z38.87742614746094 ; INTERPOLATED
G1 F1800 X37.499540540540536 Y174.39554054054054 E25.257847027026983 Z38.836299896240234 ; INTERPOLATED
G1 F1800 X36.97994594594594 Y173.87594594594594 E25.282287297297252 Z38.781883239746094 ; INTERPOLATED
G1 F1800 X36.46035135135135 Y173.35635135135135 E25.30672756756752 Z38.715789794921875 ; INTERPOLATED
G1 F1800 X35.940756756756755 Y172.83675675675676 E25.33116783783779 Z38.64604568481445 ; INTERPOLATED
G1 F1800 X35.42116216216216 Y172.31716216216216 E25.355608108108058 Z38.57360076904297 ; INTERPOLATED
G1 F1800 X34.90156756756757 Y171.79756756756757 E25.380048378378326 Z38.49876403808594 ; INTERPOLATED
G1 F1800 X34.381972972972974 Y171.27797297297298 E25.404488648648595 Z38.42183303833008 ; INTERPOLATED
G1 F1800 X33.86237837837838 Y170.75837837837838 E25.428928918918864 Z38.32036590576172 ; INTERPOLATED
G1 F1800 X33.34278378378379 Y170.2387837837838 E25.453369189189132 Z38.21709060668945 ; INTERPOLATED
G1 F1800 X32.82318918918919 Y169.7191891891892 E25.4778094594594 Z38.11155319213867 ; INTERPOLATED
G1 F1800 X32.30359459459459 Y169.1995945945946 E25.50224972972967 Z38.00471115112305 ; INTERPOLATED
G1 F1800 X31.784 Y168.68 E25.52669 Z37.89261245727539
G0 F9000 X31.225 Y168.687 Z37.8561897277832
G1 F1800 X31.74307894736842 Y169.20505263157895 E25.551058157894737 Z37.97679138183594 ; INTERPOLATED
G1 F1800 X32.26115789473684 Y169.72310526315792 E25.575426315789475 Z38.08534240722656 ; INTERPOLATED
G1 F1800 X32.77923684210526 Y170.24115789473686 E25.599794473684213 Z38.19277572631836 ; INTERPOLATED
G1 F1800 X33.297315789473686 Y170.7592105263158 E25.62416263157895 Z38.29827117919922 ; INTERPOLATED
G1 F1800 X33.81539473684211 Y171.27726315789474 E25.64853078947369 Z38.40230941772461 ; INTERPOLATED
G1 F1800 X34.333473684210524 Y171.7953157894737 E25.672898947368427 Z38.48588180541992 ; INTERPOLATED
G1 F1800 X34.85155263157895 Y172.31336842105264 E25.697267105263165 Z38.5632209777832 ; INTERPOLATED
G1 F1800 X35.36963157894737 Y172.83142105263158 E25.721635263157903 Z38.63840103149414 ; INTERPOLATED
G1 F1800 X35.88771052631579 Y173.34947368421052 E25.74600342105264 Z38.711124420166016 ; INTERPOLATED
G1 F1800 X36.40578947368421 Y173.8675263157895 E25.77037157894738 Z38.78105926513672 ; INTERPOLATED
G1 F1800 X36.92386842105263 Y174.38557894736843 E25.794739736842118 Z38.83848571777344 ; INTERPOLATED
G1 F1800 X37.441947368421054 Y174.90363157894737 E25.819107894736856 Z38.88300323486328 ; INTERPOLATED
G1 F1800 X37.96002631578948 Y175.4216842105263 E25.843476052631594 Z38.924007415771484 ; INTERPOLATED
G1 F1800 X38.47810526315789 Y175.93973684210528 E25.867844210526332 Z38.96109390258789 ; INTERPOLATED
G1 F1800 X38.996184210526316 Y176.45778947368422 E25.89221236842107 Z38.99357223510742 ; INTERPOLATED
G1 F1800 X39.51426315789474 Y176.97584210526315 E25.91658052631581 Z39.020530700683594 ; INTERPOLATED
G1 F1800 X40.032342105263155 Y177.4938947368421 E25.940948684210547 Z39.04158401489258 ; INTERPOLATED
G1 F1800 X40.55042105263158 Y178.01194736842106 E25.965316842105285 Z39.055946350097656 ; INTERPOLATED
G1 F1800 X41.0685 Y178.53 E25.989685000000023 Z39.06306457519531 ; INTERPOLATED
G1 F1800 X41.58657894736842 Y179.04805263157894 E26.01405315789476 Z39.06278610229492 ; INTERPOLATED
G1 F1800 X42.104657894736846 Y179.5661052631579 E26.0384213157895 Z39.055084228515625 ; INTERPOLATED
G1 F1800 X42.62273684210526 Y180.08415789473685 E26.062789473684237 Z39.040245056152344 ; INTERPOLATED
G1 F1800 X43.140815789473685 Y180.6022105263158 E26.087157631578975 Z39.01883316040039 ; INTERPOLATED
G1 F1800 X43.65889473684211 Y181.12026315789473 E26.111525789473713 Z38.991329193115234 ; INTERPOLATED
G1 F1800 X44.17697368421052 Y181.6383157894737 E26.13589394736845 Z38.95861053466797 ; INTERPOLATED
G1 F1800 X44.695052631578946 Y182.15636842105263 E26.16026210526319 Z38.92124557495117 ; INTERPOLATED
G1 F1800 X45.21313157894737 Y182.67442105263157 E26.184630263157928 Z38.879859924316406 ; INTERPOLATED
G1 F1800 X45.73121052631579 Y183.1924736842105 E26.208998421052666 Z38.83516311645508 ; INTERPOLATED
G1 F1800 X46.249289473684215 Y183.71052631578948 E26.233366578947404 Z38.776187896728516 ; INTERPOLATED
G1 F1800 X46.76736842105263 Y184.22857894736842 E26.257734736842142 Z38.70612716674805 ; INTERPOLATED
G1 F1800 X47.28544736842105 Y184.74663157894736 E26.28210289473688 Z38.633087158203125 ; INTERPOLATED
G1 F1800 X47.80352631578947 Y185.2646842105263 E26.30647105263162 Z38.55768966674805 ; INTERPOLATED
G1 F1800 X48.32160526315789 Y185.78273684210527 E26.330839210526356 Z38.480262756347656 ; INTERPOLATED
G1 F1800 X48.839684210526315 Y186.3007894736842 E26.355207368421095 Z38.395084381103516 ; INTERPOLATED
G1 F1800 X49.35776315789474 Y186.81884210526314 E26.379575526315833 Z38.291015625 ; INTERPOLATED
G1 F1800 X49.87584210526316 Y187.3368947368421 E26.40394368421057 Z38.18489074707031 ; INTERPOLATED
G1 F1800 X50.39392105263158 Y187.85494736842105 E26.42831184210531 Z38.07762145996094 ; INTERPOLATED
G1 F1800 X50.912 Y188.373 E26.45268 Z37.96913528442383
G0 F9000 X50.895 Y188.922 Z37.94031524658203
G1 F1800 X50.37746153846154 Y188.40448717948718 E26.477022820512822 Z38.0506591796875 ; INTERPOLATED
G1 F1800 X49.85992307692308 Y187.88697435897436 E26.501365641025643 Z38.15980529785156 ; INTERPOLATED
G1 F1800 X49.34238461538462 Y187.36946153846154 E26.525708461538464 Z38.26816177368164 ; INTERPOLATED
G1 F1800 X48.82484615384616 Y186.85194871794872 E26.550051282051285 Z38.3744010925293 ; INTERPOLATED
G1 F1800 X48.307307692307695 Y186.3344358974359 E26.574394102564106 Z38.466331481933594 ; INTERPOLATED
G1 F1800 X47.78976923076923 Y185.81692307692308 E26.598736923076927 Z38.546112060546875 ; INTERPOLATED
G1 F1800 X47.272230769230774 Y185.29941025641025 E26.62307974358975 Z38.62411117553711 ; INTERPOLATED
G1 F1800 X46.75469230769231 Y184.78189743589743 E26.64742256410257 Z38.69998550415039 ; INTERPOLATED
G1 F1800 X46.237153846153845 Y184.2643846153846 E26.67176538461539 Z38.77341842651367 ; INTERPOLATED
G1 F1800 X45.71961538461539 Y183.7468717948718 E26.696108205128212 Z38.83602523803711 ; INTERPOLATED
G1 F1800 X45.20207692307692 Y183.22935897435897 E26.720451025641033 Z38.88357925415039 ; INTERPOLATED
G1 F1800 X44.684538461538466 Y182.71184615384615 E26.744793846153854 Z38.928279876708984 ; INTERPOLATED
G1 F1800 X44.167 Y182.19433333333333 E26.769136666666675 Z38.969398498535156 ; INTERPOLATED
G1 F1800 X43.64946153846154 Y181.6768205128205 E26.793479487179496 Z39.006229400634766 ; INTERPOLATED
G1 F1800 X43.13192307692308 Y181.1593076923077 E26.817822307692317 Z39.03814697265625 ; INTERPOLATED
G1 F1800 X42.614384615384616 Y180.64179487179487 E26.84216512820514 Z39.06415557861328 ; INTERPOLATED
G1 F1800 X42.09684615384616 Y180.12428205128205 E26.86650794871796 Z39.083641052246094 ; INTERPOLATED
G1 F1800 X41.579307692307694 Y179.60676923076923 E26.89085076923078 Z39.09587097167969 ; INTERPOLATED
