;FLAVOR:Marlin
;TIME:495
;Filament used: 0.493083m
;Layer height: 0.2
;MINX:19.646
;MINY:165.328
;MINZ:0.2
;MAXX:53.688
;MAXY:201.338
;MAXZ:2
;TARGET_MACHINE.NAME:Creality Ender-3 V3 SE
;Generated with Cura_SteamEngine 5.6.0
M104 S228
M105
M109 S228
M82 ;absolute extrusion mode
M220 S100 ;Reset Feedrate
M221 S100 ;Reset Flowrate

G28 ;Home

M420 S1; Enable mesh leveling

G92 E0 ;Reset Extruder
G1 Z2.0 F3000 ;Move Z Axis up
G1 X10.1 Y20 Z0.28 F5000.0 ;Move to start position
M109 S[material_print_temperature_layer_0]
G1 X10.1 Y145.0 Z0.28 F1500.0 E15 ;Draw the first line
G1 X10.4 Y145.0 Z0.28 F5000.0 ;Move to side a little
G1 X10.4 Y20 Z0.28 F1500.0 E30 ;Draw the second line
G92 E0  ;Reset Extruder
G1 E-1.0000 F1800 ;Retract a bit
G1 Z2.0 F3000 ;Move Z Axis up
G1 E0.0000 F1800 

G92 E0
G92 E0
G1 F2400 E-0.8
;LAYER_COUNT:10
;LAYER:0
M107
;MESH:All_parts - Willow-1.STL
G0 F9000 X51.382 Y191.582 Z0.2
;TYPE:WALL-INNER
G1 F2400 E0
G1 F1800 X51.538 Y191.185 E0.01419
G1 X51.632 Y190.778 E0.02808
G1 X51.665 Y190.346 E0.04249
G1 X51.638 Y189.917 E0.05679
G1 X51.463 Y189.111 E0.08422
G1 X51.443 Y188.737 E0.09668
G1 X51.478 Y188.318 E0.11066
G1 X51.595 Y187.877 E0.12584
G1 X51.752 Y187.523 E0.13872
G1 X52.358 Y186.601 E0.17541
G1 X52.679 Y185.992 E0.19831
G1 X52.929 Y185.364 E0.22079
G1 X53.111 Y184.701 E0.24366
G1 X53.222 Y184.019 E0.26664
G1 X53.26 Y183.333 E0.28949
G1 X53.222 Y182.647 E0.31234
G1 X53.111 Y181.965 E0.33533
G1 X52.929 Y181.302 E0.35819
G1 X52.679 Y180.674 E0.38067
G1 X52.346 Y180.042 E0.40443
G1 X51.762 Y179.163 E0.43953
G1 X51.589 Y178.777 E0.4536
G1 X51.482 Y178.381 E0.46725
G1 X51.441 Y177.99 E0.48032
G1 X51.462 Y177.557 E0.49474
G1 X51.637 Y176.746 E0.52234
G1 X51.667 Y176.305 E0.53704
G1 X51.633 Y175.901 E0.55052
G1 X51.537 Y175.482 E0.56482
G1 X51.38 Y175.084 E0.57905
G1 X51.165 Y174.714 E0.59328
G1 X50.903 Y174.385 E0.60727
G1 X50.592 Y174.091 E0.62151
G1 X50.244 Y173.853 E0.63553
G1 X49.859 Y173.663 E0.64981
G1 X49.065 Y173.408 E0.67754
G1 X48.681 Y173.208 E0.69194
G1 X48.388 Y172.997 E0.70395
G1 X48.069 Y172.68 E0.71891
G1 X47.849 Y172.381 E0.73126
G1 X47.35 Y171.39 E0.76816
G1 X46.97 Y170.785 E0.79192
G1 X46.565 Y170.274 E0.81361
G1 X46.064 Y169.765 E0.83737
G1 X45.533 Y169.332 E0.86015
G1 X44.968 Y168.963 E0.8826
G1 X44.341 Y168.645 E0.90598
G1 X43.717 Y168.409 E0.92817
G1 X43.035 Y168.232 E0.95161
G1 X42.369 Y168.135 E0.97399
G1 X41.677 Y168.11 E0.99702
G1 X40.579 Y168.175 E1.03361
G1 X40.148 Y168.126 E1.04803
G1 X39.803 Y168.031 E1.05993
G1 X39.384 Y167.843 E1.07521
G1 X39.067 Y167.633 E1.08786
G1 X38.444 Y167.073 E1.11572
G1 X38.089 Y166.835 E1.12993
G1 X37.706 Y166.653 E1.14404
G1 X37.293 Y166.528 E1.15839
G1 X36.881 Y166.466 E1.17225
G1 X36.453 Y166.465 E1.18648
G1 X36.041 Y166.527 E1.20034
G1 X35.628 Y166.653 E1.2147
G1 X35.241 Y166.837 E1.22895
G1 X34.892 Y167.069 E1.24289
G1 X34.274 Y167.632 E1.2707
G1 X33.908 Y167.866 E1.28515
G1 X33.559 Y168.023 E1.29787
G1 X33.142 Y168.135 E1.31223
G1 X32.725 Y168.175 E1.32617
G1 X31.655 Y168.11 E1.36182
G1 X30.964 Y168.137 E1.38482
G1 X30.297 Y168.234 E1.40724
G1 X29.615 Y168.411 E1.43067
G1 X28.991 Y168.647 E1.45286
G1 X28.364 Y168.965 E1.47625
G1 X27.796 Y169.335 E1.49879
G1 X27.267 Y169.768 E1.52153
G1 X26.767 Y170.276 E1.54524
G1 X26.362 Y170.787 E1.56692
G1 X25.982 Y171.392 E1.59069
G1 X25.481 Y172.389 E1.6278
G1 X25.246 Y172.703 E1.64084
G1 X24.944 Y172.999 E1.65491
G1 X24.634 Y173.22 E1.66757
G1 X24.265 Y173.409 E1.68136
G1 X23.474 Y173.663 E1.70899
G1 X23.09 Y173.853 E1.72324
G1 X22.742 Y174.091 E1.73726
G1 X22.431 Y174.385 E1.7515
G1 X22.169 Y174.715 E1.76551
G1 X21.954 Y175.084 E1.77972
G1 X21.797 Y175.482 E1.79395
G1 X21.701 Y175.901 E1.80824
G1 X21.667 Y176.305 E1.82173
G1 X21.695 Y176.747 E1.83646
G1 X21.871 Y177.555 E1.86396
G1 X21.891 Y177.926 E1.87632
G1 X21.856 Y178.348 E1.89041
G1 X21.739 Y178.788 E1.90555
G1 X21.571 Y179.164 E1.91925
G1 X20.981 Y180.056 E1.95482
G1 X20.655 Y180.674 E1.97806
G1 X20.405 Y181.302 E2.00054
G1 X20.223 Y181.965 E2.0234
G1 X20.112 Y182.647 E2.04639
G1 X20.073 Y183.333 E2.06924
G1 X20.112 Y184.019 E2.09209
G1 X20.223 Y184.701 E2.11507
G1 X20.405 Y185.364 E2.13794
G1 X20.655 Y185.992 E2.16042
G1 X20.985 Y186.621 E2.18405
G1 X21.572 Y187.504 E2.21931
G1 X21.745 Y187.891 E2.23341
G1 X21.856 Y188.316 E2.24802
G1 X21.891 Y188.706 E2.26105
G1 X21.87 Y189.108 E2.27444
G1 X21.695 Y189.919 E2.30203
G1 X21.667 Y190.359 E2.31669
G1 X21.7 Y190.763 E2.33018
G1 X21.798 Y191.188 E2.34468
G1 X21.953 Y191.584 E2.35883
G1 X22.168 Y191.953 E2.37303
G1 X22.434 Y192.287 E2.38723
G1 X22.738 Y192.574 E2.40114
G1 X23.09 Y192.815 E2.41533
G1 X23.474 Y193.003 E2.42955
G1 X24.269 Y193.26 E2.45734
G1 X24.633 Y193.445 E2.47092
G1 X24.946 Y193.669 E2.48372
G1 X25.261 Y193.98 E2.49844
G1 X25.494 Y194.296 E2.5115
G1 X25.984 Y195.275 E2.54791
G1 X26.364 Y195.88 E2.57167
G1 X26.769 Y196.392 E2.59339
G1 X27.269 Y196.9 E2.61709
G1 X27.798 Y197.333 E2.63983
G1 X28.366 Y197.703 E2.66238
G1 X28.993 Y198.021 E2.68576
G1 X29.617 Y198.257 E2.70795
G1 X30.299 Y198.434 E2.73139
G1 X30.965 Y198.531 E2.75377
G1 X31.657 Y198.556 E2.7768
G1 X32.778 Y198.492 E2.81415
G1 X33.177 Y198.539 E2.82751
G1 X33.532 Y198.635 E2.83974
G1 X33.909 Y198.801 E2.85344
G1 X34.271 Y199.035 E2.86778
G1 X34.891 Y199.596 E2.89559
G1 X35.246 Y199.833 E2.90978
G1 X35.628 Y200.015 E2.92386
G1 X36.041 Y200.141 E2.93822
G1 X36.451 Y200.203 E2.95201
G1 X36.882 Y200.201 E2.96635
G1 X37.294 Y200.139 E2.9802
G1 X37.708 Y200.013 E2.9946
G1 X38.089 Y199.832 E3.00863
G1 X38.443 Y199.593 E3.02283
G1 X39.025 Y199.064 E3.04899
G1 X39.386 Y198.821 E3.06347
G1 X39.772 Y198.645 E3.07758
G1 X40.18 Y198.533 E3.09165
G1 X40.556 Y198.49 E3.10424
G1 X41.679 Y198.556 E3.14165
G1 X42.37 Y198.529 E3.16465
G1 X43.037 Y198.432 E3.18707
G1 X43.719 Y198.255 E3.2105
G1 X44.344 Y198.019 E3.23272
G1 X44.971 Y197.7 E3.25612
G1 X45.538 Y197.331 E3.27862
G1 X46.067 Y196.899 E3.30134
G1 X46.567 Y196.39 E3.32507
G1 X46.972 Y195.878 E3.34678
G1 X47.352 Y195.273 E3.37054
G1 X47.851 Y194.283 E3.40742
G1 X48.071 Y193.984 E3.41977
G1 X48.39 Y193.667 E3.43472
G1 X48.699 Y193.446 E3.44736
G1 X49.067 Y193.258 E3.4611
G1 X49.862 Y193.001 E3.48889
G1 X50.246 Y192.813 E3.50311
G1 X50.598 Y192.572 E3.5173
G1 X50.902 Y192.285 E3.53121
G1 X51.168 Y191.951 E3.54541
G1 X51.382 Y191.582 E3.5596
G0 F9000 X51.744 Y191.756
;TYPE:WALL-OUTER
G1 F1800 X51.921 Y191.304 E3.57574
G1 X52.029 Y190.839 E3.59162
G1 X52.066 Y190.348 E3.60799
G1 X52.035 Y189.861 E3.62423
G1 X51.86 Y189.061 E3.65146
G1 X51.843 Y188.687 E3.66391
G1 X51.879 Y188.35 E3.67519
G1 X51.967 Y188.024 E3.68642
G1 X52.11 Y187.702 E3.69814
G1 X52.702 Y186.805 E3.73388
G1 X53.043 Y186.16 E3.75815
G1 X53.309 Y185.492 E3.78206
G1 X53.503 Y184.787 E3.80638
G1 X53.62 Y184.062 E3.83081
G1 X53.661 Y183.333 E3.85509
G1 X53.62 Y182.604 E3.87938
G1 X53.503 Y181.879 E3.9038
G1 X53.309 Y181.174 E3.92812
G1 X53.043 Y180.506 E3.95204
G1 X52.69 Y179.838 E3.97717
G1 X52.107 Y178.96 E4.01222
G1 X51.96 Y178.624 E4.02442
G1 X51.872 Y178.291 E4.03588
G1 X51.84 Y177.937 E4.0477
G1 X51.859 Y177.608 E4.05866
G1 X52.035 Y176.802 E4.0861
G1 X52.068 Y176.301 E4.1028
G1 X52.029 Y175.839 E4.11822
G1 X51.92 Y175.363 E4.13446
G1 X51.741 Y174.909 E4.15069
G1 X51.497 Y174.488 E4.16688
G1 X51.199 Y174.113 E4.18281
G1 X50.844 Y173.779 E4.19902
G1 X50.446 Y173.507 E4.21505
G1 X50.009 Y173.291 E4.23127
G1 X49.22 Y173.037 E4.25883
G1 X48.904 Y172.876 E4.27063
G1 X48.616 Y172.665 E4.2825
G1 X48.374 Y172.421 E4.29393
G1 X48.165 Y172.132 E4.3058
G1 X47.699 Y171.194 E4.34063
G1 X47.297 Y170.554 E4.36577
G1 X46.865 Y170.009 E4.3889
G1 X46.334 Y169.469 E4.41409
G1 X45.769 Y169.008 E4.43834
G1 X45.168 Y168.616 E4.46221
G1 X44.503 Y168.279 E4.48701
G1 X43.839 Y168.027 E4.51063
G1 X43.114 Y167.839 E4.53554
G1 X42.405 Y167.736 E4.55937
G1 X41.672 Y167.71 E4.58376
G1 X40.586 Y167.775 E4.61995
G1 X40.23 Y167.734 E4.63187
G1 X39.897 Y167.639 E4.64338
G1 X39.587 Y167.498 E4.65471
G1 X39.309 Y167.315 E4.66578
G1 X38.691 Y166.757 E4.69347
G1 X38.287 Y166.486 E4.70965
G1 X37.851 Y166.279 E4.72571
G1 X37.381 Y166.136 E4.74205
G1 X36.911 Y166.066 E4.75785
G1 X36.423 Y166.065 E4.77408
G1 X35.953 Y166.136 E4.78989
G1 X35.483 Y166.279 E4.80623
G1 X35.043 Y166.488 E4.82243
G1 X34.645 Y166.753 E4.83834
G1 X34.027 Y167.315 E4.86612
G1 X33.723 Y167.511 E4.87815
G1 X33.402 Y167.654 E4.88984
G1 X33.075 Y167.741 E4.90109
G1 X32.729 Y167.775 E4.91266
G1 X31.66 Y167.71 E4.94828
G1 X30.928 Y167.738 E4.97264
G1 X30.218 Y167.841 E4.9965
G1 X29.493 Y168.029 E5.02141
G1 X28.829 Y168.281 E5.04504
G1 X28.164 Y168.618 E5.06983
G1 X27.56 Y169.012 E5.09382
G1 X26.997 Y169.472 E5.118
G1 X26.467 Y170.011 E5.14314
G1 X26.035 Y170.556 E5.16627
G1 X25.633 Y171.196 E5.19141
G1 X25.158 Y172.151 E5.22688
G1 X24.945 Y172.439 E5.2388
G1 X24.707 Y172.676 E5.24997
G1 X24.407 Y172.89 E5.26223
G1 X24.11 Y173.04 E5.27329
G1 X23.324 Y173.291 E5.30074
G1 X22.888 Y173.507 E5.31692
G1 X22.49 Y173.779 E5.33295
G1 X22.135 Y174.113 E5.34916
G1 X21.837 Y174.489 E5.36512
G1 X21.593 Y174.909 E5.38128
G1 X21.414 Y175.363 E5.39751
G1 X21.305 Y175.839 E5.41375
G1 X21.266 Y176.301 E5.42917
G1 X21.298 Y176.803 E5.4459
G1 X21.474 Y177.605 E5.47321
G1 X21.491 Y177.976 E5.48556
G1 X21.455 Y178.316 E5.49694
G1 X21.362 Y178.654 E5.50859
G1 X21.226 Y178.961 E5.51976
G1 X20.637 Y179.852 E5.55529
G1 X20.291 Y180.506 E5.5799
G1 X20.025 Y181.174 E5.60381
G1 X19.831 Y181.879 E5.62813
G1 X19.714 Y182.604 E5.65256
G1 X19.673 Y183.333 E5.67684
G1 X19.714 Y184.062 E5.70113
G1 X19.831 Y184.787 E5.72555
G1 X20.025 Y185.492 E5.74987
G1 X20.291 Y186.16 E5.77379
G1 X20.641 Y186.825 E5.79878
G1 X21.227 Y187.707 E5.834
G1 X21.374 Y188.043 E5.8462
G1 X21.46 Y188.372 E5.85751
G1 X21.491 Y188.705 E5.86863
G1 X21.473 Y189.058 E5.88039
G1 X21.297 Y189.863 E5.9078
G1 X21.266 Y190.363 E5.92446
G1 X21.304 Y190.825 E5.93988
G1 X21.415 Y191.306 E5.95629
G1 X21.592 Y191.758 E5.97244
G1 X21.837 Y192.179 E5.98864
G1 X22.139 Y192.559 E6.00478
G1 X22.486 Y192.886 E6.02064
G1 X22.888 Y193.161 E6.03684
G1 X23.324 Y193.375 E6.053
G1 X24.114 Y193.629 E6.0806
G1 X24.423 Y193.786 E6.09212
G1 X24.719 Y194.002 E6.10431
G1 X24.961 Y194.245 E6.11572
G1 X25.16 Y194.517 E6.12693
G1 X25.635 Y195.471 E6.16237
G1 X26.037 Y196.111 E6.18751
G1 X26.469 Y196.657 E6.21067
G1 X26.999 Y197.196 E6.23581
G1 X27.562 Y197.656 E6.25999
G1 X28.166 Y198.05 E6.28398
G1 X28.831 Y198.387 E6.30877
G1 X29.495 Y198.639 E6.33239
G1 X30.22 Y198.827 E6.35731
G1 X30.929 Y198.93 E6.38113
G1 X31.662 Y198.956 E6.40553
G1 X32.748 Y198.891 E6.44171
G1 X33.11 Y198.934 E6.45384
G1 X33.433 Y199.025 E6.465
G1 X33.747 Y199.168 E6.47648
G1 X34.029 Y199.353 E6.48769
G1 X34.643 Y199.912 E6.51531
G1 X35.048 Y200.182 E6.5315
G1 X35.483 Y200.389 E6.54752
G1 X35.953 Y200.532 E6.56386
G1 X36.422 Y200.603 E6.57964
G1 X36.912 Y200.601 E6.59594
G1 X37.383 Y200.53 E6.61178
G1 X37.853 Y200.387 E6.62812
G1 X38.287 Y200.18 E6.64411
G1 X38.691 Y199.909 E6.66029
G1 X39.319 Y199.341 E6.68846
G1 X39.595 Y199.162 E6.6994
G1 X39.927 Y199.015 E6.71147
G1 X40.259 Y198.925 E6.72291
G1 X40.594 Y198.889 E6.73412
G1 X41.674 Y198.956 E6.77011
G1 X42.406 Y198.928 E6.79448
G1 X43.116 Y198.825 E6.81834
G1 X43.841 Y198.637 E6.84325
G1 X44.506 Y198.385 E6.8669
G1 X45.171 Y198.047 E6.89171
G1 X45.774 Y197.654 E6.91565
G1 X46.337 Y197.195 E6.93981
G1 X46.867 Y196.655 E6.96498
G1 X47.299 Y196.109 E6.98813
G1 X47.701 Y195.469 E7.01327
G1 X48.167 Y194.532 E7.04808
G1 X48.393 Y194.223 E7.06081
G1 X48.627 Y193.99 E7.07179
G1 X48.911 Y193.785 E7.08344
G1 X49.222 Y193.627 E7.09505
G1 X50.012 Y193.373 E7.12265
G1 X50.448 Y193.159 E7.1388
G1 X50.85 Y192.884 E7.155
G1 X51.197 Y192.557 E7.17086
G1 X51.499 Y192.177 E7.187
G1 X51.744 Y191.756 E7.2032
G0 F9000 X51.057 Y191.423
;TYPE:SKIN
G1 F1800 X50.866 Y191.75 E7.2158
G1 X50.634 Y192.043 E7.22823
G1 X50.37 Y192.292 E7.2403
G1 X50.062 Y192.503 E7.25272
G1 X49.733 Y192.663 E7.26488
G1 X48.928 Y192.925 E7.29304
G1 X48.517 Y193.135 E7.30839
G1 X48.176 Y193.377 E7.3223
G1 X47.817 Y193.726 E7.33895
G1 X47.534 Y194.108 E7.35476
G1 X47.045 Y195.082 E7.39101
G1 X46.667 Y195.683 E7.41463
G1 X46.302 Y196.144 E7.43418
G1 X45.826 Y196.631 E7.45683
G1 X45.322 Y197.042 E7.47846
G1 X44.796 Y197.386 E7.49937
G1 X44.191 Y197.693 E7.52193
G1 X43.621 Y197.908 E7.5422
G1 X42.958 Y198.08 E7.56498
G1 X42.343 Y198.169 E7.58565
G1 X41.689 Y198.194 E7.60741
G1 X40.57 Y198.128 E7.6447
G1 X40.056 Y198.19 E7.66192
G1 X39.625 Y198.314 E7.67683
G1 X39.211 Y198.505 E7.692
G1 X38.836 Y198.75 E7.7069
G1 X38.221 Y199.308 E7.73452
G1 X37.909 Y199.516 E7.74699
G1 X37.581 Y199.674 E7.7591
G1 X37.211 Y199.787 E7.77196
G1 X36.855 Y199.841 E7.78394
G1 X36.477 Y199.843 E7.79651
G1 X36.125 Y199.789 E7.80836
G1 X35.755 Y199.677 E7.82121
G1 X35.423 Y199.518 E7.83346
G1 X35.115 Y199.313 E7.84576
G1 X34.488 Y198.747 E7.87386
G1 X34.099 Y198.495 E7.88927
G1 X33.656 Y198.297 E7.90541
G1 X33.219 Y198.18 E7.92046
G1 X32.773 Y198.13 E7.93539
G1 X31.647 Y198.195 E7.9729
G1 X30.992 Y198.171 E7.9947
G1 X30.383 Y198.082 E8.01517
G1 X29.715 Y197.909 E8.03812
G1 X29.135 Y197.688 E8.05876
G1 X28.548 Y197.392 E8.08063
G1 X28.015 Y197.044 E8.1018
G1 X27.518 Y196.638 E8.12315
G1 X27.028 Y196.14 E8.14638
G1 X26.669 Y195.686 E8.16563
G1 X26.299 Y195.096 E8.1888
G1 X25.816 Y194.13 E8.22472
G1 X25.545 Y193.757 E8.24005
G1 X25.219 Y193.428 E8.25546
G1 X24.837 Y193.147 E8.27123
G1 X24.394 Y192.922 E8.28776
G1 X23.603 Y192.664 E8.31543
G1 X23.274 Y192.505 E8.32758
G1 X22.966 Y192.294 E8.34
G1 X22.702 Y192.045 E8.35207
G1 X22.47 Y191.752 E8.3645
G1 X22.279 Y191.425 E8.3771
G1 X22.146 Y191.082 E8.38933
G1 X22.054 Y190.693 E8.40263
G1 X22.027 Y190.366 E8.41354
G1 X22.052 Y189.963 E8.42697
G1 X22.226 Y189.154 E8.45449
G1 X22.25 Y188.684 E8.47014
G1 X22.214 Y188.279 E8.48367
G1 X22.095 Y187.795 E8.50025
G1 X21.899 Y187.352 E8.51636
G1 X21.295 Y186.433 E8.55293
G1 X20.981 Y185.836 E8.57537
G1 X20.748 Y185.255 E8.59619
G1 X20.576 Y184.627 E8.61785
G1 X20.473 Y183.983 E8.63954
G1 X20.435 Y183.333 E8.66119
G1 X20.473 Y182.683 E8.68285
G1 X20.576 Y182.039 E8.70454
G1 X20.748 Y181.412 E8.72617
G1 X20.981 Y180.831 E8.74699
G1 X21.291 Y180.246 E8.76901
G1 X21.887 Y179.344 E8.80497
G1 X22.083 Y178.897 E8.8212
G1 X22.208 Y178.415 E8.83776
G1 X22.25 Y177.993 E8.85187
G1 X22.231 Y177.506 E8.86808
G1 X22.053 Y176.7 E8.89553
G1 X22.028 Y176.3 E8.90886
G1 X22.057 Y175.967 E8.91998
G1 X22.144 Y175.587 E8.93294
G1 X22.278 Y175.246 E8.94513
G1 X22.471 Y174.912 E8.95796
G1 X22.695 Y174.63 E8.96994
G1 X22.969 Y174.372 E8.98245
G1 X23.267 Y174.168 E8.99447
G1 X23.612 Y173.996 E9.00729
G1 X24.401 Y173.742 E9.03486
G1 X24.838 Y173.518 E9.05119
G1 X25.21 Y173.245 E9.06654
G1 X25.532 Y172.924 E9.08166
G1 X25.812 Y172.542 E9.09741
G1 X26.297 Y171.57 E9.13354
G1 X26.667 Y170.981 E9.15668
G1 X27.026 Y170.528 E9.1759
G1 X27.517 Y170.029 E9.19918
G1 X28.013 Y169.624 E9.22048
G1 X28.542 Y169.279 E9.24149
G1 X29.144 Y168.972 E9.26396
G1 X29.709 Y168.76 E9.28404
G1 X30.381 Y168.586 E9.30712
G1 X30.991 Y168.497 E9.32763
G1 X31.645 Y168.472 E9.3494
G1 X32.752 Y168.536 E9.38628
G1 X33.246 Y168.484 E9.4028
G1 X33.65 Y168.373 E9.41673
G1 X34.123 Y168.161 E9.43397
G1 X34.491 Y167.919 E9.44862
G1 X35.111 Y167.357 E9.47645
G1 X35.422 Y167.15 E9.48888
G1 X35.756 Y166.992 E9.50117
G1 X36.124 Y166.879 E9.51397
G1 X36.48 Y166.826 E9.52594
G1 X36.856 Y166.827 E9.53845
G1 X37.208 Y166.879 E9.55028
G1 X37.583 Y166.993 E9.56332
G1 X37.906 Y167.145 E9.57519
G1 X38.221 Y167.358 E9.58784
G1 X38.862 Y167.93 E9.61641
G1 X39.218 Y168.166 E9.63062
G1 X39.657 Y168.363 E9.64662
G1 X40.056 Y168.474 E9.6604
G1 X40.586 Y168.541 E9.67817
G1 X41.686 Y168.471 E9.71483
G1 X42.342 Y168.495 E9.73666
G1 X42.951 Y168.584 E9.75713
G1 X43.619 Y168.757 E9.78008
G1 X44.197 Y168.977 E9.80065
G1 X44.785 Y169.273 E9.82255
G1 X45.317 Y169.62 E9.84367
G1 X45.814 Y170.026 E9.86502
G1 X46.306 Y170.526 E9.88835
G1 X46.665 Y170.979 E9.90757
G1 X47.035 Y171.569 E9.93074
G1 X47.518 Y172.537 E9.96672
G1 X47.819 Y172.942 E9.9835
G1 X48.103 Y173.229 E9.99693
G1 X48.521 Y173.533 E10.01412
